Praneshv25/Robot-Cello-RL/RL-code/allegro-detailed-test-song2.csv
timestamp_robot,time_elapsed_sec,event_flag,event_label,current_event_type,current_note_number,current_note_name,current_string,current_bowing,remaining_duration_sec,TCP_pose_x,TCP_pose_y,TCP_pose_z,TCP_pose_rx,TCP_pose_ry,TCP_pose_rz,q_base,q_shoulder,q_elbow,q_wrist1,q_wrist2,q_wrist3,TCP_force_x,TCP_force_y,TCP_force_z,TCP_force_rx,TCP_force_ry,TCP_force_rz
7938.340000,0.000000,1,START a_bow,Note,62,D4,A,up,0.498958,0.303010,0.788509,0.101793,-1.542419,-2.354292,1.348089,1.262769,-2.979304,-0.433680,-2.171174,1.800190,3.886331,0.000000,0.000000,0.000000,0.000000,0.000000,0.000000
7938.348000,0.008000,1,START a_bow,Note,62,D4,A,up,0.490958,0.303224,0.788038,0.101987,-1.542316,-2.354236,1.348212,1.262371,-2.977278,-0.437436,-2.169602,1.799922,3.885998,0.000000,0.000000,0.000000,0.000000,0.000000,0.000000
7938.356000,0.016000,1,START a_bow,Note,62,D4,A,up,0.482958,0.303453,0.787534,0.102195,-1.542206,-2.354177,1.348343,1.261946,-2.975130,-0.441412,-2.167942,1.799636,3.885641,0.000000,0.000000,0.000000,0.000000,0.000000,0.000000
7938.364000,0.024000,1,START a_bow,Note,62,D4,A,up,0.474958,0.303696,0.786996,0.102416,-1.542089,-2.354114,1.348483,1.261492,-2.972859,-0.445612,-2.166192,1.799330,3.885261,0.000000,0.000000,0.000000,0.000000,0.000000,0.000000
7938.380000,0.040000,1,START a_bow,Note,62,D4,A,up,0.458958,0.304232,0.785814,0.102903,-1.541831,-2.353975,1.348791,1.260491,-2.967934,-0.454701,-2.162422,1.798656,3.884424,0.000000,0.000000,0.000000,0.000000,0.000000,0.000000
7938.388000,0.048000,1,START a_bow,Note,62,D4,A,up,0.450958,0.304525,0.785167,0.103169,-1.541690,-2.353899,1.348960,1.259943,-2.965278,-0.459593,-2.160401,1.798286,3.883966,0.000000,0.000000,0.000000,0.000000,0.000000,0.000000
7938.396000,0.056000,1,START a_bow,Note,62,D4,A,up,0.442958,0.304831,0.784492,0.103447,-1.541542,-2.353819,1.349136,1.259371,-2.962533,-0.464642,-2.158323,1.797900,3.883488,0.000000,0.000000,0.000000,0.000000,0.000000,0.000000
7938.404000,0.064000,1,START a_bow,Note,62,D4,A,up,0.434958,0.305149,0.783791,0.103736,-1.541389,-2.353737,1.349318,1.258775,-2.959711,-0.469824,-2.156196,1.797497,3.882991,0.000000,0.000000,0.000000,0.000000,0.000000,0.000000
7938.420000,0.080000,1,START a_bow,Note,62,D4,A,up,0.418958,0.305820,0.782310,0.104345,-1.541066,-2.353563,1.349704,1.257515,-2.953846,-0.480570,-2.151809,1.796646,3.881940,0.000000,0.000000,0.000000,0.000000,0.000000,0.000000
7938.436000,0.096000,1,START a_bow,Note,62,D4,A,up,0.402958,0.306538,0.780726,0.104997,-1.540721,-2.353376,1.350117,1.256163,-2.947703,-0.491786,-2.147263,1.795731,3.880814,0.000000,0.000000,0.000000,0.000000,0.000000,0.000000
7938.444000,0.104000,1,START a_bow,Note,62,D4,A,up,0.394958,0.306899,0.779930,0.105325,-1.540547,-2.353282,1.350324,1.255482,-2.944665,-0.497318,-2.145033,1.795270,3.880248,0.000000,0.000000,0.000000,0.000000,0.000000,0.000000
7938.484000,0.144000,1,START a_bow,Note,62,D4,A,up,0.354958,0.308525,0.776342,0.106802,-1.539764,-2.352860,1.351258,1.252402,-2.931346,-0.521467,-2.135396,1.793179,3.877691,0.000000,0.000000,0.000000,0.000000,0.000000,0.000000
7938.492000,0.152000,1,START a_bow,Note,62,D4,A,up,0.346958,0.308815,0.775703,0.107065,-1.539624,-2.352785,1.351424,1.251851,-2.929032,-0.525644,-2.133746,1.792805,3.877234,0.000000,0.000000,0.000000,0.000000,0.000000,0.000000
7938.508000,0.168000,1,START a_bow,Note,62,D4,A,up,0.330958,0.309359,0.774502,0.107560,-1.539362,-2.352643,1.351736,1.250815,-2.924734,-0.533388,-2.130698,1.792100,3.876377,0.000000,0.000000,0.000000,0.000000,0.000000,0.000000
7938.524000,0.184000,1,START a_bow,Note,62,D4,A,up,0.314958,0.309856,0.773407,0.108011,-1.539123,-2.352514,1.352021,1.249867,-2.920860,-0.540352,-2.127972,1.791455,3.875593,0.000000,0.000000,0.000000,0.000000,0.000000,0.000000
7938.548000,0.208000,1,START a_bow,Note,62,D4,A,up,0.290958,0.310512,0.771958,0.108607,-1.538807,-2.352343,1.352398,1.248611,-2.915811,-0.549405,-2.124448,1.790600,3.874557,0.000000,0.000000,0.000000,0.000000,0.000000,0.000000
7938.556000,0.216000,1,START a_bow,Note,62,D4,A,up,0.282958,0.310708,0.771528,0.108784,-1.538713,-2.352292,1.352510,1.248237,-2.914324,-0.552065,-2.123417,1.790345,3.874248,0.000000,0.000000,0.000000,0.000000,0.000000,0.000000
7938.564000,0.224000,1,START a_bow,Note,62,D4,A,up,0.274958,0.310891,0.771123,0.108951,-1.538625,-2.352245,1.352615,1.247886,-2.912934,-0.554551,-2.122455,1.790105,3.873958,0.000000,0.000000,0.000000,0.000000,0.000000,0.000000
7938.580000,0.240000,1,START a_bow,Note,62,D4,A,up,0.258958,0.311222,0.770393,0.109252,-1.538465,-2.352159,1.352805,1.247250,-2.910438,-0.559010,-2.120734,1.789671,3.873434,0.000000,0.000000,0.000000,0.000000,0.000000,0.000000
7938.588000,0.248000,1,START a_bow,Note,62,D4,A,up,0.250958,0.311370,0.770066,0.109386,-1.538394,-2.352120,1.352890,1.246966,-2.909329,-0.560988,-2.119973,1.789477,3.873200,0.000000,0.000000,0.000000,0.000000,0.000000,0.000000
7938.596000,0.256000,1,START a_bow,Note,62,D4,A,up,0.242958,0.311506,0.769766,0.109509,-1.538329,-2.352085,1.352968,1.246705,-2.908312,-0.562801,-2.119276,1.789299,3.872985,0.000000,0.000000,0.000000,0.000000,0.000000,0.000000
7938.604000,0.264000,1,START a_bow,Note,62,D4,A,up,0.234958,0.311630,0.769492,0.109622,-1.538269,-2.352052,1.353039,1.246466,-2.907387,-0.564451,-2.118643,1.789136,3.872789,0.000000,0.000000,0.000000,0.000000,0.000000,0.000000
7938.612000,0.272000,1,START a_bow,Note,62,D4,A,up,0.226958,0.311743,0.769245,0.109724,-1.538215,-2.352023,1.353104,1.246250,-2.906552,-0.565939,-2.118072,1.788988,3.872611,0.000000,0.000000,0.000000,0.000000,0.000000,0.000000
7938.620000,0.280000,1,START a_bow,Note,62,D4,A,up,0.218958,0.311843,0.769023,0.109816,-1.538166,-2.351997,1.353161,1.246057,-2.905806,-0.567267,-2.117564,1.788856,3.872451,0.000000,0.000000,0.000000,0.000000,0.000000,0.000000
7938.636000,0.296000,1,START a_bow,Note,62,D4,A,up,0.202958,0.312009,0.768657,0.109966,-1.538087,-2.351954,1.353256,1.245738,-2.904581,-0.569446,-2.116730,1.788638,3.872189,0.000000,0.000000,0.000000,0.000000,0.000000,0.000000
7938.660000,0.320000,1,START a_bow,Note,62,D4,A,up,0.178958,0.312168,0.768305,0.110111,-1.538010,-2.351912,1.353348,1.245430,-2.903405,-0.571538,-2.115931,1.788427,3.871936,0.000000,0.000000,0.000000,0.000000,0.000000,0.000000
7938.676000,0.336000,1,START a_bow,Note,62,D4,A,up,0.162958,0.312216,0.768201,0.110154,-1.537987,-2.351900,1.353375,1.245339,-2.903057,-0.572157,-2.115695,1.788365,3.871861,0.000000,0.000000,0.000000,0.000000,0.000000,0.000000
7938.684000,0.344000,1,START a_bow,Note,62,D4,A,up,0.154958,0.312222,0.768188,0.110159,-1.537984,-2.351898,1.353378,1.245328,-2.903013,-0.572234,-2.115665,1.788357,3.871852,0.000000,0.000000,0.000000,0.000000,0.000000,0.000000
7938.692000,0.352000,2,END a_bow,Note,62,D4,A,up,0.146958,0.312222,0.768188,0.110159,-1.537984,-2.351898,1.353378,1.245328,-2.903013,-0.572234,-2.115665,1.788357,3.871852,0.000000,0.000000,0.000000,0.000000,0.000000,0.000000
7938.700000,0.360000,2,END a_bow,Note,62,D4,A,up,0.138958,0.312222,0.768188,0.110159,-1.537984,-2.351898,1.353378,1.245328,-2.903013,-0.572234,-2.115665,1.788357,3.871852,0.000000,0.000000,0.000000,0.000000,0.000000,0.000000
7938.708000,0.368000,2,END a_bow,Note,62,D4,A,up,0.130958,0.312222,0.768188,0.110159,-1.537984,-2.351898,1.353378,1.245328,-2.903013,-0.572234,-2.115665,1.788357,3.871852,0.000000,0.000000,0.000000,0.000000,0.000000,0.000000
7938.724000,0.384000,1,START a_bow,Note,62,D4,A,down,0.614958,0.312206,0.768222,0.110145,-1.537991,-2.351902,1.353369,1.245358,-2.903128,-0.572030,-2.115743,1.788378,3.871876,0.000000,0.000000,0.000000,0.000000,0.000000,0.000000
7938.740000,0.400000,1,START a_bow,Note,62,D4,A,down,0.598958,0.312144,0.768359,0.110089,-1.538021,-2.351919,1.353334,1.245477,-2.903585,-0.571218,-2.116053,1.788460,3.871975,0.000000,0.000000,0.000000,0.000000,0.000000,0.000000
7938.748000,0.408000,1,START a_bow,Note,62,D4,A,down,0.590958,0.312095,0.768467,0.110045,-1.538045,-2.351931,1.353306,1.245571,-2.903944,-0.570579,-2.116297,1.788524,3.872052,0.000000,0.000000,0.000000,0.000000,0.000000,0.000000
7938.756000,0.416000,1,START a_bow,Note,62,D4,A,down,0.582958,0.312034,0.768601,0.109989,-1.538074,-2.351947,1.353271,1.245688,-2.904391,-0.569784,-2.116601,1.788604,3.872148,0.000000,0.000000,0.000000,0.000000,0.000000,0.000000
7938.764000,0.424000,1,START a_bow,Note,62,D4,A,down,0.574958,0.311962,0.768760,0.109924,-1.538109,-2.351966,1.353229,1.245828,-2.904926,-0.568833,-2.116964,1.788699,3.872263,0.000000,0.000000,0.000000,0.000000,0.000000,0.000000
7938.772000,0.432000,1,START a_bow,Note,62,D4,A,down,0.566958,0.311878,0.768946,0.109847,-1.538150,-2.351988,1.353181,1.245990,-2.905549,-0.567723,-2.117389,1.788810,3.872396,0.000000,0.000000,0.000000,0.000000,0.000000,0.000000
7938.780000,0.440000,1,START a_bow,Note,62,D4,A,down,0.558958,0.311782,0.769158,0.109760,-1.538196,-2.352013,1.353126,1.246175,-2.906261,-0.566456,-2.117874,1.788936,3.872549,0.000000,0.000000,0.000000,0.000000,0.000000,0.000000
7938.788000,0.448000,1,START a_bow,Note,62,D4,A,down,0.550958,0.311674,0.769396,0.109662,-1.538248,-2.352041,1.353064,1.246383,-2.907063,-0.565028,-2.118421,1.789078,3.872720,0.000000,0.000000,0.000000,0.000000,0.000000,0.000000
7938.796000,0.456000,1,START a_bow,Note,62,D4,A,down,0.542958,0.311554,0.769661,0.109553,-1.538306,-2.352072,1.352995,1.246613,-2.907955,-0.563439,-2.119031,1.789236,3.872909,0.000000,0.000000,0.000000,0.000000,0.000000,0.000000
7938.812000,0.472000,1,START a_bow,Note,62,D4,A,down,0.526958,0.311279,0.770267,0.109303,-1.538438,-2.352144,1.352838,1.247141,-2.910011,-0.559772,-2.120441,1.789597,3.873344,0.000000,0.000000,0.000000,0.000000,0.000000,0.000000
7938.820000,0.480000,1,START a_bow,Note,62,D4,A,down,0.518958,0.311124,0.770610,0.109162,-1.538513,-2.352184,1.352749,1.247439,-2.911178,-0.557689,-2.121243,1.789800,3.873590,0.000000,0.000000,0.000000,0.000000,0.000000,0.000000
7938.828000,0.488000,1,START a_bow,Note,62,D4,A,down,0.510958,0.310957,0.770978,0.109011,-1.538593,-2.352228,1.352653,1.247760,-2.912438,-0.555439,-2.122112,1.790019,3.873854,0.000000,0.000000,0.000000,0.000000,0.000000,0.000000
7938.844000,0.504000,1,START a_bow,Note,62,D4,A,down,0.494958,0.310587,0.771794,0.108675,-1.538771,-2.352324,1.352441,1.248468,-2.915242,-0.550423,-2.124053,1.790502,3.874439,0.000000,0.000000,0.000000,0.000000,0.000000,0.000000
7938.860000,0.520000,1,START a_bow,Note,62,D4,A,down,0.478958,0.310170,0.772714,0.108296,-1.538972,-2.352432,1.352202,1.249266,-2.918434,-0.544704,-2.126275,1.791046,3.875097,0.000000,0.000000,0.000000,0.000000,0.000000,0.000000
7938.868000,0.528000,1,START a_bow,Note,62,D4,A,down,0.470958,0.309944,0.773213,0.108091,-1.539081,-2.352491,1.352072,1.249699,-2.920179,-0.541574,-2.127495,1.791341,3.875455,0.000000,0.000000,0.000000,0.000000,0.000000,0.000000
7938.884000,0.544000,1,START a_bow,Note,62,D4,A,down,0.454958,0.309456,0.774289,0.107648,-1.539316,-2.352618,1.351792,1.250630,-2.923976,-0.534752,-2.130163,1.791975,3.876224,0.000000,0.000000,0.000000,0.000000,0.000000,0.000000
7938.900000,0.560000,1,START a_bow,Note,62,D4,A,down,0.438958,0.308921,0.775470,0.107161,-1.539574,-2.352757,1.351485,1.251650,-2.928193,-0.527157,-2.133149,1.792668,3.877068,0.000000,0.000000,0.000000,0.000000,0.000000,0.000000
7938.916000,0.576000,1,START a_bow,Note,62,D4,A,down,0.422958,0.308338,0.776755,0.106632,-1.539854,-2.352909,1.351150,1.252757,-2.932849,-0.518751,-2.136472,1.793421,3.877985,0.000000,0.000000,0.000000,0.000000,0.000000,0.000000
7938.924000,0.584000,1,START a_bow,Note,62,D4,A,down,0.414958,0.308029,0.777437,0.106352,-1.540003,-2.352989,1.350973,1.253343,-2.935347,-0.514232,-2.138267,1.793819,3.878472,0.000000,0.000000,0.000000,0.000000,0.000000,0.000000
7938.932000,0.592000,1,START a_bow,Note,62,D4,A,down,0.406958,0.307709,0.778144,0.106060,-1.540157,-2.353072,1.350789,1.253951,-2.937963,-0.509493,-2.140155,1.794232,3.878976,0.000000,0.000000,0.000000,0.000000,0.000000,0.000000
7938.956000,0.616000,1,START a_bow,Note,62,D4,A,down,0.382958,0.306675,0.780424,0.105122,-1.540655,-2.353341,1.350195,1.255905,-2.946548,-0.493890,-2.146414,1.795556,3.880599,0.000000,0.000000,0.000000,0.000000,0.000000,0.000000
7938.964000,0.624000,1,START a_bow,Note,62,D4,A,down,0.374958,0.306309,0.781231,0.104789,-1.540831,-2.353436,1.349985,1.256594,-2.949649,-0.488237,-2.148698,1.796023,3.881173,0.000000,0.000000,0.000000,0.000000,0.000000,0.000000
7938.972000,0.632000,1,START a_bow,Note,62,D4,A,down,0.366958,0.305951,0.782021,0.104464,-1.541003,-2.353529,1.349779,1.257268,-2.952714,-0.482639,-2.150968,1.796479,3.881734,0.000000,0.000000,0.000000,0.000000,0.000000,0.000000
7938.980000,0.640000,1,START a_bow,Note,62,D4,A,down,0.358958,0.305605,0.782784,0.104150,-1.541170,-2.353618,1.349581,1.257918,-2.955710,-0.477159,-2.153199,1.796918,3.882276,0.000000,0.000000,0.000000,0.000000,0.000000,0.000000
7938.996000,0.656000,1,START a_bow,Note,62,D4,A,down,0.342958,0.304949,0.784232,0.103554,-1.541486,-2.353789,1.349203,1.259150,-2.961484,-0.466570,-2.157531,1.797751,3.883304,0.000000,0.000000,0.000000,0.000000,0.000000,0.000000
7939.004000,0.664000,1,START a_bow,Note,62,D4,A,down,0.334958,0.304639,0.784917,0.103272,-1.541635,-2.353869,1.349025,1.259731,-2.964258,-0.461471,-2.159628,1.798143,3.883789,0.000000,0.000000,0.000000,0.000000,0.000000,0.000000
7939.012000,0.672000,1,START a_bow,Note,62,D4,A,down,0.326958,0.304340,0.785576,0.103001,-1.541779,-2.353947,1.348853,1.260290,-2.966954,-0.456508,-2.161675,1.798520,3.884256,0.000000,0.000000,0.000000,0.000000,0.000000,0.000000
7939.020000,0.680000,1,START a_bow,Note,62,D4,A,down,0.318958,0.304053,0.786209,0.102740,-1.541917,-2.354021,1.348689,1.260826,-2.969569,-0.451687,-2.163670,1.798881,3.884704,0.000000,0.000000,0.000000,0.000000,0.000000,0.000000
7939.028000,0.688000,1,START a_bow,Note,62,D4,A,down,0.310958,0.303778,0.786816,0.102490,-1.542049,-2.354092,1.348530,1.261339,-2.972101,-0.447013,-2.165609,1.799227,3.885133,0.000000,0.000000,0.000000,0.000000,0.000000,0.000000
7939.836000,1.496000,1,START a_bow,Note,57,A3,A,down,0.002958,0.311729,0.769274,0.109712,-1.538221,-2.352027,1.353096,1.246276,-2.906651,-0.565762,-2.118140,1.789006,3.872632,0.000000,0.000000,0.000000,0.000000,0.000000,0.000000
7939.964000,1.624000,1,START a_bow,Note,57,A3,A,down,0.374958,0.308488,0.776424,0.106769,-1.539782,-2.352870,1.351236,1.252472,-2.931643,-0.520931,-2.135608,1.793227,3.877749,0.000000,0.000000,0.000000,0.000000,0.000000,0.000000
7940.188000,1.848000,1,START a_bow,Note,57,A3,A,down,0.150958,0.301223,0.792452,0.100170,-1.543279,-2.354755,1.347061,1.266080,-2.996938,-0.400822,-2.185081,1.802415,3.889112,0.000000,0.000000,0.000000,0.000000,0.000000,0.000000
7940.196000,1.856000,1,START a_bow,Note,57,A3,A,down,0.142958,0.301120,0.792680,0.100076,-1.543329,-2.354781,1.347002,1.266271,-2.998001,-0.398832,-2.185933,1.802543,3.889273,0.000000,0.000000,0.000000,0.000000,0.000000,0.000000
7940.204000,1.864000,1,START a_bow,Note,57,A3,A,down,0.134958,0.301028,0.792882,0.099993,-1.543373,-2.354805,1.346949,1.266441,-2.998946,-0.397060,-2.186691,1.802656,3.889415,0.000000,0.000000,0.000000,0.000000,0.000000,0.000000
7940.212000,1.872000,1,START a_bow,Note,57,A3,A,down,0.126958,0.300948,0.793059,0.099920,-1.543411,-2.354826,1.346903,1.266588,-2.999773,-0.395511,-2.187355,1.802755,3.889539,0.000000,0.000000,0.000000,0.000000,0.000000,0.000000
7940.220000,1.880000,1,START a_bow,Note,57,A3,A,down,0.118958,0.300880,0.793209,0.099858,-1.543444,-2.354843,1.346864,1.266713,-3.000480,-0.394185,-2.187924,1.802839,3.889645,0.000000,0.000000,0.000000,0.000000,0.000000,0.000000
7940.228000,1.888000,1,START a_bow,Note,57,A3,A,down,0.110958,0.300824,0.793333,0.099807,-1.543471,-2.354858,1.346832,1.266817,-3.001065,-0.393087,-2.188395,1.802908,3.889732,0.000000,0.000000,0.000000,0.000000,0.000000,0.000000
7940.244000,1.904000,1,START a_bow,Note,57,A3,A,down,0.094958,0.300747,0.793502,0.099737,-1.543508,-2.354878,1.346788,1.266959,-3.001869,-0.391579,-2.189043,1.803003,3.889851,0.000000,0.000000,0.000000,0.000000,0.000000,0.000000
7940.260000,1.920000,1,START a_bow,Note,57,A3,A,down,0.078958,0.300718,0.793567,0.099711,-1.543522,-2.354886,1.346770,1.267013,-3.002179,-0.390997,-2.189293,1.803040,3.889897,0.000000,0.000000,0.000000,0.000000,0.000000,0.000000
7940.268000,1.928000,2,END a_bow,Note,57,A3,A,down,0.070958,0.300717,0.793568,0.099710,-1.543522,-2.354886,1.346770,1.267014,-3.002183,-0.390990,-2.189296,1.803040,3.889898,0.000000,0.000000,0.000000,0.000000,0.000000,0.000000
7940.276000,1.936000,2,END a_bow,Note,57,A3,A,down,0.062958,0.300717,0.793568,0.099710,-1.543522,-2.354886,1.346770,1.267014,-3.002183,-0.390990,-2.189296,1.803040,3.889898,0.000000,0.000000,0.000000,0.000000,0.000000,0.000000
7940.284000,1.944000,2,END a_bow,Note,57,A3,A,down,0.054958,0.300717,0.793568,0.099710,-1.543522,-2.354886,1.346770,1.267014,-3.002183,-0.390990,-2.189296,1.803040,3.889898,0.000000,0.000000,0.000000,0.000000,0.000000,0.000000
7940.292000,1.952000,1,START a_bow,Note,59,B3,A,up,0.296958,0.300718,0.793566,0.099711,-1.543522,-2.354885,1.346771,1.267012,-3.002174,-0.391006,-2.189289,1.803039,3.889896,0.000000,0.000000,0.000000,0.000000,0.000000,0.000000
7940.300000,1.960000,1,START a_bow,Note,59,B3,A,up,0.288958,0.300729,0.793543,0.099721,-1.543517,-2.354883,1.346777,1.266993,-3.002063,-0.391214,-2.189200,1.803026,3.889880,0.000000,0.000000,0.000000,0.000000,0.000000,0.000000
7940.308000,1.968000,1,START a_bow,Note,59,B3,A,up,0.280958,0.300751,0.793493,0.099741,-1.543506,-2.354877,1.346790,1.266951,-3.001827,-0.391657,-2.189009,1.802998,3.889845,0.000000,0.000000,0.000000,0.000000,0.000000,0.000000
7940.316000,1.976000,1,START a_bow,Note,59,B3,A,up,0.272958,0.300786,0.793417,0.099773,-1.543489,-2.354868,1.346810,1.266887,-3.001465,-0.392337,-2.188717,1.802956,3.889791,0.000000,0.000000,0.000000,0.000000,0.000000,0.000000
7940.324000,1.984000,1,START a_bow,Note,59,B3,A,up,0.264958,0.300832,0.793314,0.099815,-1.543467,-2.354856,1.346836,1.266801,-3.000978,-0.393250,-2.188325,1.802898,3.889719,0.000000,0.000000,0.000000,0.000000,0.000000,0.000000
7940.332000,1.992000,1,START a_bow,Note,59,B3,A,up,0.256958,0.300891,0.793185,0.099868,-1.543439,-2.354841,1.346870,1.266693,-3.000367,-0.394396,-2.187833,1.802826,3.889628,0.000000,0.000000,0.000000,0.000000,0.000000,0.000000
7940.340000,2.000000,1,START a_bow,Note,59,B3,A,up,0.248958,0.300962,0.793029,0.099932,-1.543404,-2.354822,1.346911,1.266563,-2.999633,-0.395773,-2.187243,1.802738,3.889518,0.000000,0.000000,0.000000,0.000000,0.000000,0.000000
7940.348000,2.008000,1,START a_bow,Note,59,B3,A,up,0.240958,0.301044,0.792846,0.100007,-1.543365,-2.354801,1.346958,1.266410,-2.998777,-0.397378,-2.186555,1.802636,3.889390,0.000000,0.000000,0.000000,0.000000,0.000000,0.000000
7940.364000,2.024000,1,START a_bow,Note,59,B3,A,up,0.224958,0.301246,0.792402,0.100191,-1.543268,-2.354748,1.347074,1.266038,-2.996705,-0.401259,-2.184895,1.802387,3.889076,0.000000,0.000000,0.000000,0.000000,0.000000,0.000000
7940.372000,2.032000,1,START a_bow,Note,59,B3,A,up,0.216958,0.301365,0.792140,0.100298,-1.543210,-2.354718,1.347142,1.265819,-2.995492,-0.403529,-2.183925,1.802240,3.888892,0.000000,0.000000,0.000000,0.000000,0.000000,0.000000
7940.396000,2.056000,1,START a_bow,Note,59,B3,A,up,0.192958,0.301793,0.791194,0.100688,-1.543004,-2.354606,1.347389,1.265026,-2.991168,-0.411608,-2.180486,1.801708,3.888225,0.000000,0.000000,0.000000,0.000000,0.000000,0.000000
7940.420000,2.080000,1,START a_bow,Note,59,B3,A,up,0.168958,0.302322,0.790027,0.101168,-1.542749,-2.354469,1.347692,1.264046,-2.985939,-0.421354,-2.176359,1.801050,3.887402,0.000000,0.000000,0.000000,0.000000,0.000000,0.000000
7940.436000,2.096000,1,START a_bow,Note,59,B3,A,up,0.152958,0.302653,0.789297,0.101469,-1.542590,-2.354383,1.347883,1.263432,-2.982725,-0.427330,-2.173839,1.800637,3.886887,0.000000,0.000000,0.000000,0.000000,0.000000,0.000000
7940.452000,2.112000,1,START a_bow,Note,59,B3,A,up,0.136958,0.302936,0.788673,0.101726,-1.542454,-2.354310,1.348045,1.262907,-2.980011,-0.432369,-2.171723,1.800284,3.886446,0.000000,0.000000,0.000000,0.000000,0.000000,0.000000
7940.468000,2.128000,1,START a_bow,Note,59,B3,A,up,0.120958,0.303171,0.788155,0.101939,-1.542341,-2.354249,1.348180,1.262470,-2.977782,-0.436502,-2.169991,1.799991,3.886080,0.000000,0.000000,0.000000,0.000000,0.000000,0.000000
7940.484000,2.144000,1,START a_bow,Note,59,B3,A,up,0.104958,0.303357,0.787744,0.102108,-1.542251,-2.354200,1.348287,1.262123,-2.976024,-0.439759,-2.168630,1.799757,3.885790,0.000000,0.000000,0.000000,0.000000,0.000000,0.000000
7940.492000,2.152000,1,START a_bow,Note,59,B3,A,up,0.096958,0.303432,0.787578,0.102176,-1.542215,-2.354181,1.348330,1.261983,-2.975318,-0.441065,-2.168085,1.799663,3.885672,0.000000,0.000000,0.000000,0.000000,0.000000,0.000000
7940.500000,2.160000,1,START a_bow,Note,59,B3,A,up,0.088958,0.303496,0.787439,0.102234,-1.542185,-2.354164,1.348366,1.261866,-2.974727,-0.442159,-2.167629,1.799584,3.885574,0.000000,0.000000,0.000000,0.000000,0.000000,0.000000
7940.508000,2.168000,1,START a_bow,Note,59,B3,A,up,0.080958,0.303547,0.787326,0.102280,-1.542160,-2.354151,1.348396,1.261770,-2.974249,-0.443042,-2.167261,1.799520,3.885494,0.000000,0.000000,0.000000,0.000000,0.000000,0.000000
7940.524000,2.184000,1,START a_bow,Note,59,B3,A,up,0.064958,0.303613,0.787180,0.102340,-1.542128,-2.354134,1.348434,1.261647,-2.973633,-0.444182,-2.166786,1.799437,3.885391,0.000000,0.000000,0.000000,0.000000,0.000000,0.000000
7940.532000,2.192000,1,START a_bow,Note,59,B3,A,up,0.056958,0.303628,0.787147,0.102354,-1.542121,-2.354130,1.348442,1.261619,-2.973493,-0.444441,-2.166678,1.799418,3.885367,0.000000,0.000000,0.000000,0.000000,0.000000,0.000000
7940.540000,2.200000,2,END a_bow,Note,59,B3,A,up,0.048958,0.303631,0.787139,0.102357,-1.542119,-2.354129,1.348444,1.261613,-2.973461,-0.444499,-2.166654,1.799414,3.885362,0.000000,0.000000,0.000000,0.000000,0.000000,0.000000
7940.548000,2.208000,2,END a_bow,Note,59,B3,A,up,0.040958,0.303631,0.787139,0.102357,-1.542119,-2.354129,1.348444,1.261613,-2.973461,-0.444499,-2.166654,1.799414,3.885362,0.000000,0.000000,0.000000,0.000000,0.000000,0.000000
7940.556000,2.216000,2,END a_bow,Note,59,B3,A,up,0.032958,0.303631,0.787139,0.102357,-1.542119,-2.354129,1.348444,1.261613,-2.973461,-0.444499,-2.166654,1.799414,3.885362,0.000000,0.000000,0.000000,0.000000,0.000000,0.000000
7940.564000,2.224000,2,END a_bow,Note,59,B3,A,up,0.024958,0.303631,0.787139,0.102357,-1.542119,-2.354129,1.348444,1.261613,-2.973461,-0.444499,-2.166654,1.799414,3.885362,0.000000,0.000000,0.000000,0.000000,0.000000,0.000000
7940.572000,2.232000,1,START a_bow,Note,61,C#4,A,down,0.266958,0.303627,0.787149,0.102353,-1.542122,-2.354130,1.348441,1.261621,-2.973504,-0.444420,-2.166687,1.799419,3.885369,0.000000,0.000000,0.000000,0.000000,0.000000,0.000000
7940.580000,2.240000,1,START a_bow,Note,61,C#4,A,down,0.258958,0.303610,0.787186,0.102338,-1.542130,-2.354134,1.348432,1.261652,-2.973658,-0.444135,-2.166805,1.799440,3.885395,0.000000,0.000000,0.000000,0.000000,0.000000,0.000000
7940.588000,2.248000,1,START a_bow,Note,61,C#4,A,down,0.250958,0.303582,0.787249,0.102312,-1.542143,-2.354142,1.348416,1.261705,-2.973924,-0.443643,-2.167010,1.799476,3.885439,0.000000,0.000000,0.000000,0.000000,0.000000,0.000000
7940.596000,2.256000,1,START a_bow,Note,61,C#4,A,down,0.242958,0.303541,0.787339,0.102275,-1.542163,-2.354152,1.348392,1.261781,-2.974303,-0.442943,-2.167302,1.799527,3.885503,0.000000,0.000000,0.000000,0.000000,0.000000,0.000000
7940.604000,2.264000,1,START a_bow,Note,61,C#4,A,down,0.234958,0.303488,0.787455,0.102227,-1.542188,-2.354166,1.348362,1.261879,-2.974795,-0.442033,-2.167681,1.799593,3.885585,0.000000,0.000000,0.000000,0.000000,0.000000,0.000000
7940.612000,2.272000,1,START a_bow,Note,61,C#4,A,down,0.226958,0.303424,0.787597,0.102168,-1.542219,-2.354183,1.348325,1.261999,-2.975400,-0.440913,-2.168148,1.799674,3.885686,0.000000,0.000000,0.000000,0.000000,0.000000,0.000000
7940.620000,2.280000,1,START a_bow,Note,61,C#4,A,down,0.218958,0.303347,0.787767,0.102099,-1.542256,-2.354203,1.348281,1.262142,-2.976120,-0.439581,-2.168704,1.799770,3.885806,0.000000,0.000000,0.000000,0.000000,0.000000,0.000000
7940.628000,2.288000,1,START a_bow,Note,61,C#4,A,down,0.210958,0.303258,0.787962,0.102018,-1.542299,-2.354226,1.348230,1.262308,-2.976955,-0.438034,-2.169351,1.799881,3.885944,0.000000,0.000000,0.000000,0.000000,0.000000,0.000000
7940.636000,2.296000,1,START a_bow,Note,61,C#4,A,down,0.202958,0.303157,0.788185,0.101927,-1.542347,-2.354252,1.348172,1.262495,-2.977907,-0.436270,-2.170088,1.800007,3.886101,0.000000,0.000000,0.000000,0.000000,0.000000,0.000000
7940.644000,2.304000,1,START a_bow,Note,61,C#4,A,down,0.194958,0.303045,0.788434,0.101824,-1.542402,-2.354281,1.348107,1.262705,-2.978977,-0.434287,-2.170919,1.800149,3.886277,0.000000,0.000000,0.000000,0.000000,0.000000,0.000000
7940.652000,2.312000,1,START a_bow,Note,61,C#4,A,down,0.186958,0.302920,0.788709,0.101711,-1.542462,-2.354314,1.348036,1.262937,-2.980167,-0.432081,-2.171844,1.800305,3.886472,0.000000,0.000000,0.000000,0.000000,0.000000,0.000000
7940.660000,2.320000,1,START a_bow,Note,61,C#4,A,down,0.178958,0.302783,0.789011,0.101587,-1.542528,-2.354349,1.347957,1.263191,-2.981477,-0.429648,-2.172865,1.800476,3.886685,0.000000,0.000000,0.000000,0.000000,0.000000,0.000000
7940.668000,2.328000,1,START a_bow,Note,61,C#4,A,down,0.170958,0.302634,0.789339,0.101451,-1.542599,-2.354388,1.347871,1.263468,-2.982911,-0.426985,-2.173985,1.800662,3.886917,0.000000,0.000000,0.000000,0.000000,0.000000,0.000000
7940.684000,2.344000,1,START a_bow,Note,61,C#4,A,down,0.154958,0.302300,0.790076,0.101148,-1.542760,-2.354475,1.347680,1.264087,-2.986157,-0.420948,-2.176530,1.801078,3.887437,0.000000,0.000000,0.000000,0.000000,0.000000,0.000000
7940.708000,2.368000,1,START a_bow,Note,61,C#4,A,down,0.130958,0.301773,0.791238,0.100670,-1.543014,-2.354611,1.347377,1.265063,-2.991368,-0.411234,-2.180644,1.801733,3.888256,0.000000,0.000000,0.000000,0.000000,0.000000,0.000000
7940.716000,2.376000,1,START a_bow,Note,61,C#4,A,down,0.122958,0.301620,0.791577,0.100530,-1.543088,-2.354651,1.347289,1.265347,-2.992908,-0.408359,-2.181867,1.801923,3.888495,0.000000,0.000000,0.000000,0.000000,0.000000,0.000000
7940.724000,2.384000,1,START a_bow,Note,61,C#4,A,down,0.114958,0.301479,0.791888,0.100402,-1.543156,-2.354688,1.347208,1.265608,-2.994336,-0.405691,-2.183003,1.802099,3.888715,0.000000,0.000000,0.000000,0.000000,0.000000,0.000000
7940.732000,2.392000,1,START a_bow,Note,61,C#4,A,down,0.106958,0.301349,0.792174,0.100284,-1.543218,-2.354722,1.347133,1.265847,-2.995650,-0.403233,-2.184051,1.802259,3.888916,0.000000,0.000000,0.000000,0.000000,0.000000,0.000000
7940.740000,2.400000,1,START a_bow,Note,61,C#4,A,down,0.098958,0.301232,0.792433,0.100178,-1.543274,-2.354752,1.347066,1.266064,-2.996848,-0.400990,-2.185009,1.802404,3.889098,0.000000,0.000000,0.000000,0.000000,0.000000,0.000000
7940.748000,2.408000,1,START a_bow,Note,61,C#4,A,down,0.090958,0.301127,0.792665,0.100082,-1.543325,-2.354779,1.347006,1.266259,-2.997929,-0.398966,-2.185875,1.802534,3.889262,0.000000,0.000000,0.000000,0.000000,0.000000,0.000000
7940.756000,2.416000,1,START a_bow,Note,61,C#4,A,down,0.082958,0.301033,0.792871,0.099998,-1.543370,-2.354804,1.346952,1.266431,-2.998891,-0.397165,-2.186646,1.802650,3.889407,0.000000,0.000000,0.000000,0.000000,0.000000,0.000000
7940.772000,2.432000,1,START a_bow,Note,61,C#4,A,down,0.066958,0.300883,0.793202,0.099861,-1.543442,-2.354843,1.346866,1.266708,-3.000450,-0.394240,-2.187900,1.802836,3.889640,0.000000,0.000000,0.000000,0.000000,0.000000,0.000000
7940.780000,2.440000,1,START a_bow,Note,61,C#4,A,down,0.058958,0.300826,0.793328,0.099809,-1.543470,-2.354857,1.346833,1.266813,-3.001046,-0.393123,-2.188379,1.802906,3.889729,0.000000,0.000000,0.000000,0.000000,0.000000,0.000000
7940.796000,2.456000,1,START a_bow,Note,61,C#4,A,down,0.042958,0.300748,0.793501,0.099738,-1.543508,-2.354878,1.346788,1.266958,-3.001864,-0.391589,-2.189039,1.803003,3.889850,0.000000,0.000000,0.000000,0.000000,0.000000,0.000000
7940.820000,2.480000,2,END a_bow,Note,61,C#4,A,down,0.018958,0.300717,0.793568,0.099710,-1.543522,-2.354886,1.346770,1.267014,-3.002183,-0.390990,-2.189296,1.803040,3.889898,0.000000,0.000000,0.000000,0.000000,0.000000,0.000000
7940.852000,2.512000,1,START a_bow,Note,62,D4,A,up,0.236958,0.300729,0.793543,0.099721,-1.543517,-2.354883,1.346777,1.266993,-3.002063,-0.391214,-2.189200,1.803026,3.889880,0.000000,0.000000,0.000000,0.000000,0.000000,0.000000
7940.892000,2.552000,1,START a_bow,Note,62,D4,A,up,0.196958,0.300962,0.793029,0.099932,-1.543404,-2.354822,1.346911,1.266563,-2.999633,-0.395773,-2.187243,1.802738,3.889518,0.000000,0.000000,0.000000,0.000000,0.000000,0.000000
7940.908000,2.568000,1,START a_bow,Note,62,D4,A,up,0.180958,0.301139,0.792637,0.100094,-1.543319,-2.354776,1.347013,1.266235,-2.997800,-0.399207,-2.185772,1.802519,3.889242,0.000000,0.000000,0.000000,0.000000,0.000000,0.000000
7940.916000,2.576000,1,START a_bow,Note,62,D4,A,up,0.172958,0.301246,0.792402,0.100191,-1.543268,-2.354748,1.347074,1.266038,-2.996705,-0.401259,-2.184895,1.802387,3.889076,0.000000,0.000000,0.000000,0.000000,0.000000,0.000000
7940.924000,2.584000,1,START a_bow,Note,62,D4,A,up,0.164958,0.301365,0.792140,0.100298,-1.543210,-2.354718,1.347142,1.265819,-2.995492,-0.403529,-2.183925,1.802240,3.888892,0.000000,0.000000,0.000000,0.000000,0.000000,0.000000
7940.932000,2.592000,1,START a_bow,Note,62,D4,A,up,0.156958,0.301496,0.791851,0.100417,-1.543147,-2.354684,1.347218,1.265577,-2.994163,-0.406013,-2.182866,1.802077,3.888688,0.000000,0.000000,0.000000,0.000000,0.000000,0.000000
7940.940000,2.600000,1,START a_bow,Note,62,D4,A,up,0.148958,0.301639,0.791536,0.100547,-1.543079,-2.354646,1.347300,1.265313,-2.992721,-0.408707,-2.181719,1.801900,3.888466,0.000000,0.000000,0.000000,0.000000,0.000000,0.000000
7941.044000,2.704000,1,START a_bow,Note,62,D4,A,up,0.044958,0.303432,0.787578,0.102176,-1.542215,-2.354181,1.348330,1.261983,-2.975318,-0.441065,-2.168085,1.799663,3.885672,0.000000,0.000000,0.000000,0.000000,0.000000,0.000000
7941.052000,2.712000,1,START a_bow,Note,62,D4,A,up,0.036958,0.303496,0.787439,0.102234,-1.542185,-2.354164,1.348366,1.261866,-2.974727,-0.442159,-2.167629,1.799584,3.885574,0.000000,0.000000,0.000000,0.000000,0.000000,0.000000
7941.060000,2.720000,1,START a_bow,Note,62,D4,A,up,0.028958,0.303547,0.787326,0.102280,-1.542160,-2.354151,1.348396,1.261770,-2.974249,-0.443042,-2.167261,1.799520,3.885494,0.000000,0.000000,0.000000,0.000000,0.000000,0.000000
7941.068000,2.728000,1,START a_bow,Note,62,D4,A,up,0.020958,0.303586,0.787240,0.102316,-1.542141,-2.354141,1.348418,1.261697,-2.973885,-0.443716,-2.166980,1.799471,3.885433,0.000000,0.000000,0.000000,0.000000,0.000000,0.000000
7941.076000,2.736000,1,START a_bow,Note,62,D4,A,up,0.012958,0.303613,0.787180,0.102340,-1.542128,-2.354134,1.348434,1.261647,-2.973633,-0.444182,-2.166786,1.799437,3.885391,0.000000,0.000000,0.000000,0.000000,0.000000,0.000000
7941.084000,2.744000,1,START a_bow,Note,62,D4,A,up,0.004958,0.303628,0.787147,0.102354,-1.542121,-2.354130,1.348442,1.261619,-2.973493,-0.444441,-2.166678,1.799418,3.885367,0.000000,0.000000,0.000000,0.000000,0.000000,0.000000
7941.092000,2.752000,2,END a_bow,Note,59,B3,A,up,0.246958,0.303631,0.787139,0.102357,-1.542119,-2.354129,1.348444,1.261613,-2.973461,-0.444499,-2.166654,1.799414,3.885362,0.000000,0.000000,0.000000,0.000000,0.000000,0.000000
7941.132000,2.792000,1,START a_bow,Note,59,B3,A,down,0.206958,0.303610,0.787186,0.102338,-1.542130,-2.354134,1.348432,1.261652,-2.973658,-0.444135,-2.166805,1.799440,3.885395,0.000000,0.000000,0.000000,0.000000,0.000000,0.000000
7941.156000,2.816000,1,START a_bow,Note,59,B3,A,down,0.182958,0.303488,0.787455,0.102227,-1.542188,-2.354166,1.348362,1.261879,-2.974795,-0.442033,-2.167681,1.799593,3.885585,0.000000,0.000000,0.000000,0.000000,0.000000,0.000000
7941.172000,2.832000,1,START a_bow,Note,59,B3,A,down,0.166958,0.303347,0.787767,0.102099,-1.542256,-2.354203,1.348281,1.262142,-2.976120,-0.439581,-2.168704,1.799770,3.885806,0.000000,0.000000,0.000000,0.000000,0.000000,0.000000
7941.188000,2.848000,1,START a_bow,Note,59,B3,A,down,0.150958,0.303157,0.788185,0.101927,-1.542347,-2.354252,1.348172,1.262495,-2.977907,-0.436270,-2.170088,1.800007,3.886101,0.000000,0.000000,0.000000,0.000000,0.000000,0.000000
7941.204000,2.864000,1,START a_bow,Note,59,B3,A,down,0.134958,0.302920,0.788709,0.101711,-1.542462,-2.354314,1.348036,1.262937,-2.980167,-0.432081,-2.171844,1.800305,3.886472,0.000000,0.000000,0.000000,0.000000,0.000000,0.000000
7941.236000,2.896000,1,START a_bow,Note,59,B3,A,down,0.102958,0.302300,0.790076,0.101148,-1.542760,-2.354475,1.347680,1.264087,-2.986157,-0.420948,-2.176530,1.801078,3.887437,0.000000,0.000000,0.000000,0.000000,0.000000,0.000000
7941.252000,2.912000,1,START a_bow,Note,59,B3,A,down,0.086958,0.301939,0.790873,0.100820,-1.542934,-2.354569,1.347472,1.264757,-2.989719,-0.414311,-2.179338,1.801527,3.887999,0.000000,0.000000,0.000000,0.000000,0.000000,0.000000
7941.268000,2.928000,1,START a_bow,Note,59,B3,A,down,0.070958,0.301620,0.791577,0.100530,-1.543088,-2.354651,1.347289,1.265347,-2.992908,-0.408359,-2.181867,1.801923,3.888495,0.000000,0.000000,0.000000,0.000000,0.000000,0.000000
7941.276000,2.936000,1,START a_bow,Note,59,B3,A,down,0.062958,0.301479,0.791888,0.100402,-1.543156,-2.354688,1.347208,1.265608,-2.994336,-0.405691,-2.183003,1.802099,3.888715,0.000000,0.000000,0.000000,0.000000,0.000000,0.000000
7941.284000,2.944000,1,START a_bow,Note,59,B3,A,down,0.054958,0.301349,0.792174,0.100284,-1.543218,-2.354722,1.347133,1.265847,-2.995650,-0.403233,-2.184051,1.802259,3.888916,0.000000,0.000000,0.000000,0.000000,0.000000,0.000000
7941.292000,2.952000,1,START a_bow,Note,59,B3,A,down,0.046958,0.301232,0.792433,0.100178,-1.543274,-2.354752,1.347066,1.266064,-2.996848,-0.400990,-2.185009,1.802404,3.889098,0.000000,0.000000,0.000000,0.000000,0.000000,0.000000
7941.300000,2.960000,1,START a_bow,Note,59,B3,A,down,0.038958,0.301127,0.792665,0.100082,-1.543325,-2.354779,1.347006,1.266259,-2.997929,-0.398966,-2.185875,1.802534,3.889262,0.000000,0.000000,0.000000,0.000000,0.000000,0.000000
7941.316000,2.976000,1,START a_bow,Note,59,B3,A,down,0.022958,0.300952,0.793050,0.099924,-1.543409,-2.354825,1.346905,1.266580,-2.999732,-0.395588,-2.187322,1.802750,3.889533,0.000000,0.000000,0.000000,0.000000,0.000000,0.000000
7941.332000,2.992000,1,START a_bow,Note,59,B3,A,down,0.006958,0.300826,0.793328,0.099809,-1.543470,-2.354857,1.346833,1.266813,-3.001046,-0.393123,-2.188379,1.802906,3.889729,0.000000,0.000000,0.000000,0.000000,0.000000,0.000000
7941.340000,3.000000,1,START a_bow,Note,57,A3,A,down,0.498958,0.300781,0.793428,0.099768,-1.543492,-2.354869,1.346807,1.266897,-3.001517,-0.392239,-2.188759,1.802962,3.889799,0.000000,0.000000,0.000000,0.000000,0.000000,0.000000
7941.356000,3.016000,1,START a_bow,Note,57,A3,A,down,0.482958,0.300727,0.793547,0.099719,-1.543518,-2.354883,1.346776,1.266996,-3.002084,-0.391175,-2.189217,1.803029,3.889883,0.000000,0.000000,0.000000,0.000000,0.000000,0.000000
7941.396000,3.056000,1,START a_bow,Note,57,A3,A,up,0.442958,0.300718,0.793566,0.099711,-1.543522,-2.354885,1.346771,1.267012,-3.002174,-0.391006,-2.189289,1.803039,3.889896,0.000000,0.000000,0.000000,0.000000,0.000000,0.000000
7941.404000,3.064000,1,START a_bow,Note,57,A3,A,up,0.434958,0.300728,0.793544,0.099720,-1.543517,-2.354883,1.346777,1.266993,-3.002065,-0.391210,-2.189201,1.803027,3.889880,0.000000,0.000000,0.000000,0.000000,0.000000,0.000000
7941.412000,3.072000,1,START a_bow,Note,57,A3,A,up,0.426958,0.300751,0.793495,0.099741,-1.543506,-2.354877,1.346789,1.266952,-3.001833,-0.391646,-2.189014,1.802999,3.889846,0.000000,0.000000,0.000000,0.000000,0.000000,0.000000
7941.420000,3.080000,1,START a_bow,Note,57,A3,A,up,0.418958,0.300785,0.793420,0.099771,-1.543490,-2.354868,1.346809,1.266890,-3.001477,-0.392314,-2.188727,1.802957,3.889793,0.000000,0.000000,0.000000,0.000000,0.000000,0.000000
7941.428000,3.088000,1,START a_bow,Note,57,A3,A,up,0.410958,0.300830,0.793318,0.099813,-1.543468,-2.354856,1.346835,1.266805,-3.000999,-0.393212,-2.188342,1.802901,3.889722,0.000000,0.000000,0.000000,0.000000,0.000000,0.000000
7941.452000,3.112000,1,START a_bow,Note,57,A3,A,up,0.386958,0.301039,0.792859,0.100002,-1.543367,-2.354802,1.346955,1.266421,-2.998835,-0.397270,-2.186601,1.802643,3.889398,0.000000,0.000000,0.000000,0.000000,0.000000,0.000000
7941.476000,3.136000,1,START a_bow,Note,57,A3,A,up,0.362958,0.301354,0.792164,0.100288,-1.543216,-2.354721,1.347136,1.265839,-2.995604,-0.403319,-2.184015,1.802253,3.888909,0.000000,0.000000,0.000000,0.000000,0.000000,0.000000
7941.484000,3.144000,1,START a_bow,Note,57,A3,A,up,0.354958,0.301482,0.791880,0.100405,-1.543154,-2.354687,1.347210,1.265601,-2.994297,-0.405762,-2.182973,1.802093,3.888709,0.000000,0.000000,0.000000,0.000000,0.000000,0.000000
7941.492000,3.152000,1,START a_bow,Note,57,A3,A,up,0.346958,0.301623,0.791570,0.100533,-1.543086,-2.354651,1.347291,1.265342,-2.992879,-0.408413,-2.181845,1.801919,3.888491,0.000000,0.000000,0.000000,0.000000,0.000000,0.000000
7941.500000,3.160000,1,START a_bow,Note,57,A3,A,up,0.338958,0.301775,0.791234,0.100671,-1.543013,-2.354612,1.347379,1.265060,-2.991351,-0.411266,-2.180631,1.801730,3.888254,0.000000,0.000000,0.000000,0.000000,0.000000,0.000000
7941.508000,3.168000,1,START a_bow,Note,57,A3,A,up,0.330958,0.301939,0.790872,0.100820,-1.542934,-2.354569,1.347473,1.264756,-2.989715,-0.414318,-2.179336,1.801526,3.887999,0.000000,0.000000,0.000000,0.000000,0.000000,0.000000
7941.572000,3.232000,1,START a_bow,Note,57,A3,A,up,0.266958,0.303678,0.787036,0.102399,-1.542097,-2.354118,1.348473,1.261526,-2.973028,-0.445299,-2.166322,1.799353,3.885290,0.000000,0.000000,0.000000,0.000000,0.000000,0.000000
7941.580000,3.240000,1,START a_bow,Note,57,A3,A,up,0.258958,0.303949,0.786439,0.102645,-1.541967,-2.354048,1.348628,1.261021,-2.970528,-0.449917,-2.164404,1.799013,3.884867,0.000000,0.000000,0.000000,0.000000,0.000000,0.000000
7941.588000,3.248000,1,START a_bow,Note,57,A3,A,up,0.250958,0.304231,0.785816,0.102902,-1.541831,-2.353975,1.348791,1.260494,-2.967944,-0.454683,-2.162429,1.798657,3.884426,0.000000,0.000000,0.000000,0.000000,0.000000,0.000000
7941.596000,3.256000,1,START a_bow,Note,57,A3,A,up,0.242958,0.304525,0.785167,0.103169,-1.541690,-2.353899,1.348960,1.259943,-2.965278,-0.459593,-2.160401,1.798286,3.883966,0.000000,0.000000,0.000000,0.000000,0.000000,0.000000
7941.628000,3.288000,1,START a_bow,Note,57,A3,A,up,0.210958,0.305820,0.782310,0.104345,-1.541066,-2.353563,1.349704,1.257515,-2.953846,-0.480570,-2.151809,1.796646,3.881940,0.000000,0.000000,0.000000,0.000000,0.000000,0.000000
7941.652000,3.312000,1,START a_bow,Note,57,A3,A,up,0.186958,0.306899,0.779930,0.105325,-1.540547,-2.353282,1.350324,1.255482,-2.944665,-0.497318,-2.145033,1.795270,3.880248,0.000000,0.000000,0.000000,0.000000,0.000000,0.000000
7941.668000,3.328000,1,START a_bow,Note,57,A3,A,up,0.170958,0.307585,0.778417,0.105948,-1.540217,-2.353104,1.350718,1.254185,-2.938975,-0.507657,-2.140888,1.794390,3.879170,0.000000,0.000000,0.000000,0.000000,0.000000,0.000000
7941.676000,3.336000,1,START a_bow,Note,57,A3,A,up,0.162958,0.307910,0.777699,0.106244,-1.540060,-2.353020,1.350904,1.253569,-2.936314,-0.512480,-2.138964,1.793972,3.878659,0.000000,0.000000,0.000000,0.000000,0.000000,0.000000
7941.684000,3.344000,1,START a_bow,Note,57,A3,A,up,0.154958,0.308224,0.777007,0.106528,-1.539909,-2.352938,1.351084,1.252974,-2.933772,-0.517082,-2.137134,1.793569,3.878166,0.000000,0.000000,0.000000,0.000000,0.000000,0.000000
7941.692000,3.352000,1,START a_bow,Note,57,A3,A,up,0.146958,0.308525,0.776342,0.106802,-1.539764,-2.352860,1.351258,1.252402,-2.931346,-0.521467,-2.135396,1.793179,3.877691,0.000000,0.000000,0.000000,0.000000,0.000000,0.000000
7941.700000,3.360000,1,START a_bow,Note,57,A3,A,up,0.138958,0.308815,0.775703,0.107065,-1.539624,-2.352785,1.351424,1.251851,-2.929032,-0.525644,-2.133746,1.792805,3.877234,0.000000,0.000000,0.000000,0.000000,0.000000,0.000000
7941.708000,3.368000,1,START a_bow,Note,57,A3,A,up,0.130958,0.309093,0.775090,0.107318,-1.539491,-2.352712,1.351583,1.251322,-2.926829,-0.529615,-2.132180,1.792445,3.876796,0.000000,0.000000,0.000000,0.000000,0.000000,0.000000
7941.716000,3.376000,1,START a_bow,Note,57,A3,A,up,0.122958,0.309359,0.774502,0.107560,-1.539362,-2.352643,1.351736,1.250815,-2.924734,-0.533388,-2.130698,1.792100,3.876377,0.000000,0.000000,0.000000,0.000000,0.000000,0.000000
7941.724000,3.384000,1,START a_bow,Note,57,A3,A,up,0.114958,0.309614,0.773941,0.107791,-1.539240,-2.352577,1.351882,1.250330,-2.922745,-0.536965,-2.129296,1.791770,3.875976,0.000000,0.000000,0.000000,0.000000,0.000000,0.000000
7941.732000,3.392000,1,START a_bow,Note,57,A3,A,up,0.106958,0.309856,0.773407,0.108011,-1.539123,-2.352514,1.352021,1.249867,-2.920860,-0.540352,-2.127972,1.791455,3.875593,0.000000,0.000000,0.000000,0.000000,0.000000,0.000000
7941.740000,3.400000,1,START a_bow,Note,57,A3,A,up,0.098958,0.310087,0.772898,0.108220,-1.539012,-2.352454,1.352154,1.249426,-2.919077,-0.543552,-2.126723,1.791155,3.875229,0.000000,0.000000,0.000000,0.000000,0.000000,0.000000
7941.748000,3.408000,1,START a_bow,Note,57,A3,A,up,0.090958,0.310306,0.772415,0.108419,-1.538907,-2.352397,1.352279,1.249007,-2.917394,-0.546568,-2.125549,1.790870,3.874884,0.000000,0.000000,0.000000,0.000000,0.000000,0.000000
7941.756000,3.416000,1,START a_bow,Note,57,A3,A,up,0.082958,0.310512,0.771958,0.108607,-1.538807,-2.352343,1.352398,1.248611,-2.915811,-0.549405,-2.124448,1.790600,3.874557,0.000000,0.000000,0.000000,0.000000,0.000000,0.000000
7941.764000,3.424000,1,START a_bow,Note,57,A3,A,up,0.074958,0.310708,0.771528,0.108784,-1.538713,-2.352292,1.352510,1.248237,-2.914324,-0.552065,-2.123417,1.790345,3.874248,0.000000,0.000000,0.000000,0.000000,0.000000,0.000000
7941.772000,3.432000,1,START a_bow,Note,57,A3,A,up,0.066958,0.310891,0.771123,0.108951,-1.538625,-2.352245,1.352615,1.247886,-2.912934,-0.554551,-2.122455,1.790105,3.873958,0.000000,0.000000,0.000000,0.000000,0.000000,0.000000
7941.780000,3.440000,1,START a_bow,Note,57,A3,A,up,0.058958,0.311062,0.770745,0.109107,-1.538542,-2.352200,1.352714,1.247557,-2.911639,-0.556865,-2.121561,1.789880,3.873687,0.000000,0.000000,0.000000,0.000000,0.000000,0.000000
7941.788000,3.448000,1,START a_bow,Note,57,A3,A,up,0.050958,0.311222,0.770393,0.109252,-1.538465,-2.352159,1.352805,1.247250,-2.910438,-0.559010,-2.120734,1.789671,3.873434,0.000000,0.000000,0.000000,0.000000,0.000000,0.000000
7941.796000,3.456000,1,START a_bow,Note,57,A3,A,up,0.042958,0.311370,0.770066,0.109386,-1.538394,-2.352120,1.352890,1.246966,-2.909329,-0.560988,-2.119973,1.789477,3.873200,0.000000,0.000000,0.000000,0.000000,0.000000,0.000000
7941.804000,3.464000,1,START a_bow,Note,57,A3,A,up,0.034958,0.311506,0.769766,0.109509,-1.538329,-2.352085,1.352968,1.246705,-2.908312,-0.562801,-2.119276,1.789299,3.872985,0.000000,0.000000,0.000000,0.000000,0.000000,0.000000
7941.812000,3.472000,1,START a_bow,Note,57,A3,A,up,0.026958,0.311630,0.769492,0.109622,-1.538269,-2.352052,1.353039,1.246466,-2.907387,-0.564451,-2.118643,1.789136,3.872789,0.000000,0.000000,0.000000,0.000000,0.000000,0.000000
7941.820000,3.480000,1,START a_bow,Note,57,A3,A,up,0.018958,0.311743,0.769245,0.109724,-1.538215,-2.352023,1.353104,1.246250,-2.906552,-0.565939,-2.118072,1.788988,3.872611,0.000000,0.000000,0.000000,0.000000,0.000000,0.000000
7941.828000,3.488000,1,START a_bow,Note,57,A3,A,up,0.010958,0.311843,0.769023,0.109816,-1.538166,-2.351997,1.353161,1.246057,-2.905806,-0.567267,-2.117564,1.788856,3.872451,0.000000,0.000000,0.000000,0.000000,0.000000,0.000000
7941.836000,3.496000,1,START a_bow,Note,57,A3,A,up,0.002958,0.311932,0.768827,0.109896,-1.538124,-2.351974,1.353212,1.245886,-2.905149,-0.568435,-2.117116,1.788739,3.872311,0.000000,0.000000,0.000000,0.000000,0.000000,0.000000
7941.844000,3.504000,1,START a_bow,Note,57,A3,A,up,0.494958,0.312009,0.768657,0.109966,-1.538087,-2.351954,1.353256,1.245738,-2.904581,-0.569446,-2.116730,1.788638,3.872189,0.000000,0.000000,0.000000,0.000000,0.000000,0.000000
7941.852000,3.512000,1,START a_bow,Note,57,A3,A,up,0.486958,0.312074,0.768514,0.110025,-1.538055,-2.351937,1.353294,1.245612,-2.904101,-0.570299,-2.116404,1.788552,3.872086,0.000000,0.000000,0.000000,0.000000,0.000000,0.000000
7941.860000,3.520000,1,START a_bow,Note,57,A3,A,up,0.478958,0.312127,0.768396,0.110073,-1.538030,-2.351923,1.353324,1.245510,-2.903709,-0.570997,-2.116137,1.788482,3.872002,0.000000,0.000000,0.000000,0.000000,0.000000,0.000000
7941.868000,3.528000,1,START a_bow,Note,57,A3,A,up,0.470958,0.312168,0.768305,0.110111,-1.538010,-2.351912,1.353348,1.245430,-2.903405,-0.571538,-2.115931,1.788427,3.871936,0.000000,0.000000,0.000000,0.000000,0.000000,0.000000
7941.876000,3.536000,1,START a_bow,Note,57,A3,A,up,0.462958,0.312198,0.768240,0.110138,-1.537995,-2.351904,1.353365,1.245373,-2.903187,-0.571925,-2.115783,1.788388,3.871889,0.000000,0.000000,0.000000,0.000000,0.000000,0.000000
7941.884000,3.544000,1,START a_bow,Note,57,A3,A,up,0.454958,0.312216,0.768201,0.110154,-1.537987,-2.351900,1.353375,1.245339,-2.903057,-0.572157,-2.115695,1.788365,3.871861,0.000000,0.000000,0.000000,0.000000,0.000000,0.000000
7941.892000,3.552000,1,START a_bow,Note,57,A3,A,up,0.446958,0.312222,0.768188,0.110159,-1.537984,-2.351898,1.353378,1.245328,-2.903013,-0.572234,-2.115665,1.788357,3.871852,0.000000,0.000000,0.000000,0.000000,0.000000,0.000000
7941.900000,3.560000,2,END a_bow,Note,57,A3,A,up,0.438958,0.312222,0.768188,0.110159,-1.537984,-2.351898,1.353378,1.245328,-2.903013,-0.572234,-2.115665,1.788357,3.871852,0.000000,0.000000,0.000000,0.000000,0.000000,0.000000
7941.932000,3.592000,1,START a_bow,Note,57,A3,A,down,0.406958,0.312206,0.768222,0.110145,-1.537991,-2.351902,1.353369,1.245358,-2.903128,-0.572030,-2.115743,1.788378,3.871876,0.000000,0.000000,0.000000,0.000000,0.000000,0.000000
7941.956000,3.616000,1,START a_bow,Note,57,A3,A,down,0.382958,0.312095,0.768467,0.110045,-1.538045,-2.351931,1.353306,1.245571,-2.903944,-0.570579,-2.116297,1.788524,3.872052,0.000000,0.000000,0.000000,0.000000,0.000000,0.000000
7941.964000,3.624000,1,START a_bow,Note,57,A3,A,down,0.374958,0.312034,0.768601,0.109989,-1.538074,-2.351947,1.353271,1.245688,-2.904391,-0.569784,-2.116601,1.788604,3.872148,0.000000,0.000000,0.000000,0.000000,0.000000,0.000000
7941.972000,3.632000,1,START a_bow,Note,57,A3,A,down,0.366958,0.311962,0.768760,0.109924,-1.538109,-2.351966,1.353229,1.245828,-2.904926,-0.568833,-2.116964,1.788699,3.872263,0.000000,0.000000,0.000000,0.000000,0.000000,0.000000
7941.980000,3.640000,1,START a_bow,Note,57,A3,A,down,0.358958,0.311878,0.768946,0.109847,-1.538150,-2.351988,1.353181,1.245990,-2.905549,-0.567723,-2.117389,1.788810,3.872396,0.000000,0.000000,0.000000,0.000000,0.000000,0.000000
7941.996000,3.656000,1,START a_bow,Note,57,A3,A,down,0.342958,0.311674,0.769396,0.109662,-1.538248,-2.352041,1.353064,1.246383,-2.907063,-0.565028,-2.118421,1.789078,3.872720,0.000000,0.000000,0.000000,0.000000,0.000000,0.000000
7942.020000,3.680000,1,START a_bow,Note,57,A3,A,down,0.318958,0.311279,0.770267,0.109303,-1.538438,-2.352144,1.352838,1.247141,-2.910011,-0.559772,-2.120441,1.789597,3.873344,0.000000,0.000000,0.000000,0.000000,0.000000,0.000000
7942.036000,3.696000,1,START a_bow,Note,57,A3,A,down,0.302958,0.310957,0.770978,0.109011,-1.538593,-2.352228,1.352653,1.247760,-2.912438,-0.555439,-2.122112,1.790019,3.873854,0.000000,0.000000,0.000000,0.000000,0.000000,0.000000
7942.044000,3.704000,1,START a_bow,Note,57,A3,A,down,0.294958,0.310778,0.771373,0.108848,-1.538679,-2.352274,1.352550,1.248103,-2.913792,-0.553018,-2.123048,1.790253,3.874137,0.000000,0.000000,0.000000,0.000000,0.000000,0.000000
7942.052000,3.712000,1,START a_bow,Note,57,A3,A,down,0.286958,0.310587,0.771794,0.108675,-1.538771,-2.352324,1.352441,1.248468,-2.915242,-0.550423,-2.124053,1.790502,3.874439,0.000000,0.000000,0.000000,0.000000,0.000000,0.000000
7942.060000,3.720000,1,START a_bow,Note,57,A3,A,down,0.278958,0.310385,0.772241,0.108491,-1.538869,-2.352376,1.352325,1.248856,-2.916789,-0.547653,-2.125128,1.790767,3.874759,0.000000,0.000000,0.000000,0.000000,0.000000,0.000000
7942.068000,3.728000,1,START a_bow,Note,57,A3,A,down,0.270958,0.310170,0.772714,0.108296,-1.538972,-2.352432,1.352202,1.249266,-2.918434,-0.544704,-2.126275,1.791046,3.875097,0.000000,0.000000,0.000000,0.000000,0.000000,0.000000
7942.076000,3.736000,1,START a_bow,Note,57,A3,A,down,0.262958,0.309944,0.773213,0.108091,-1.539081,-2.352491,1.352072,1.249699,-2.920179,-0.541574,-2.127495,1.791341,3.875455,0.000000,0.000000,0.000000,0.000000,0.000000,0.000000
7942.084000,3.744000,1,START a_bow,Note,57,A3,A,down,0.254958,0.309706,0.773738,0.107874,-1.539196,-2.352553,1.351935,1.250153,-2.922026,-0.538257,-2.128790,1.791650,3.875830,0.000000,0.000000,0.000000,0.000000,0.000000,0.000000
7942.092000,3.752000,1,START a_bow,Note,57,A3,A,down,0.246958,0.309456,0.774289,0.107648,-1.539316,-2.352618,1.351792,1.250630,-2.923976,-0.534752,-2.130163,1.791975,3.876224,0.000000,0.000000,0.000000,0.000000,0.000000,0.000000
7942.100000,3.760000,1,START a_bow,Note,57,A3,A,down,0.238958,0.309194,0.774866,0.107410,-1.539442,-2.352686,1.351642,1.251129,-2.926031,-0.531053,-2.131615,1.792314,3.876637,0.000000,0.000000,0.000000,0.000000,0.000000,0.000000
7942.108000,3.768000,1,START a_bow,Note,57,A3,A,down,0.230958,0.308921,0.775470,0.107161,-1.539574,-2.352757,1.351485,1.251650,-2.928193,-0.527157,-2.133149,1.792668,3.877068,0.000000,0.000000,0.000000,0.000000,0.000000,0.000000
7942.116000,3.776000,1,START a_bow,Note,57,A3,A,down,0.222958,0.308636,0.776099,0.106902,-1.539711,-2.352831,1.351321,1.252192,-2.930465,-0.523058,-2.134767,1.793037,3.877518,0.000000,0.000000,0.000000,0.000000,0.000000,0.000000
7942.124000,3.784000,1,START a_bow,Note,57,A3,A,down,0.214958,0.308338,0.776755,0.106632,-1.539854,-2.352909,1.351150,1.252757,-2.932849,-0.518751,-2.136472,1.793421,3.877985,0.000000,0.000000,0.000000,0.000000,0.000000,0.000000
7942.132000,3.792000,1,START a_bow,Note,57,A3,A,down,0.206958,0.308029,0.777437,0.106352,-1.540003,-2.352989,1.350973,1.253343,-2.935347,-0.514232,-2.138267,1.793819,3.878472,0.000000,0.000000,0.000000,0.000000,0.000000,0.000000
7942.140000,3.800000,1,START a_bow,Note,57,A3,A,down,0.198958,0.307709,0.778144,0.106060,-1.540157,-2.353072,1.350789,1.253951,-2.937963,-0.509493,-2.140155,1.794232,3.878976,0.000000,0.000000,0.000000,0.000000,0.000000,0.000000
7942.148000,3.808000,1,START a_bow,Note,57,A3,A,down,0.190958,0.307376,0.778878,0.105758,-1.540318,-2.353159,1.350598,1.254581,-2.940699,-0.504527,-2.142139,1.794659,3.879499,0.000000,0.000000,0.000000,0.000000,0.000000,0.000000
7942.156000,3.816000,1,START a_bow,Note,57,A3,A,down,0.182958,0.307031,0.779638,0.105445,-1.540483,-2.353248,1.350400,1.255232,-2.943560,-0.499329,-2.144224,1.795100,3.880040,0.000000,0.000000,0.000000,0.000000,0.000000,0.000000
7942.164000,3.824000,1,START a_bow,Note,57,A3,A,down,0.174958,0.306675,0.780424,0.105122,-1.540655,-2.353341,1.350195,1.255905,-2.946548,-0.493890,-2.146414,1.795556,3.880599,0.000000,0.000000,0.000000,0.000000,0.000000,0.000000
7942.172000,3.832000,1,START a_bow,Note,57,A3,A,down,0.166958,0.306309,0.781231,0.104789,-1.540831,-2.353436,1.349985,1.256594,-2.949649,-0.488237,-2.148698,1.796023,3.881173,0.000000,0.000000,0.000000,0.000000,0.000000,0.000000
7942.180000,3.840000,1,START a_bow,Note,57,A3,A,down,0.158958,0.305951,0.782021,0.104464,-1.541003,-2.353529,1.349779,1.257268,-2.952714,-0.482639,-2.150968,1.796479,3.881734,0.000000,0.000000,0.000000,0.000000,0.000000,0.000000
7942.236000,3.896000,1,START a_bow,Note,57,A3,A,down,0.102958,0.303778,0.786816,0.102490,-1.542049,-2.354092,1.348530,1.261339,-2.972101,-0.447013,-2.165609,1.799227,3.885133,0.000000,0.000000,0.000000,0.000000,0.000000,0.000000
7942.244000,3.904000,1,START a_bow,Note,57,A3,A,down,0.094958,0.303515,0.787396,0.102251,-1.542176,-2.354161,1.348379,1.261830,-2.974547,-0.442491,-2.167492,1.799558,3.885544,0.000000,0.000000,0.000000,0.000000,0.000000,0.000000
7942.252000,3.912000,1,START a_bow,Note,57,A3,A,down,0.086958,0.303264,0.787951,0.102023,-1.542297,-2.354226,1.348235,1.262298,-2.976906,-0.438125,-2.169314,1.799873,3.885936,0.000000,0.000000,0.000000,0.000000,0.000000,0.000000
7942.260000,3.920000,1,START a_bow,Note,57,A3,A,down,0.078958,0.303024,0.788479,0.101805,-1.542412,-2.354288,1.348097,1.262743,-2.979174,-0.433922,-2.171073,1.800173,3.886310,0.000000,0.000000,0.000000,0.000000,0.000000,0.000000
7942.268000,3.928000,1,START a_bow,Note,57,A3,A,down,0.070958,0.302796,0.788981,0.101599,-1.542522,-2.354347,1.347966,1.263166,-2.981349,-0.429885,-2.172766,1.800457,3.886664,0.000000,0.000000,0.000000,0.000000,0.000000,0.000000
7942.276000,3.936000,1,START a_bow,Note,57,A3,A,down,0.062958,0.302581,0.789458,0.101403,-1.542626,-2.354403,1.347842,1.263567,-2.983429,-0.426021,-2.174391,1.800727,3.887001,0.000000,0.000000,0.000000,0.000000,0.000000,0.000000
7942.300000,3.960000,1,START a_bow,Note,57,A3,A,down,0.038958,0.302004,0.790730,0.100879,-1.542903,-2.354552,1.347510,1.264637,-2.989074,-0.415513,-2.178830,1.801446,3.887898,0.000000,0.000000,0.000000,0.000000,0.000000,0.000000
7942.332000,3.992000,1,START a_bow,Note,57,A3,A,down,0.006958,0.301401,0.792060,0.100331,-1.543193,-2.354709,1.347163,1.265753,-2.995127,-0.404210,-2.183635,1.802195,3.888836,0.000000,0.000000,0.000000,0.000000,0.000000,0.000000
7942.340000,4.000000,1,START a_bow,Transition,transition,transition A->D,A-D,down,0.198958,0.301279,0.792328,0.100221,-1.543252,-2.354740,1.347094,1.265977,-2.996363,-0.401899,-2.184622,1.802345,3.889025,0.000000,0.000000,0.000000,0.000000,0.000000,0.000000
7942.348000,4.008000,1,START a_bow,Transition,transition,transition A->D,A-D,down,0.190958,0.301170,0.792569,0.100122,-1.543304,-2.354768,1.347031,1.266179,-2.997484,-0.399800,-2.185519,1.802480,3.889195,0.000000,0.000000,0.000000,0.000000,0.000000,0.000000
7942.364000,4.024000,1,START a_bow,Transition,transition,transition A->D,A-D,down,0.174958,0.300987,0.792974,0.099955,-1.543393,-2.354816,1.346925,1.266517,-2.999375,-0.396258,-2.187035,1.802707,3.889479,0.000000,0.000000,0.000000,0.000000,0.000000,0.000000
7942.380000,4.040000,1,START a_bow,Transition,transition,transition A->D,A-D,down,0.158958,0.300851,0.793274,0.099831,-1.543458,-2.354851,1.346847,1.266768,-3.000788,-0.393608,-2.188172,1.802876,3.889691,0.000000,0.000000,0.000000,0.000000,0.000000,0.000000
7942.388000,4.048000,1,START a_bow,Transition,transition,transition A->D,A-D,down,0.150958,0.300800,0.793385,0.099786,-1.543482,-2.354864,1.346818,1.266860,-3.001312,-0.392624,-2.188594,1.802938,3.889769,0.000000,0.000000,0.000000,0.000000,0.000000,0.000000
7942.412000,4.072000,1,START a_bow,Transition,transition,transition A->D,A-D,down,0.126958,0.300721,0.793561,0.099713,-1.543521,-2.354885,1.346772,1.267008,-3.002148,-0.391055,-2.189268,1.803036,3.889893,0.000000,0.000000,0.000000,0.000000,0.000000,0.000000
7942.428000,4.088000,2,END a_bow,Transition,transition,transition A->D,A-D,down,0.110958,0.300717,0.793568,0.099710,-1.543522,-2.354886,1.346770,1.267014,-3.002183,-0.390990,-2.189296,1.803040,3.889898,0.000000,0.000000,0.000000,0.000000,0.000000,0.000000
7942.436000,4.096000,2,END a_bow,Transition,transition,transition A->D,A-D,down,0.102958,0.300717,0.793568,0.099710,-1.543522,-2.354886,1.346770,1.267014,-3.002183,-0.390990,-2.189296,1.803040,3.889898,0.000000,0.000000,0.000000,0.000000,0.000000,0.000000
7942.444000,4.104000,2,END a_bow,Transition,transition,transition A->D,A-D,down,0.094958,0.300717,0.793568,0.099710,-1.543522,-2.354886,1.346770,1.267014,-3.002183,-0.390990,-2.189296,1.803040,3.889898,0.000000,0.000000,0.000000,0.000000,0.000000,0.000000
7942.452000,4.112000,101,START a_to_d,Note,55,G3,D,down,0.886958,0.300740,0.793568,0.099729,-1.543522,-2.354886,1.346770,1.266989,-3.002215,-0.390871,-2.189386,1.803021,3.889881,0.000000,0.000000,0.000000,0.000000,0.000000,0.000000
7942.460000,4.120000,101,START a_to_d,Note,55,G3,D,down,0.878958,0.300821,0.793568,0.099797,-1.543522,-2.354886,1.346770,1.266899,-3.002333,-0.390442,-2.189711,1.802953,3.889822,0.000000,0.000000,0.000000,0.000000,0.000000,0.000000
7942.468000,4.128000,101,START a_to_d,Note,55,G3,D,down,0.870958,0.300961,0.793568,0.099913,-1.543522,-2.354886,1.346770,1.266745,-3.002537,-0.389701,-2.190271,1.802835,3.889720,0.000000,0.000000,0.000000,0.000000,0.000000,0.000000
7942.476000,4.136000,101,START a_to_d,Note,55,G3,D,down,0.862958,0.301160,0.793568,0.100079,-1.543522,-2.354886,1.346770,1.266525,-3.002828,-0.388645,-2.191070,1.802667,3.889574,0.000000,0.000000,0.000000,0.000000,0.000000,0.000000
7942.484000,4.144000,101,START a_to_d,Note,55,G3,D,down,0.854958,0.301418,0.793568,0.100295,-1.543522,-2.354886,1.346770,1.266241,-3.003209,-0.387270,-2.192108,1.802449,3.889386,0.000000,0.000000,0.000000,0.000000,0.000000,0.000000
7942.492000,4.152000,101,START a_to_d,Note,55,G3,D,down,0.846958,0.301735,0.793568,0.100559,-1.543522,-2.354886,1.346770,1.265891,-3.003680,-0.385572,-2.193387,1.802182,3.889154,0.000000,0.000000,0.000000,0.000000,0.000000,0.000000
7942.500000,4.160000,101,START a_to_d,Note,55,G3,D,down,0.838958,0.302112,0.793568,0.100872,-1.543522,-2.354886,1.346770,1.265477,-3.004246,-0.383545,-2.194911,1.801865,3.888880,0.000000,0.000000,0.000000,0.000000,0.000000,0.000000
7942.508000,4.168000,101,START a_to_d,Note,55,G3,D,down,0.830958,0.302547,0.793568,0.101235,-1.543522,-2.354886,1.346770,1.264997,-3.004909,-0.381184,-2.196683,1.801499,3.888562,0.000000,0.000000,0.000000,0.000000,0.000000,0.000000
7942.516000,4.176000,101,START a_to_d,Note,55,G3,D,down,0.822958,0.303041,0.793568,0.101647,-1.543522,-2.354886,1.346770,1.264453,-3.005673,-0.378478,-2.198706,1.801083,3.888202,0.000000,0.000000,0.000000,0.000000,0.000000,0.000000
7942.524000,4.184000,101,START a_to_d,Note,55,G3,D,down,0.814958,0.303594,0.793568,0.102108,-1.543522,-2.354886,1.346770,1.263844,-3.006543,-0.375421,-2.200986,1.800617,3.887799,0.000000,0.000000,0.000000,0.000000,0.000000,0.000000
7942.532000,4.192000,101,START a_to_d,Note,55,G3,D,down,0.806958,0.304206,0.793568,0.102618,-1.543522,-2.354886,1.346770,1.263171,-3.007524,-0.371999,-2.203527,1.800102,3.887353,0.000000,0.000000,0.000000,0.000000,0.000000,0.000000
7942.540000,4.200000,101,START a_to_d,Note,55,G3,D,down,0.798958,0.304877,0.793568,0.103177,-1.543522,-2.354886,1.346770,1.262433,-3.008623,-0.368202,-2.206337,1.799538,3.886865,0.000000,0.000000,0.000000,0.000000,0.000000,0.000000
7942.548000,4.208000,101,START a_to_d,Note,55,G3,D,down,0.790958,0.305607,0.793568,0.103785,-1.543522,-2.354886,1.346770,1.261631,-3.009845,-0.364014,-2.209422,1.798924,3.886335,0.000000,0.000000,0.000000,0.000000,0.000000,0.000000
7942.556000,4.216000,101,START a_to_d,Note,55,G3,D,down,0.782958,0.306396,0.793568,0.104443,-1.543522,-2.354886,1.346770,1.260764,-3.011201,-0.359418,-2.212792,1.798262,3.885762,0.000000,0.000000,0.000000,0.000000,0.000000,0.000000
7942.564000,4.224000,101,START a_to_d,Note,55,G3,D,down,0.774958,0.307245,0.793568,0.105150,-1.543522,-2.354886,1.346770,1.259834,-3.012699,-0.354396,-2.216455,1.797550,3.885147,0.000000,0.000000,0.000000,0.000000,0.000000,0.000000
7942.572000,4.232000,101,START a_to_d,Note,55,G3,D,down,0.766958,0.308152,0.793568,0.105906,-1.543522,-2.354886,1.346770,1.258839,-3.014349,-0.348925,-2.220423,1.796789,3.884489,0.000000,0.000000,0.000000,0.000000,0.000000,0.000000
7942.580000,4.240000,101,START a_to_d,Note,55,G3,D,down,0.758958,0.309118,0.793568,0.106711,-1.543522,-2.354886,1.346770,1.257781,-3.016165,-0.342980,-2.224708,1.795979,3.883790,0.000000,0.000000,0.000000,0.000000,0.000000,0.000000
7942.588000,4.248000,101,START a_to_d,Note,55,G3,D,down,0.750958,0.310143,0.793568,0.107565,-1.543522,-2.354886,1.346770,1.256659,-3.018159,-0.336532,-2.229327,1.795120,3.883050,0.000000,0.000000,0.000000,0.000000,0.000000,0.000000
7942.596000,4.256000,101,START a_to_d,Note,55,G3,D,down,0.742958,0.311227,0.793568,0.108468,-1.543522,-2.354886,1.346770,1.255473,-3.020350,-0.329547,-2.234295,1.794212,3.882267,0.000000,0.000000,0.000000,0.000000,0.000000,0.000000
7942.604000,4.264000,101,START a_to_d,Note,55,G3,D,down,0.734958,0.312370,0.793568,0.109421,-1.543522,-2.354886,1.346770,1.254224,-3.022757,-0.321985,-2.239633,1.793256,3.881443,0.000000,0.000000,0.000000,0.000000,0.000000,0.000000
7942.612000,4.272000,101,START a_to_d,Note,55,G3,D,down,0.726958,0.313572,0.793568,0.110423,-1.543522,-2.354886,1.346770,1.252912,-3.025401,-0.313798,-2.245365,1.792252,3.880578,0.000000,0.000000,0.000000,0.000000,0.000000,0.000000
7942.620000,4.280000,101,START a_to_d,Note,55,G3,D,down,0.718958,0.314833,0.793568,0.111474,-1.543522,-2.354886,1.346770,1.251537,-3.028311,-0.304932,-2.251521,1.791199,3.879672,0.000000,0.000000,0.000000,0.000000,0.000000,0.000000
7942.628000,4.288000,101,START a_to_d,Note,55,G3,D,down,0.710958,0.316153,0.793568,0.112574,-1.543522,-2.354886,1.346770,1.250100,-3.031519,-0.295317,-2.258134,1.790098,3.878725,0.000000,0.000000,0.000000,0.000000,0.000000,0.000000
7942.636000,4.296000,101,START a_to_d,Note,55,G3,D,down,0.702958,0.317533,0.793568,0.113723,-1.543522,-2.354886,1.346770,1.248600,-3.035064,-0.284873,-2.265247,1.788949,3.877737,0.000000,0.000000,0.000000,0.000000,0.000000,0.000000
7942.644000,4.304000,101,START a_to_d,Note,55,G3,D,down,0.694958,0.318971,0.793568,0.114921,-1.543522,-2.354886,1.346770,1.247038,-3.038997,-0.273497,-2.272912,1.787752,3.876709,0.000000,0.000000,0.000000,0.000000,0.000000,0.000000
7942.652000,4.312000,101,START a_to_d,Note,55,G3,D,down,0.686958,0.320468,0.793568,0.116169,-1.543522,-2.354886,1.346770,1.245413,-3.043379,-0.261059,-2.281197,1.786507,3.875641,0.000000,0.000000,0.000000,0.000000,0.000000,0.000000
7942.660000,4.320000,101,START a_to_d,Note,55,G3,D,down,0.678958,0.322003,0.793568,0.117449,-1.543522,-2.354886,1.346770,1.243750,-3.048225,-0.247577,-2.290067,1.785232,3.874547,0.000000,0.000000,0.000000,0.000000,0.000000,0.000000
7942.676000,4.336000,101,START a_to_d,Note,55,G3,D,down,0.662958,0.325076,0.793568,0.120009,-1.543522,-2.354886,1.346770,1.240428,-3.059253,-0.217845,-2.309232,1.782685,3.872365,0.000000,0.000000,0.000000,0.000000,0.000000,0.000000
7942.708000,4.368000,101,START a_to_d,Note,55,G3,D,down,0.630958,0.331195,0.793568,0.125108,-1.543522,-2.354886,1.346770,1.233840,-3.090454,-0.139464,-2.357311,1.777631,3.868045,0.000000,0.000000,0.000000,0.000000,0.000000,0.000000
7942.724000,4.384000,101,START a_to_d,Note,55,G3,D,down,0.614958,0.333713,0.793568,0.127207,-1.543522,-2.354886,1.346770,1.231139,-3.112512,-0.088031,-2.387046,1.775558,3.866277,0.000000,0.000000,0.000000,0.000000,0.000000,0.000000
7942.740000,4.400000,101,START a_to_d,Note,55,G3,D,down,0.598958,0.335111,0.793568,0.128371,-1.543522,-2.354886,1.346770,1.229644,-3.136587,-0.034842,-2.416359,1.774410,3.865298,0.000000,0.000000,0.000000,0.000000,0.000000,0.000000
7942.756000,4.416000,101,START a_to_d,Note,55,G3,D,down,0.582958,0.335378,0.793549,0.128600,-1.543522,-2.354886,1.346770,1.229351,-3.158486,0.011379,-2.440720,1.774185,3.865106,0.000000,0.000000,0.000000,0.000000,0.000000,0.000000
7942.764000,4.424000,101,START a_to_d,Note,55,G3,D,down,0.574958,0.335378,0.793549,0.128600,-1.543522,-2.354886,1.346770,1.229351,-3.158486,0.011379,-2.440720,1.774185,3.865106,0.000000,0.000000,0.000000,0.000000,0.000000,0.000000
7942.796000,4.456000,101,START a_to_d,Note,55,G3,D,down,0.542958,0.335378,0.793549,0.128600,-1.543522,-2.354886,1.346770,1.229351,-3.158486,0.011379,-2.440720,1.774185,3.865106,0.000000,0.000000,0.000000,0.000000,0.000000,0.000000
7942.804000,4.464000,101,START a_to_d,Note,55,G3,D,down,0.534958,0.335378,0.793549,0.128600,-1.543522,-2.354886,1.346770,1.229351,-3.158486,0.011379,-2.440720,1.774185,3.865106,0.000000,0.000000,0.000000,0.000000,0.000000,0.000000
7942.812000,4.472000,101,START a_to_d,Note,55,G3,D,down,0.526958,0.335378,0.793549,0.128600,-1.543522,-2.354886,1.346770,1.229351,-3.158486,0.011379,-2.440720,1.774185,3.865106,0.000000,0.000000,0.000000,0.000000,0.000000,0.000000
7942.820000,4.480000,101,START a_to_d,Note,55,G3,D,down,0.518958,0.335378,0.793549,0.128600,-1.543522,-2.354886,1.346770,1.229351,-3.158486,0.011379,-2.440720,1.774185,3.865106,0.000000,0.000000,0.000000,0.000000,0.000000,0.000000
7942.828000,4.488000,101,START a_to_d,Note,55,G3,D,down,0.510958,0.335378,0.793549,0.128600,-1.543522,-2.354886,1.346770,1.229351,-3.158486,0.011379,-2.440720,1.774185,3.865106,0.000000,0.000000,0.000000,0.000000,0.000000,0.000000
7942.836000,4.496000,101,START a_to_d,Note,55,G3,D,down,0.502958,0.335378,0.793549,0.128600,-1.543522,-2.354886,1.346770,1.229351,-3.158486,0.011379,-2.440720,1.774185,3.865106,0.000000,0.000000,0.000000,0.000000,0.000000,0.000000
7942.852000,4.512000,101,START a_to_d,Note,55,G3,D,down,0.486958,0.335378,0.793549,0.128600,-1.543522,-2.354886,1.346770,1.229351,-3.158486,0.011379,-2.440720,1.774185,3.865106,0.000000,0.000000,0.000000,0.000000,0.000000,0.000000
7942.964000,4.624000,101,START a_to_d,Note,55,G3,D,down,0.374958,0.335378,0.793549,0.128600,-1.543522,-2.354886,1.346770,1.229351,-3.158486,0.011379,-2.440720,1.774185,3.865106,0.000000,0.000000,0.000000,0.000000,0.000000,0.000000
7942.980000,4.640000,101,START a_to_d,Note,55,G3,D,down,0.358958,0.335378,0.793549,0.128600,-1.543522,-2.354886,1.346770,1.229351,-3.158486,0.011379,-2.440720,1.774185,3.865106,0.000000,0.000000,0.000000,0.000000,0.000000,0.000000
7942.996000,4.656000,101,START a_to_d,Note,55,G3,D,down,0.342958,0.335378,0.793549,0.128600,-1.543522,-2.354886,1.346770,1.229351,-3.158486,0.011379,-2.440720,1.774185,3.865106,0.000000,0.000000,0.000000,0.000000,0.000000,0.000000
7943.028000,4.688000,101,START a_to_d,Note,55,G3,D,down,0.310958,0.335378,0.793549,0.128600,-1.543522,-2.354886,1.346770,1.229351,-3.158486,0.011379,-2.440720,1.774185,3.865106,0.000000,0.000000,0.000000,0.000000,0.000000,0.000000
7943.052000,4.712000,101,START a_to_d,Note,55,G3,D,down,0.286958,0.335378,0.793549,0.128600,-1.543522,-2.354886,1.346770,1.229351,-3.158486,0.011379,-2.440720,1.774185,3.865106,0.000000,0.000000,0.000000,0.000000,0.000000,0.000000
7943.068000,4.728000,101,START a_to_d,Note,55,G3,D,down,0.270958,0.335378,0.793549,0.128600,-1.543522,-2.354886,1.346770,1.229351,-3.158486,0.011379,-2.440720,1.774185,3.865106,0.000000,0.000000,0.000000,0.000000,0.000000,0.000000
7943.084000,4.744000,101,START a_to_d,Note,55,G3,D,down,0.254958,0.335378,0.793549,0.128600,-1.543522,-2.354886,1.346770,1.229351,-3.158486,0.011379,-2.440720,1.774185,3.865106,0.000000,0.000000,0.000000,0.000000,0.000000,0.000000
7943.108000,4.768000,101,START a_to_d,Note,55,G3,D,down,0.230958,0.335378,0.793549,0.128600,-1.543522,-2.354886,1.346770,1.229351,-3.158486,0.011379,-2.440720,1.774185,3.865106,0.000000,0.000000,0.000000,0.000000,0.000000,0.000000
7943.124000,4.784000,101,START a_to_d,Note,55,G3,D,down,0.214958,0.335378,0.793549,0.128600,-1.543522,-2.354886,1.346770,1.229351,-3.158486,0.011379,-2.440720,1.774185,3.865106,0.000000,0.000000,0.000000,0.000000,0.000000,0.000000
7943.172000,4.832000,101,START a_to_d,Note,55,G3,D,down,0.166958,0.335378,0.793549,0.128600,-1.543522,-2.354886,1.346770,1.229351,-3.158486,0.011379,-2.440720,1.774185,3.865106,0.000000,0.000000,0.000000,0.000000,0.000000,0.000000
7943.180000,4.840000,101,START a_to_d,Note,55,G3,D,down,0.158958,0.335378,0.793549,0.128600,-1.543522,-2.354886,1.346770,1.229351,-3.158486,0.011379,-2.440720,1.774185,3.865106,0.000000,0.000000,0.000000,0.000000,0.000000,0.000000
7943.188000,4.848000,101,START a_to_d,Note,55,G3,D,down,0.150958,0.335378,0.793549,0.128600,-1.543522,-2.354886,1.346770,1.229351,-3.158486,0.011379,-2.440720,1.774185,3.865106,0.000000,0.000000,0.000000,0.000000,0.000000,0.000000
7943.212000,4.872000,101,START a_to_d,Note,55,G3,D,down,0.126958,0.335378,0.793549,0.128600,-1.543522,-2.354886,1.346770,1.229351,-3.158486,0.011379,-2.440720,1.774185,3.865106,0.000000,0.000000,0.000000,0.000000,0.000000,0.000000
7943.228000,4.888000,101,START a_to_d,Note,55,G3,D,down,0.110958,0.335378,0.793549,0.128600,-1.543522,-2.354886,1.346770,1.229351,-3.158486,0.011379,-2.440720,1.774185,3.865106,0.000000,0.000000,0.000000,0.000000,0.000000,0.000000
7943.236000,4.896000,101,START a_to_d,Note,55,G3,D,down,0.102958,0.335378,0.793549,0.128600,-1.543522,-2.354886,1.346770,1.229351,-3.158486,0.011379,-2.440720,1.774185,3.865106,0.000000,0.000000,0.000000,0.000000,0.000000,0.000000
7943.244000,4.904000,101,START a_to_d,Note,55,G3,D,down,0.094958,0.335378,0.793549,0.128600,-1.543522,-2.354886,1.346770,1.229351,-3.158486,0.011379,-2.440720,1.774185,3.865106,0.000000,0.000000,0.000000,0.000000,0.000000,0.000000
7943.268000,4.928000,101,START a_to_d,Note,55,G3,D,down,0.070958,0.335378,0.793549,0.128600,-1.543522,-2.354886,1.346770,1.229351,-3.158486,0.011379,-2.440720,1.774185,3.865106,0.000000,0.000000,0.000000,0.000000,0.000000,0.000000
7943.276000,4.936000,101,START a_to_d,Note,55,G3,D,down,0.062958,0.335378,0.793549,0.128600,-1.543522,-2.354886,1.346770,1.229351,-3.158486,0.011379,-2.440720,1.774185,3.865106,0.000000,0.000000,0.000000,0.000000,0.000000,0.000000
7943.284000,4.944000,101,START a_to_d,Note,55,G3,D,down,0.054958,0.335378,0.793549,0.128600,-1.543522,-2.354886,1.346770,1.229351,-3.158486,0.011379,-2.440720,1.774185,3.865106,0.000000,0.000000,0.000000,0.000000,0.000000,0.000000
7943.292000,4.952000,101,START a_to_d,Note,55,G3,D,down,0.046958,0.335378,0.793549,0.128600,-1.543522,-2.354886,1.346770,1.229351,-3.158486,0.011379,-2.440720,1.774185,3.865106,0.000000,0.000000,0.000000,0.000000,0.000000,0.000000
7943.300000,4.960000,101,START a_to_d,Note,55,G3,D,down,0.038958,0.335378,0.793549,0.128600,-1.543522,-2.354886,1.346770,1.229351,-3.158486,0.011379,-2.440720,1.774185,3.865106,0.000000,0.000000,0.000000,0.000000,0.000000,0.000000
7943.308000,4.968000,101,START a_to_d,Note,55,G3,D,down,0.030958,0.335378,0.793549,0.128600,-1.543522,-2.354886,1.346770,1.229351,-3.158486,0.011379,-2.440720,1.774185,3.865106,0.000000,0.000000,0.000000,0.000000,0.000000,0.000000
7943.316000,4.976000,101,START a_to_d,Note,55,G3,D,down,0.022958,0.335378,0.793549,0.128600,-1.543522,-2.354886,1.346770,1.229351,-3.158486,0.011379,-2.440720,1.774185,3.865106,0.000000,0.000000,0.000000,0.000000,0.000000,0.000000
7943.324000,4.984000,101,START a_to_d,Note,55,G3,D,down,0.014958,0.335378,0.793549,0.128600,-1.543522,-2.354886,1.346770,1.229351,-3.158486,0.011379,-2.440720,1.774185,3.865106,0.000000,0.000000,0.000000,0.000000,0.000000,0.000000
7943.332000,4.992000,101,START a_to_d,Note,55,G3,D,down,0.006958,0.335378,0.793549,0.128600,-1.543522,-2.354886,1.346770,1.229351,-3.158486,0.011379,-2.440720,1.774185,3.865106,0.000000,0.000000,0.000000,0.000000,0.000000,0.000000
7943.340000,5.000000,101,START a_to_d,Note,54,F#3,D,down,0.498958,0.335378,0.793549,0.128600,-1.543522,-2.354886,1.346770,1.229351,-3.158486,0.011379,-2.440720,1.774185,3.865106,0.000000,0.000000,0.000000,0.000000,0.000000,0.000000
7943.348000,5.008000,101,START a_to_d,Note,54,F#3,D,down,0.490958,0.335378,0.793549,0.128600,-1.543522,-2.354886,1.346770,1.229351,-3.158486,0.011379,-2.440720,1.774185,3.865106,0.000000,0.000000,0.000000,0.000000,0.000000,0.000000
7943.356000,5.016000,101,START a_to_d,Note,54,F#3,D,down,0.482958,0.335378,0.793549,0.128600,-1.543522,-2.354886,1.346770,1.229351,-3.158486,0.011379,-2.440720,1.774185,3.865106,0.000000,0.000000,0.000000,0.000000,0.000000,0.000000
7943.364000,5.024000,101,START a_to_d,Note,54,F#3,D,down,0.474958,0.335378,0.793549,0.128600,-1.543522,-2.354886,1.346770,1.229351,-3.158486,0.011379,-2.440720,1.774185,3.865106,0.000000,0.000000,0.000000,0.000000,0.000000,0.000000
7943.380000,5.040000,101,START a_to_d,Note,54,F#3,D,down,0.458958,0.335378,0.793549,0.128600,-1.543522,-2.354886,1.346770,1.229351,-3.158486,0.011379,-2.440720,1.774185,3.865106,0.000000,0.000000,0.000000,0.000000,0.000000,0.000000
7943.388000,5.048000,101,START a_to_d,Note,54,F#3,D,down,0.450958,0.335378,0.793549,0.128600,-1.543522,-2.354886,1.346770,1.229351,-3.158486,0.011379,-2.440720,1.774185,3.865106,0.000000,0.000000,0.000000,0.000000,0.000000,0.000000
7943.420000,5.080000,101,START a_to_d,Note,54,F#3,D,down,0.418958,0.335378,0.793549,0.128600,-1.543522,-2.354886,1.346770,1.229351,-3.158486,0.011379,-2.440720,1.774185,3.865106,0.000000,0.000000,0.000000,0.000000,0.000000,0.000000
7943.428000,5.088000,101,START a_to_d,Note,54,F#3,D,down,0.410958,0.335378,0.793549,0.128600,-1.543522,-2.354886,1.346770,1.229351,-3.158486,0.011379,-2.440720,1.774185,3.865106,0.000000,0.000000,0.000000,0.000000,0.000000,0.000000
7943.444000,5.104000,101,START a_to_d,Note,54,F#3,D,down,0.394958,0.335378,0.793549,0.128600,-1.543522,-2.354886,1.346770,1.229351,-3.158486,0.011379,-2.440720,1.774185,3.865106,0.000000,0.000000,0.000000,0.000000,0.000000,0.000000
7943.476000,5.136000,101,START a_to_d,Note,54,F#3,D,down,0.362958,0.335378,0.793549,0.128600,-1.543522,-2.354886,1.346770,1.229351,-3.158486,0.011379,-2.440720,1.774185,3.865106,0.000000,0.000000,0.000000,0.000000,0.000000,0.000000
7943.492000,5.152000,101,START a_to_d,Note,54,F#3,D,down,0.346958,0.335378,0.793549,0.128600,-1.543522,-2.354886,1.346770,1.229351,-3.158486,0.011379,-2.440720,1.774185,3.865106,0.000000,0.000000,0.000000,0.000000,0.000000,0.000000
7943.508000,5.168000,101,START a_to_d,Note,54,F#3,D,down,0.330958,0.335378,0.793549,0.128600,-1.543522,-2.354886,1.346770,1.229351,-3.158486,0.011379,-2.440720,1.774185,3.865106,0.000000,0.000000,0.000000,0.000000,0.000000,0.000000
7943.516000,5.176000,101,START a_to_d,Note,54,F#3,D,down,0.322958,0.335378,0.793549,0.128600,-1.543522,-2.354886,1.346770,1.229351,-3.158486,0.011379,-2.440720,1.774185,3.865106,0.000000,0.000000,0.000000,0.000000,0.000000,0.000000
7943.524000,5.184000,101,START a_to_d,Note,54,F#3,D,down,0.314958,0.335378,0.793549,0.128600,-1.543522,-2.354886,1.346770,1.229351,-3.158486,0.011379,-2.440720,1.774185,3.865106,0.000000,0.000000,0.000000,0.000000,0.000000,0.000000
7943.532000,5.192000,101,START a_to_d,Note,54,F#3,D,down,0.306958,0.335378,0.793549,0.128600,-1.543522,-2.354886,1.346770,1.229351,-3.158486,0.011379,-2.440720,1.774185,3.865106,0.000000,0.000000,0.000000,0.000000,0.000000,0.000000
7943.540000,5.200000,101,START a_to_d,Note,54,F#3,D,down,0.298958,0.335378,0.793549,0.128600,-1.543522,-2.354886,1.346770,1.229351,-3.158486,0.011379,-2.440720,1.774185,3.865106,0.000000,0.000000,0.000000,0.000000,0.000000,0.000000
7943.548000,5.208000,101,START a_to_d,Note,54,F#3,D,down,0.290958,0.335378,0.793549,0.128600,-1.543522,-2.354886,1.346770,1.229351,-3.158486,0.011379,-2.440720,1.774185,3.865106,0.000000,0.000000,0.000000,0.000000,0.000000,0.000000
7943.556000,5.216000,101,START a_to_d,Note,54,F#3,D,down,0.282958,0.335378,0.793549,0.128600,-1.543522,-2.354886,1.346770,1.229351,-3.158486,0.011379,-2.440720,1.774185,3.865106,0.000000,0.000000,0.000000,0.000000,0.000000,0.000000
7943.564000,5.224000,101,START a_to_d,Note,54,F#3,D,down,0.274958,0.335378,0.793549,0.128600,-1.543522,-2.354886,1.346770,1.229351,-3.158486,0.011379,-2.440720,1.774185,3.865106,0.000000,0.000000,0.000000,0.000000,0.000000,0.000000
7943.572000,5.232000,101,START a_to_d,Note,54,F#3,D,down,0.266958,0.335378,0.793549,0.128600,-1.543522,-2.354886,1.346770,1.229351,-3.158486,0.011379,-2.440720,1.774185,3.865106,0.000000,0.000000,0.000000,0.000000,0.000000,0.000000
7943.580000,5.240000,101,START a_to_d,Note,54,F#3,D,down,0.258958,0.335378,0.793549,0.128600,-1.543522,-2.354886,1.346770,1.229351,-3.158486,0.011379,-2.440720,1.774185,3.865106,0.000000,0.000000,0.000000,0.000000,0.000000,0.000000
7943.588000,5.248000,101,START a_to_d,Note,54,F#3,D,down,0.250958,0.335378,0.793549,0.128600,-1.543522,-2.354886,1.346770,1.229351,-3.158486,0.011379,-2.440720,1.774185,3.865106,0.000000,0.000000,0.000000,0.000000,0.000000,0.000000
7943.596000,5.256000,101,START a_to_d,Note,54,F#3,D,down,0.242958,0.335378,0.793549,0.128600,-1.543522,-2.354886,1.346770,1.229351,-3.158486,0.011379,-2.440720,1.774185,3.865106,0.000000,0.000000,0.000000,0.000000,0.000000,0.000000
7943.604000,5.264000,101,START a_to_d,Note,54,F#3,D,down,0.234958,0.335378,0.793549,0.128600,-1.543522,-2.354886,1.346770,1.229351,-3.158486,0.011379,-2.440720,1.774185,3.865106,0.000000,0.000000,0.000000,0.000000,0.000000,0.000000
7943.612000,5.272000,101,START a_to_d,Note,54,F#3,D,down,0.226958,0.335378,0.793549,0.128600,-1.543522,-2.354886,1.346770,1.229351,-3.158486,0.011379,-2.440720,1.774185,3.865106,0.000000,0.000000,0.000000,0.000000,0.000000,0.000000
7943.620000,5.280000,101,START a_to_d,Note,54,F#3,D,down,0.218958,0.335378,0.793549,0.128600,-1.543522,-2.354886,1.346770,1.229351,-3.158486,0.011379,-2.440720,1.774185,3.865106,0.000000,0.000000,0.000000,0.000000,0.000000,0.000000
7943.652000,5.312000,101,START a_to_d,Note,54,F#3,D,down,0.186958,0.335378,0.793549,0.128600,-1.543522,-2.354886,1.346770,1.229351,-3.158486,0.011379,-2.440720,1.774185,3.865106,0.000000,0.000000,0.000000,0.000000,0.000000,0.000000
7943.676000,5.336000,101,START a_to_d,Note,54,F#3,D,down,0.162958,0.335378,0.793549,0.128600,-1.543522,-2.354886,1.346770,1.229351,-3.158486,0.011379,-2.440720,1.774185,3.865106,0.000000,0.000000,0.000000,0.000000,0.000000,0.000000
7943.684000,5.344000,101,START a_to_d,Note,54,F#3,D,down,0.154958,0.335378,0.793549,0.128600,-1.543522,-2.354886,1.346770,1.229351,-3.158486,0.011379,-2.440720,1.774185,3.865106,0.000000,0.000000,0.000000,0.000000,0.000000,0.000000
7943.692000,5.352000,101,START a_to_d,Note,54,F#3,D,down,0.146958,0.335378,0.793549,0.128600,-1.543522,-2.354886,1.346770,1.229351,-3.158486,0.011379,-2.440720,1.774185,3.865106,0.000000,0.000000,0.000000,0.000000,0.000000,0.000000
7943.700000,5.360000,101,START a_to_d,Note,54,F#3,D,down,0.138958,0.335378,0.793549,0.128600,-1.543522,-2.354886,1.346770,1.229351,-3.158486,0.011379,-2.440720,1.774185,3.865106,0.000000,0.000000,0.000000,0.000000,0.000000,0.000000
7943.708000,5.368000,101,START a_to_d,Note,54,F#3,D,down,0.130958,0.335378,0.793549,0.128600,-1.543522,-2.354886,1.346770,1.229351,-3.158486,0.011379,-2.440720,1.774185,3.865106,0.000000,0.000000,0.000000,0.000000,0.000000,0.000000
7943.716000,5.376000,101,START a_to_d,Note,54,F#3,D,down,0.122958,0.335378,0.793549,0.128600,-1.543522,-2.354886,1.346770,1.229351,-3.158486,0.011379,-2.440720,1.774185,3.865106,0.000000,0.000000,0.000000,0.000000,0.000000,0.000000
7943.732000,5.392000,101,START a_to_d,Note,54,F#3,D,down,0.106958,0.335378,0.793549,0.128600,-1.543522,-2.354886,1.346770,1.229351,-3.158486,0.011379,-2.440720,1.774185,3.865106,0.000000,0.000000,0.000000,0.000000,0.000000,0.000000
7943.740000,5.400000,101,START a_to_d,Note,54,F#3,D,down,0.098958,0.335378,0.793549,0.128600,-1.543522,-2.354886,1.346770,1.229351,-3.158486,0.011379,-2.440720,1.774185,3.865106,0.000000,0.000000,0.000000,0.000000,0.000000,0.000000
7943.772000,5.432000,101,START a_to_d,Note,54,F#3,D,down,0.066958,0.335378,0.793549,0.128600,-1.543522,-2.354886,1.346770,1.229351,-3.158486,0.011379,-2.440720,1.774185,3.865106,0.000000,0.000000,0.000000,0.000000,0.000000,0.000000
7943.780000,5.440000,101,START a_to_d,Note,54,F#3,D,down,0.058958,0.335378,0.793549,0.128600,-1.543522,-2.354886,1.346770,1.229351,-3.158486,0.011379,-2.440720,1.774185,3.865106,0.000000,0.000000,0.000000,0.000000,0.000000,0.000000
7943.812000,5.472000,101,START a_to_d,Note,54,F#3,D,down,0.026958,0.335378,0.793549,0.128600,-1.543522,-2.354886,1.346770,1.229351,-3.158486,0.011379,-2.440720,1.774185,3.865106,0.000000,0.000000,0.000000,0.000000,0.000000,0.000000
7943.820000,5.480000,101,START a_to_d,Note,54,F#3,D,down,0.018958,0.335378,0.793549,0.128600,-1.543522,-2.354886,1.346770,1.229351,-3.158486,0.011379,-2.440720,1.774185,3.865106,0.000000,0.000000,0.000000,0.000000,0.000000,0.000000
7943.836000,5.496000,101,START a_to_d,Note,54,F#3,D,down,0.002958,0.335378,0.793549,0.128600,-1.543522,-2.354886,1.346770,1.229351,-3.158486,0.011379,-2.440720,1.774185,3.865106,0.000000,0.000000,0.000000,0.000000,0.000000,0.000000
7943.852000,5.512000,101,START a_to_d,Note,54,F#3,D,down,0.486958,0.335378,0.793549,0.128600,-1.543522,-2.354886,1.346770,1.229351,-3.158486,0.011379,-2.440720,1.774185,3.865106,0.000000,0.000000,0.000000,0.000000,0.000000,0.000000
7943.860000,5.520000,101,START a_to_d,Note,54,F#3,D,down,0.478958,0.335378,0.793549,0.128600,-1.543522,-2.354886,1.346770,1.229351,-3.158486,0.011379,-2.440720,1.774185,3.865106,0.000000,0.000000,0.000000,0.000000,0.000000,0.000000
7943.868000,5.528000,101,START a_to_d,Note,54,F#3,D,down,0.470958,0.335378,0.793549,0.128600,-1.543522,-2.354886,1.346770,1.229351,-3.158486,0.011379,-2.440720,1.774185,3.865106,0.000000,0.000000,0.000000,0.000000,0.000000,0.000000
7943.876000,5.536000,101,START a_to_d,Note,54,F#3,D,down,0.462958,0.335378,0.793549,0.128600,-1.543522,-2.354886,1.346770,1.229351,-3.158486,0.011379,-2.440720,1.774185,3.865106,0.000000,0.000000,0.000000,0.000000,0.000000,0.000000
7943.884000,5.544000,101,START a_to_d,Note,54,F#3,D,down,0.454958,0.335378,0.793549,0.128600,-1.543522,-2.354886,1.346770,1.229351,-3.158486,0.011379,-2.440720,1.774185,3.865106,0.000000,0.000000,0.000000,0.000000,0.000000,0.000000
7943.892000,5.552000,101,START a_to_d,Note,54,F#3,D,down,0.446958,0.335378,0.793549,0.128600,-1.543522,-2.354886,1.346770,1.229351,-3.158486,0.011379,-2.440720,1.774185,3.865106,0.000000,0.000000,0.000000,0.000000,0.000000,0.000000
7943.900000,5.560000,101,START a_to_d,Note,54,F#3,D,down,0.438958,0.335378,0.793549,0.128600,-1.543522,-2.354886,1.346770,1.229351,-3.158486,0.011379,-2.440720,1.774185,3.865106,0.000000,0.000000,0.000000,0.000000,0.000000,0.000000
7943.908000,5.568000,101,START a_to_d,Note,54,F#3,D,down,0.430958,0.335378,0.793549,0.128600,-1.543522,-2.354886,1.346770,1.229351,-3.158486,0.011379,-2.440720,1.774185,3.865106,0.000000,0.000000,0.000000,0.000000,0.000000,0.000000
7943.940000,5.600000,101,START a_to_d,Note,54,F#3,D,down,0.398958,0.335378,0.793549,0.128600,-1.543522,-2.354886,1.346770,1.229351,-3.158486,0.011379,-2.440720,1.774185,3.865106,0.000000,0.000000,0.000000,0.000000,0.000000,0.000000
7943.972000,5.632000,101,START a_to_d,Note,54,F#3,D,down,0.366958,0.335378,0.793549,0.128600,-1.543522,-2.354886,1.346770,1.229351,-3.158486,0.011379,-2.440720,1.774185,3.865106,0.000000,0.000000,0.000000,0.000000,0.000000,0.000000
7943.980000,5.640000,101,START a_to_d,Note,54,F#3,D,down,0.358958,0.335378,0.793549,0.128600,-1.543522,-2.354886,1.346770,1.229351,-3.158486,0.011379,-2.440720,1.774185,3.865106,0.000000,0.000000,0.000000,0.000000,0.000000,0.000000
7943.988000,5.648000,101,START a_to_d,Note,54,F#3,D,down,0.350958,0.335378,0.793549,0.128600,-1.543522,-2.354886,1.346770,1.229351,-3.158486,0.011379,-2.440720,1.774185,3.865106,0.000000,0.000000,0.000000,0.000000,0.000000,0.000000
7943.996000,5.656000,101,START a_to_d,Note,54,F#3,D,down,0.342958,0.335378,0.793549,0.128600,-1.543522,-2.354886,1.346770,1.229351,-3.158486,0.011379,-2.440720,1.774185,3.865106,0.000000,0.000000,0.000000,0.000000,0.000000,0.000000
7944.004000,5.664000,101,START a_to_d,Note,54,F#3,D,down,0.334958,0.335378,0.793549,0.128600,-1.543522,-2.354886,1.346770,1.229351,-3.158486,0.011379,-2.440720,1.774185,3.865106,0.000000,0.000000,0.000000,0.000000,0.000000,0.000000
7944.012000,5.672000,101,START a_to_d,Note,54,F#3,D,down,0.326958,0.335378,0.793549,0.128600,-1.543522,-2.354886,1.346770,1.229351,-3.158486,0.011379,-2.440720,1.774185,3.865106,0.000000,0.000000,0.000000,0.000000,0.000000,0.000000
7944.020000,5.680000,101,START a_to_d,Note,54,F#3,D,down,0.318958,0.335378,0.793549,0.128600,-1.543522,-2.354886,1.346770,1.229351,-3.158486,0.011379,-2.440720,1.774185,3.865106,0.000000,0.000000,0.000000,0.000000,0.000000,0.000000
7944.028000,5.688000,101,START a_to_d,Note,54,F#3,D,down,0.310958,0.335378,0.793549,0.128600,-1.543522,-2.354886,1.346770,1.229351,-3.158486,0.011379,-2.440720,1.774185,3.865106,0.000000,0.000000,0.000000,0.000000,0.000000,0.000000
7944.052000,5.712000,101,START a_to_d,Note,54,F#3,D,down,0.286958,0.335378,0.793549,0.128600,-1.543522,-2.354886,1.346770,1.229351,-3.158486,0.011379,-2.440720,1.774185,3.865106,0.000000,0.000000,0.000000,0.000000,0.000000,0.000000
7944.060000,5.720000,101,START a_to_d,Note,54,F#3,D,down,0.278958,0.335378,0.793549,0.128600,-1.543522,-2.354886,1.346770,1.229351,-3.158486,0.011379,-2.440720,1.774185,3.865106,0.000000,0.000000,0.000000,0.000000,0.000000,0.000000
7944.116000,5.776000,101,START a_to_d,Note,54,F#3,D,down,0.222958,0.335378,0.793549,0.128600,-1.543522,-2.354886,1.346770,1.229351,-3.158486,0.011379,-2.440720,1.774185,3.865106,0.000000,0.000000,0.000000,0.000000,0.000000,0.000000
7944.156000,5.816000,101,START a_to_d,Note,54,F#3,D,down,0.182958,0.335378,0.793549,0.128600,-1.543522,-2.354886,1.346770,1.229351,-3.158486,0.011379,-2.440720,1.774185,3.865106,0.000000,0.000000,0.000000,0.000000,0.000000,0.000000
7944.172000,5.832000,101,START a_to_d,Note,54,F#3,D,down,0.166958,0.335378,0.793549,0.128600,-1.543522,-2.354886,1.346770,1.229351,-3.158486,0.011379,-2.440720,1.774185,3.865106,0.000000,0.000000,0.000000,0.000000,0.000000,0.000000
7944.180000,5.840000,101,START a_to_d,Note,54,F#3,D,down,0.158958,0.335378,0.793549,0.128600,-1.543522,-2.354886,1.346770,1.229351,-3.158486,0.011379,-2.440720,1.774185,3.865106,0.000000,0.000000,0.000000,0.000000,0.000000,0.000000
7944.204000,5.864000,101,START a_to_d,Note,54,F#3,D,down,0.134958,0.335378,0.793549,0.128600,-1.543522,-2.354886,1.346770,1.229351,-3.158486,0.011379,-2.440720,1.774185,3.865106,0.000000,0.000000,0.000000,0.000000,0.000000,0.000000
7944.236000,5.896000,101,START a_to_d,Note,54,F#3,D,down,0.102958,0.335378,0.793549,0.128600,-1.543522,-2.354886,1.346770,1.229351,-3.158486,0.011379,-2.440720,1.774185,3.865106,0.000000,0.000000,0.000000,0.000000,0.000000,0.000000
7944.268000,5.928000,101,START a_to_d,Note,54,F#3,D,down,0.070958,0.335378,0.793549,0.128600,-1.543522,-2.354886,1.346770,1.229351,-3.158486,0.011379,-2.440720,1.774185,3.865106,0.000000,0.000000,0.000000,0.000000,0.000000,0.000000
7944.276000,5.936000,101,START a_to_d,Note,54,F#3,D,down,0.062958,0.335378,0.793549,0.128600,-1.543522,-2.354886,1.346770,1.229351,-3.158486,0.011379,-2.440720,1.774185,3.865106,0.000000,0.000000,0.000000,0.000000,0.000000,0.000000
7944.284000,5.944000,101,START a_to_d,Note,54,F#3,D,down,0.054958,0.335378,0.793549,0.128600,-1.543522,-2.354886,1.346770,1.229351,-3.158486,0.011379,-2.440720,1.774185,3.865106,0.000000,0.000000,0.000000,0.000000,0.000000,0.000000
7944.292000,5.952000,101,START a_to_d,Note,54,F#3,D,down,0.046958,0.335378,0.793549,0.128600,-1.543522,-2.354886,1.346770,1.229351,-3.158486,0.011379,-2.440720,1.774185,3.865106,0.000000,0.000000,0.000000,0.000000,0.000000,0.000000
7944.300000,5.960000,101,START a_to_d,Note,54,F#3,D,down,0.038958,0.335378,0.793549,0.128600,-1.543522,-2.354886,1.346770,1.229351,-3.158486,0.011379,-2.440720,1.774185,3.865106,0.000000,0.000000,0.000000,0.000000,0.000000,0.000000
7944.308000,5.968000,101,START a_to_d,Note,54,F#3,D,down,0.030958,0.335378,0.793549,0.128600,-1.543522,-2.354886,1.346770,1.229351,-3.158486,0.011379,-2.440720,1.774185,3.865106,0.000000,0.000000,0.000000,0.000000,0.000000,0.000000
7944.316000,5.976000,101,START a_to_d,Note,54,F#3,D,down,0.022958,0.335378,0.793549,0.128600,-1.543522,-2.354886,1.346770,1.229351,-3.158486,0.011379,-2.440720,1.774185,3.865106,0.000000,0.000000,0.000000,0.000000,0.000000,0.000000
7944.324000,5.984000,101,START a_to_d,Note,54,F#3,D,down,0.014958,0.335378,0.793549,0.128600,-1.543522,-2.354886,1.346770,1.229351,-3.158486,0.011379,-2.440720,1.774185,3.865106,0.000000,0.000000,0.000000,0.000000,0.000000,0.000000
7944.348000,6.008000,101,START a_to_d,Note,52,E3,D,down,0.240958,0.335378,0.793549,0.128600,-1.543522,-2.354886,1.346770,1.229351,-3.158486,0.011379,-2.440720,1.774185,3.865106,0.000000,0.000000,0.000000,0.000000,0.000000,0.000000
7944.372000,6.032000,101,START a_to_d,Note,52,E3,D,down,0.216958,0.335378,0.793549,0.128600,-1.543522,-2.354886,1.346770,1.229351,-3.158486,0.011379,-2.440720,1.774185,3.865106,0.000000,0.000000,0.000000,0.000000,0.000000,0.000000
7944.380000,6.040000,101,START a_to_d,Note,52,E3,D,down,0.208958,0.335378,0.793549,0.128600,-1.543522,-2.354886,1.346770,1.229351,-3.158486,0.011379,-2.440720,1.774185,3.865106,0.000000,0.000000,0.000000,0.000000,0.000000,0.000000
7944.388000,6.048000,101,START a_to_d,Note,52,E3,D,down,0.200958,0.335378,0.793549,0.128600,-1.543522,-2.354886,1.346770,1.229351,-3.158486,0.011379,-2.440720,1.774185,3.865106,0.000000,0.000000,0.000000,0.000000,0.000000,0.000000
7944.396000,6.056000,101,START a_to_d,Note,52,E3,D,down,0.192958,0.335378,0.793549,0.128600,-1.543522,-2.354886,1.346770,1.229351,-3.158486,0.011379,-2.440720,1.774185,3.865106,0.000000,0.000000,0.000000,0.000000,0.000000,0.000000
7944.404000,6.064000,101,START a_to_d,Note,52,E3,D,down,0.184958,0.335378,0.793549,0.128600,-1.543522,-2.354886,1.346770,1.229351,-3.158486,0.011379,-2.440720,1.774185,3.865106,0.000000,0.000000,0.000000,0.000000,0.000000,0.000000
7944.412000,6.072000,101,START a_to_d,Note,52,E3,D,down,0.176958,0.335378,0.793549,0.128600,-1.543522,-2.354886,1.346770,1.229351,-3.158486,0.011379,-2.440720,1.774185,3.865106,0.000000,0.000000,0.000000,0.000000,0.000000,0.000000
7944.436000,6.096000,101,START a_to_d,Note,52,E3,D,down,0.152958,0.335378,0.793549,0.128600,-1.543522,-2.354886,1.346770,1.229351,-3.158486,0.011379,-2.440720,1.774185,3.865106,0.000000,0.000000,0.000000,0.000000,0.000000,0.000000
7944.476000,6.136000,101,START a_to_d,Note,52,E3,D,down,0.112958,0.335378,0.793549,0.128600,-1.543522,-2.354886,1.346770,1.229351,-3.158486,0.011379,-2.440720,1.774185,3.865106,0.000000,0.000000,0.000000,0.000000,0.000000,0.000000
7944.500000,6.160000,101,START a_to_d,Note,52,E3,D,down,0.088958,0.335378,0.793549,0.128600,-1.543522,-2.354886,1.346770,1.229351,-3.158486,0.011379,-2.440720,1.774185,3.865106,0.000000,0.000000,0.000000,0.000000,0.000000,0.000000
7944.516000,6.176000,101,START a_to_d,Note,52,E3,D,down,0.072958,0.335378,0.793549,0.128600,-1.543522,-2.354886,1.346770,1.229351,-3.158486,0.011379,-2.440720,1.774185,3.865106,0.000000,0.000000,0.000000,0.000000,0.000000,0.000000
7944.524000,6.184000,101,START a_to_d,Note,52,E3,D,down,0.064958,0.335378,0.793549,0.128600,-1.543522,-2.354886,1.346770,1.229351,-3.158486,0.011379,-2.440720,1.774185,3.865106,0.000000,0.000000,0.000000,0.000000,0.000000,0.000000
7944.564000,6.224000,101,START a_to_d,Note,52,E3,D,down,0.024958,0.335378,0.793549,0.128600,-1.543522,-2.354886,1.346770,1.229351,-3.158486,0.011379,-2.440720,1.774185,3.865106,0.000000,0.000000,0.000000,0.000000,0.000000,0.000000
7944.572000,6.232000,101,START a_to_d,Note,52,E3,D,down,0.016958,0.335378,0.793549,0.128600,-1.543522,-2.354886,1.346770,1.229351,-3.158486,0.011379,-2.440720,1.774185,3.865106,0.000000,0.000000,0.000000,0.000000,0.000000,0.000000
7944.580000,6.240000,101,START a_to_d,Note,52,E3,D,down,0.008958,0.335378,0.793549,0.128600,-1.543522,-2.354886,1.346770,1.229351,-3.158486,0.011379,-2.440720,1.774185,3.865106,0.000000,0.000000,0.000000,0.000000,0.000000,0.000000
7944.588000,6.248000,101,START a_to_d,Note,52,E3,D,down,0.000958,0.335378,0.793549,0.128600,-1.543522,-2.354886,1.346770,1.229351,-3.158486,0.011379,-2.440720,1.774185,3.865106,0.000000,0.000000,0.000000,0.000000,0.000000,0.000000
7944.596000,6.256000,101,START a_to_d,Note,50,D3,D,down,0.242958,0.335378,0.793549,0.128600,-1.543522,-2.354886,1.346770,1.229351,-3.158486,0.011379,-2.440720,1.774185,3.865106,0.000000,0.000000,0.000000,0.000000,0.000000,0.000000
7944.604000,6.264000,101,START a_to_d,Note,50,D3,D,down,0.234958,0.335378,0.793549,0.128600,-1.543522,-2.354886,1.346770,1.229351,-3.158486,0.011379,-2.440720,1.774185,3.865106,0.000000,0.000000,0.000000,0.000000,0.000000,0.000000
7944.612000,6.272000,101,START a_to_d,Note,50,D3,D,down,0.226958,0.335378,0.793549,0.128600,-1.543522,-2.354886,1.346770,1.229351,-3.158486,0.011379,-2.440720,1.774185,3.865106,0.000000,0.000000,0.000000,0.000000,0.000000,0.000000
7944.620000,6.280000,101,START a_to_d,Note,50,D3,D,down,0.218958,0.335378,0.793549,0.128600,-1.543522,-2.354886,1.346770,1.229351,-3.158486,0.011379,-2.440720,1.774185,3.865106,0.000000,0.000000,0.000000,0.000000,0.000000,0.000000
7944.628000,6.288000,101,START a_to_d,Note,50,D3,D,down,0.210958,0.335378,0.793549,0.128600,-1.543522,-2.354886,1.346770,1.229351,-3.158486,0.011379,-2.440720,1.774185,3.865106,0.000000,0.000000,0.000000,0.000000,0.000000,0.000000
7944.636000,6.296000,101,START a_to_d,Note,50,D3,D,down,0.202958,0.335378,0.793549,0.128600,-1.543522,-2.354886,1.346770,1.229351,-3.158486,0.011379,-2.440720,1.774185,3.865106,0.000000,0.000000,0.000000,0.000000,0.000000,0.000000
7944.644000,6.304000,101,START a_to_d,Note,50,D3,D,down,0.194958,0.335378,0.793549,0.128600,-1.543522,-2.354886,1.346770,1.229351,-3.158486,0.011379,-2.440720,1.774185,3.865106,0.000000,0.000000,0.000000,0.000000,0.000000,0.000000
7944.652000,6.312000,101,START a_to_d,Note,50,D3,D,down,0.186958,0.335378,0.793549,0.128600,-1.543522,-2.354886,1.346770,1.229351,-3.158486,0.011379,-2.440720,1.774185,3.865106,0.000000,0.000000,0.000000,0.000000,0.000000,0.000000
7944.660000,6.320000,101,START a_to_d,Note,50,D3,D,down,0.178958,0.335378,0.793549,0.128600,-1.543522,-2.354886,1.346770,1.229351,-3.158486,0.011379,-2.440720,1.774185,3.865106,0.000000,0.000000,0.000000,0.000000,0.000000,0.000000
7944.668000,6.328000,101,START a_to_d,Note,50,D3,D,down,0.170958,0.335378,0.793549,0.128600,-1.543522,-2.354886,1.346770,1.229351,-3.158486,0.011379,-2.440720,1.774185,3.865106,0.000000,0.000000,0.000000,0.000000,0.000000,0.000000
7944.676000,6.336000,101,START a_to_d,Note,50,D3,D,down,0.162958,0.335378,0.793549,0.128600,-1.543522,-2.354886,1.346770,1.229351,-3.158486,0.011379,-2.440720,1.774185,3.865106,0.000000,0.000000,0.000000,0.000000,0.000000,0.000000
7944.684000,6.344000,101,START a_to_d,Note,50,D3,D,down,0.154958,0.335378,0.793549,0.128600,-1.543522,-2.354886,1.346770,1.229351,-3.158486,0.011379,-2.440720,1.774185,3.865106,0.000000,0.000000,0.000000,0.000000,0.000000,0.000000
7944.692000,6.352000,101,START a_to_d,Note,50,D3,D,down,0.146958,0.335378,0.793549,0.128600,-1.543522,-2.354886,1.346770,1.229351,-3.158486,0.011379,-2.440720,1.774185,3.865106,0.000000,0.000000,0.000000,0.000000,0.000000,0.000000
7944.700000,6.360000,101,START a_to_d,Note,50,D3,D,down,0.138958,0.335378,0.793549,0.128600,-1.543522,-2.354886,1.346770,1.229351,-3.158486,0.011379,-2.440720,1.774185,3.865106,0.000000,0.000000,0.000000,0.000000,0.000000,0.000000
7944.708000,6.368000,101,START a_to_d,Note,50,D3,D,down,0.130958,0.335378,0.793549,0.128600,-1.543522,-2.354886,1.346770,1.229351,-3.158486,0.011379,-2.440720,1.774185,3.865106,0.000000,0.000000,0.000000,0.000000,0.000000,0.000000
7944.716000,6.376000,101,START a_to_d,Note,50,D3,D,down,0.122958,0.335378,0.793549,0.128600,-1.543522,-2.354886,1.346770,1.229351,-3.158486,0.011379,-2.440720,1.774185,3.865106,0.000000,0.000000,0.000000,0.000000,0.000000,0.000000
7944.724000,6.384000,101,START a_to_d,Note,50,D3,D,down,0.114958,0.335378,0.793549,0.128600,-1.543522,-2.354886,1.346770,1.229351,-3.158486,0.011379,-2.440720,1.774185,3.865106,0.000000,0.000000,0.000000,0.000000,0.000000,0.000000
7944.732000,6.392000,101,START a_to_d,Note,50,D3,D,down,0.106958,0.335378,0.793549,0.128600,-1.543522,-2.354886,1.346770,1.229351,-3.158486,0.011379,-2.440720,1.774185,3.865106,0.000000,0.000000,0.000000,0.000000,0.000000,0.000000
7944.740000,6.400000,101,START a_to_d,Note,50,D3,D,down,0.098958,0.335378,0.793549,0.128600,-1.543522,-2.354886,1.346770,1.229351,-3.158486,0.011379,-2.440720,1.774185,3.865106,0.000000,0.000000,0.000000,0.000000,0.000000,0.000000
7944.748000,6.408000,101,START a_to_d,Note,50,D3,D,down,0.090958,0.335378,0.793549,0.128600,-1.543522,-2.354886,1.346770,1.229351,-3.158486,0.011379,-2.440720,1.774185,3.865106,0.000000,0.000000,0.000000,0.000000,0.000000,0.000000
7944.756000,6.416000,101,START a_to_d,Note,50,D3,D,down,0.082958,0.335378,0.793549,0.128600,-1.543522,-2.354886,1.346770,1.229351,-3.158486,0.011379,-2.440720,1.774185,3.865106,0.000000,0.000000,0.000000,0.000000,0.000000,0.000000
7944.764000,6.424000,101,START a_to_d,Note,50,D3,D,down,0.074958,0.335378,0.793549,0.128600,-1.543522,-2.354886,1.346770,1.229351,-3.158486,0.011379,-2.440720,1.774185,3.865106,0.000000,0.000000,0.000000,0.000000,0.000000,0.000000
7944.772000,6.432000,101,START a_to_d,Note,50,D3,D,down,0.066958,0.335378,0.793549,0.128600,-1.543522,-2.354886,1.346770,1.229351,-3.158486,0.011379,-2.440720,1.774185,3.865106,0.000000,0.000000,0.000000,0.000000,0.000000,0.000000
7944.916000,6.576000,101,START a_to_d,Note,52,E3,D,down,0.172958,0.335378,0.793549,0.128600,-1.543522,-2.354886,1.346770,1.229351,-3.158486,0.011379,-2.440720,1.774185,3.865106,0.000000,0.000000,0.000000,0.000000,0.000000,0.000000
7944.924000,6.584000,101,START a_to_d,Note,52,E3,D,down,0.164958,0.335378,0.793549,0.128600,-1.543522,-2.354886,1.346770,1.229351,-3.158486,0.011379,-2.440720,1.774185,3.865106,0.000000,0.000000,0.000000,0.000000,0.000000,0.000000
7944.932000,6.592000,101,START a_to_d,Note,52,E3,D,down,0.156958,0.335378,0.793549,0.128600,-1.543522,-2.354886,1.346770,1.229351,-3.158486,0.011379,-2.440720,1.774185,3.865106,0.000000,0.000000,0.000000,0.000000,0.000000,0.000000
7944.940000,6.600000,101,START a_to_d,Note,52,E3,D,down,0.148958,0.335378,0.793549,0.128600,-1.543522,-2.354886,1.346770,1.229351,-3.158486,0.011379,-2.440720,1.774185,3.865106,0.000000,0.000000,0.000000,0.000000,0.000000,0.000000
7944.996000,6.656000,101,START a_to_d,Note,52,E3,D,down,0.092958,0.335378,0.793549,0.128600,-1.543522,-2.354886,1.346770,1.229351,-3.158486,0.011379,-2.440720,1.774185,3.865106,0.000000,0.000000,0.000000,0.000000,0.000000,0.000000
7945.012000,6.672000,101,START a_to_d,Note,52,E3,D,down,0.076958,0.335378,0.793549,0.128600,-1.543522,-2.354886,1.346770,1.229351,-3.158486,0.011379,-2.440720,1.774185,3.865106,0.000000,0.000000,0.000000,0.000000,0.000000,0.000000
7945.020000,6.680000,101,START a_to_d,Note,52,E3,D,down,0.068958,0.335378,0.793549,0.128600,-1.543522,-2.354886,1.346770,1.229351,-3.158486,0.011379,-2.440720,1.774185,3.865106,0.000000,0.000000,0.000000,0.000000,0.000000,0.000000
7945.028000,6.688000,101,START a_to_d,Note,52,E3,D,down,0.060958,0.335378,0.793549,0.128600,-1.543522,-2.354886,1.346770,1.229351,-3.158486,0.011379,-2.440720,1.774185,3.865106,0.000000,0.000000,0.000000,0.000000,0.000000,0.000000
7945.084000,6.744000,101,START a_to_d,Note,52,E3,D,down,0.004958,0.335378,0.793549,0.128600,-1.543522,-2.354886,1.346770,1.229351,-3.158486,0.011379,-2.440720,1.774185,3.865106,0.000000,0.000000,0.000000,0.000000,0.000000,0.000000
7945.092000,6.752000,101,START a_to_d,Note,54,F#3,D,down,0.246958,0.335378,0.793549,0.128600,-1.543522,-2.354886,1.346770,1.229351,-3.158486,0.011379,-2.440720,1.774185,3.865106,0.000000,0.000000,0.000000,0.000000,0.000000,0.000000
7945.100000,6.760000,101,START a_to_d,Note,54,F#3,D,down,0.238958,0.335378,0.793549,0.128600,-1.543522,-2.354886,1.346770,1.229351,-3.158486,0.011379,-2.440720,1.774185,3.865106,0.000000,0.000000,0.000000,0.000000,0.000000,0.000000
7945.108000,6.768000,101,START a_to_d,Note,54,F#3,D,down,0.230958,0.335378,0.793549,0.128600,-1.543522,-2.354886,1.346770,1.229351,-3.158486,0.011379,-2.440720,1.774185,3.865106,0.000000,0.000000,0.000000,0.000000,0.000000,0.000000
