Praneshv25/Robot-Cello-RL/RL-code/allegro-detailed-test-irl.csv
timestamp_robot,time_elapsed_sec,event_flag,event_label,current_event_type,current_note_number,current_note_name,current_string,current_bowing,remaining_duration_sec,TCP_pose_x,TCP_pose_y,TCP_pose_z,TCP_pose_rx,TCP_pose_ry,TCP_pose_rz,q_base,q_shoulder,q_elbow,q_wrist1,q_wrist2,q_wrist3,TCP_force_x,TCP_force_y,TCP_force_z,TCP_force_rx,TCP_force_ry,TCP_force_rz
6109.896000,0.000000,1,START a_bow,Note,62,D4,A,up,0.498958,0.326942,0.475831,0.153415,-1.634687,-2.060634,1.041410,1.068468,-2.318678,-1.761861,-1.358406,1.975590,3.824837,0.000000,0.000000,0.000000,0.000000,0.000000,0.000000
6109.904000,0.008000,1,START a_bow,Note,62,D4,A,up,0.490958,0.327182,0.475302,0.153633,-1.634572,-2.060572,1.041548,1.067697,-2.317903,-1.762581,-1.358843,1.975130,3.824119,0.000000,0.000000,0.000000,0.000000,0.000000,0.000000
6109.912000,0.016000,1,START a_bow,Note,62,D4,A,up,0.482958,0.327437,0.474738,0.153865,-1.634449,-2.060506,1.041694,1.066875,-2.317077,-1.763345,-1.359310,1.974639,3.823354,0.000000,0.000000,0.000000,0.000000,0.000000,0.000000
6109.920000,0.024000,1,START a_bow,Note,62,D4,A,up,0.474958,0.327709,0.474138,0.154112,-1.634318,-2.060435,1.041851,1.065999,-2.316198,-1.764157,-1.359810,1.974116,3.822539,0.000000,0.000000,0.000000,0.000000,0.000000,0.000000
6109.928000,0.032000,1,START a_bow,Note,62,D4,A,up,0.466958,0.327999,0.473500,0.154374,-1.634179,-2.060360,1.042017,1.065067,-2.315266,-1.765017,-1.360342,1.973558,3.821673,0.000000,0.000000,0.000000,0.000000,0.000000,0.000000
6109.936000,0.040000,1,START a_bow,Note,62,D4,A,up,0.458958,0.328302,0.472832,0.154650,-1.634033,-2.060282,1.042191,1.064089,-2.314289,-1.765915,-1.360902,1.972972,3.820764,0.000000,0.000000,0.000000,0.000000,0.000000,0.000000
6109.944000,0.048000,1,START a_bow,Note,62,D4,A,up,0.450958,0.328617,0.472137,0.154936,-1.633881,-2.060200,1.042372,1.063071,-2.313275,-1.766845,-1.361486,1.972362,3.819819,0.000000,0.000000,0.000000,0.000000,0.000000,0.000000
6109.952000,0.056000,1,START a_bow,Note,62,D4,A,up,0.442958,0.328943,0.471416,0.155233,-1.633724,-2.060115,1.042560,1.062013,-2.312224,-1.767806,-1.362095,1.971727,3.818839,0.000000,0.000000,0.000000,0.000000,0.000000,0.000000
6109.960000,0.064000,1,START a_bow,Note,62,D4,A,up,0.434958,0.329282,0.470669,0.155540,-1.633561,-2.060027,1.042754,1.060916,-2.311136,-1.768798,-1.362728,1.971068,3.817823,0.000000,0.000000,0.000000,0.000000,0.000000,0.000000
6109.968000,0.072000,1,START a_bow,Note,62,D4,A,up,0.426958,0.329632,0.469896,0.155858,-1.633392,-2.059936,1.042956,1.059779,-2.310011,-1.769820,-1.363385,1.970384,3.816770,0.000000,0.000000,0.000000,0.000000,0.000000,0.000000
6109.976000,0.080000,1,START a_bow,Note,62,D4,A,up,0.418958,0.329994,0.469097,0.156187,-1.633218,-2.059842,1.043164,1.058601,-2.308849,-1.770872,-1.364068,1.969675,3.815682,0.000000,0.000000,0.000000,0.000000,0.000000,0.000000
6109.984000,0.088000,1,START a_bow,Note,62,D4,A,up,0.410958,0.330358,0.468295,0.156518,-1.633043,-2.059748,1.043373,1.057417,-2.307685,-1.771924,-1.364757,1.968962,3.814588,0.000000,0.000000,0.000000,0.000000,0.000000,0.000000
6109.992000,0.096000,1,START a_bow,Note,62,D4,A,up,0.402958,0.330710,0.467518,0.156837,-1.632874,-2.059656,1.043575,1.056270,-2.306559,-1.772938,-1.365426,1.968270,3.813530,0.000000,0.000000,0.000000,0.000000,0.000000,0.000000
6110.000000,0.104000,1,START a_bow,Note,62,D4,A,up,0.394958,0.331050,0.466768,0.157146,-1.632710,-2.059568,1.043770,1.055160,-2.305472,-1.773913,-1.366075,1.967599,3.812507,0.000000,0.000000,0.000000,0.000000,0.000000,0.000000
6110.008000,0.112000,1,START a_bow,Note,62,D4,A,up,0.386958,0.331378,0.466044,0.157444,-1.632552,-2.059483,1.043958,1.054087,-2.304425,-1.774851,-1.366704,1.966950,3.811518,0.000000,0.000000,0.000000,0.000000,0.000000,0.000000
6110.016000,0.120000,1,START a_bow,Note,62,D4,A,up,0.378958,0.331695,0.465346,0.157732,-1.632399,-2.059400,1.044140,1.053051,-2.303416,-1.775751,-1.367312,1.966323,3.810565,0.000000,0.000000,0.000000,0.000000,0.000000,0.000000
6110.024000,0.128000,1,START a_bow,Note,62,D4,A,up,0.370958,0.331999,0.464674,0.158008,-1.632253,-2.059321,1.044315,1.052052,-2.302445,-1.776614,-1.367900,1.965718,3.809648,0.000000,0.000000,0.000000,0.000000,0.000000,0.000000
6110.032000,0.136000,1,START a_bow,Note,62,D4,A,up,0.362958,0.332292,0.464028,0.158274,-1.632112,-2.059245,1.044483,1.051092,-2.301514,-1.777441,-1.368467,1.965135,3.808765,0.000000,0.000000,0.000000,0.000000,0.000000,0.000000
6110.040000,0.144000,1,START a_bow,Note,62,D4,A,up,0.354958,0.332573,0.463409,0.158529,-1.631977,-2.059172,1.044644,1.050168,-2.300621,-1.778231,-1.369013,1.964575,3.807918,0.000000,0.000000,0.000000,0.000000,0.000000,0.000000
6110.048000,0.152000,1,START a_bow,Note,62,D4,A,up,0.346958,0.332842,0.462815,0.158774,-1.631847,-2.059102,1.044799,1.049283,-2.299766,-1.778986,-1.369537,1.964037,3.807106,0.000000,0.000000,0.000000,0.000000,0.000000,0.000000
6110.056000,0.160000,1,START a_bow,Note,62,D4,A,up,0.338958,0.333099,0.462248,0.159007,-1.631723,-2.059035,1.044946,1.048436,-2.298949,-1.779705,-1.370040,1.963522,3.806330,0.000000,0.000000,0.000000,0.000000,0.000000,0.000000
6110.064000,0.168000,1,START a_bow,Note,62,D4,A,up,0.330958,0.333345,0.461706,0.159230,-1.631605,-2.058972,1.045087,1.047627,-2.298171,-1.780389,-1.370521,1.963029,3.805589,0.000000,0.000000,0.000000,0.000000,0.000000,0.000000
6110.072000,0.176000,1,START a_bow,Note,62,D4,A,up,0.322958,0.333578,0.461191,0.159442,-1.631492,-2.058911,1.045221,1.046856,-2.297430,-1.781037,-1.370981,1.962560,3.804884,0.000000,0.000000,0.000000,0.000000,0.000000,0.000000
6110.080000,0.184000,1,START a_bow,Note,62,D4,A,up,0.314958,0.333800,0.460701,0.159644,-1.631386,-2.058853,1.045348,1.046123,-2.296728,-1.781652,-1.371418,1.962113,3.804214,0.000000,0.000000,0.000000,0.000000,0.000000,0.000000
6110.088000,0.192000,1,START a_bow,Note,62,D4,A,up,0.306958,0.334010,0.460238,0.159834,-1.631285,-2.058798,1.045469,1.045429,-2.296064,-1.782232,-1.371832,1.961690,3.803580,0.000000,0.000000,0.000000,0.000000,0.000000,0.000000
6110.096000,0.200000,1,START a_bow,Note,62,D4,A,up,0.298958,0.334208,0.459801,0.160014,-1.631189,-2.058747,1.045583,1.044774,-2.295437,-1.782778,-1.372224,1.961290,3.802981,0.000000,0.000000,0.000000,0.000000,0.000000,0.000000
6110.104000,0.208000,1,START a_bow,Note,62,D4,A,up,0.290958,0.334394,0.459390,0.160184,-1.631099,-2.058698,1.045689,1.044157,-2.294848,-1.783290,-1.372594,1.960913,3.802418,0.000000,0.000000,0.000000,0.000000,0.000000,0.000000
6110.112000,0.216000,1,START a_bow,Note,62,D4,A,up,0.282958,0.334569,0.459005,0.160342,-1.631015,-2.058653,1.045790,1.043579,-2.294297,-1.783768,-1.372941,1.960560,3.801890,0.000000,0.000000,0.000000,0.000000,0.000000,0.000000
6110.120000,0.224000,1,START a_bow,Note,62,D4,A,up,0.274958,0.334731,0.458647,0.160490,-1.630937,-2.058611,1.045883,1.043040,-2.293784,-1.784213,-1.373264,1.960231,3.801398,0.000000,0.000000,0.000000,0.000000,0.000000,0.000000
6110.128000,0.232000,1,START a_bow,Note,62,D4,A,up,0.266958,0.334882,0.458314,0.160627,-1.630864,-2.058572,1.045969,1.042539,-2.293308,-1.784625,-1.373565,1.959924,3.800942,0.000000,0.000000,0.000000,0.000000,0.000000,0.000000
6110.136000,0.240000,1,START a_bow,Note,62,D4,A,up,0.258958,0.335021,0.458007,0.160753,-1.630797,-2.058535,1.046049,1.042078,-2.292870,-1.785004,-1.373843,1.959642,3.800522,0.000000,0.000000,0.000000,0.000000,0.000000,0.000000
6110.144000,0.248000,1,START a_bow,Note,62,D4,A,up,0.250958,0.335148,0.457727,0.160868,-1.630736,-2.058502,1.046122,1.041655,-2.292469,-1.785350,-1.374097,1.959384,3.800137,0.000000,0.000000,0.000000,0.000000,0.000000,0.000000
6110.152000,0.256000,1,START a_bow,Note,62,D4,A,up,0.242958,0.335264,0.457472,0.160973,-1.630681,-2.058472,1.046188,1.041272,-2.292106,-1.785663,-1.374328,1.959149,3.799788,0.000000,0.000000,0.000000,0.000000,0.000000,0.000000
6110.160000,0.264000,1,START a_bow,Note,62,D4,A,up,0.234958,0.335367,0.457244,0.161067,-1.630631,-2.058445,1.046247,1.040928,-2.291780,-1.785944,-1.374536,1.958938,3.799475,0.000000,0.000000,0.000000,0.000000,0.000000,0.000000
6110.168000,0.272000,1,START a_bow,Note,62,D4,A,up,0.226958,0.335459,0.457042,0.161150,-1.630587,-2.058421,1.046300,1.040623,-2.291491,-1.786192,-1.374720,1.958751,3.799197,0.000000,0.000000,0.000000,0.000000,0.000000,0.000000
6110.176000,0.280000,1,START a_bow,Note,62,D4,A,up,0.218958,0.335539,0.456866,0.161223,-1.630548,-2.058401,1.046346,1.040358,-2.291240,-1.786408,-1.374880,1.958589,3.798956,0.000000,0.000000,0.000000,0.000000,0.000000,0.000000
6110.184000,0.288000,1,START a_bow,Note,62,D4,A,up,0.210958,0.335607,0.456716,0.161285,-1.630515,-2.058383,1.046385,1.040131,-2.291026,-1.786592,-1.375017,1.958450,3.798750,0.000000,0.000000,0.000000,0.000000,0.000000,0.000000
6110.192000,0.296000,1,START a_bow,Note,62,D4,A,up,0.202958,0.335663,0.456592,0.161336,-1.630488,-2.058368,1.046417,1.039944,-2.290849,-1.786744,-1.375130,1.958335,3.798580,0.000000,0.000000,0.000000,0.000000,0.000000,0.000000
6110.200000,0.304000,1,START a_bow,Note,62,D4,A,up,0.194958,0.335707,0.456494,0.161376,-1.630467,-2.058357,1.046443,1.039796,-2.290710,-1.786864,-1.375219,1.958244,3.798445,0.000000,0.000000,0.000000,0.000000,0.000000,0.000000
6110.208000,0.312000,1,START a_bow,Note,62,D4,A,up,0.186958,0.335740,0.456422,0.161406,-1.630451,-2.058348,1.046461,1.039688,-2.290607,-1.786952,-1.375285,1.958178,3.798347,0.000000,0.000000,0.000000,0.000000,0.000000,0.000000
6110.216000,0.320000,1,START a_bow,Note,62,D4,A,up,0.178958,0.335760,0.456376,0.161424,-1.630441,-2.058343,1.046473,1.039619,-2.290542,-1.787007,-1.375327,1.958136,3.798284,0.000000,0.000000,0.000000,0.000000,0.000000,0.000000
6110.224000,0.328000,1,START a_bow,Note,62,D4,A,up,0.170958,0.335769,0.456357,0.161432,-1.630437,-2.058341,1.046478,1.039590,-2.290514,-1.787031,-1.375345,1.958118,3.798257,0.000000,0.000000,0.000000,0.000000,0.000000,0.000000
6110.232000,0.336000,2,END a_bow,Note,62,D4,A,up,0.162958,0.335770,0.456356,0.161433,-1.630437,-2.058341,1.046478,1.039588,-2.290513,-1.787032,-1.375345,1.958117,3.798256,0.000000,0.000000,0.000000,0.000000,0.000000,0.000000
6110.240000,0.344000,2,END a_bow,Note,62,D4,A,up,0.154958,0.335770,0.456356,0.161433,-1.630437,-2.058341,1.046478,1.039588,-2.290513,-1.787032,-1.375345,1.958117,3.798256,0.000000,0.000000,0.000000,0.000000,0.000000,0.000000
6110.248000,0.352000,2,END a_bow,Note,62,D4,A,up,0.146958,0.335770,0.456356,0.161433,-1.630437,-2.058341,1.046478,1.039588,-2.290513,-1.787032,-1.375345,1.958117,3.798256,0.000000,0.000000,0.000000,0.000000,0.000000,0.000000
6110.256000,0.360000,1,START a_bow,Note,62,D4,A,down,0.638958,0.335769,0.456358,0.161432,-1.630437,-2.058341,1.046478,1.039591,-2.290516,-1.787030,-1.375344,1.958119,3.798259,0.000000,0.000000,0.000000,0.000000,0.000000,0.000000
6110.264000,0.368000,1,START a_bow,Note,62,D4,A,down,0.630958,0.335758,0.456381,0.161423,-1.630442,-2.058343,1.046472,1.039626,-2.290548,-1.787002,-1.375323,1.958140,3.798290,0.000000,0.000000,0.000000,0.000000,0.000000,0.000000
6110.272000,0.376000,1,START a_bow,Note,62,D4,A,down,0.622958,0.335736,0.456430,0.161402,-1.630453,-2.058349,1.046459,1.039699,-2.290618,-1.786942,-1.375278,1.958185,3.798357,0.000000,0.000000,0.000000,0.000000,0.000000,0.000000
6110.280000,0.384000,1,START a_bow,Note,62,D4,A,down,0.614958,0.335702,0.456505,0.161372,-1.630469,-2.058358,1.046440,1.039813,-2.290725,-1.786851,-1.375210,1.958254,3.798460,0.000000,0.000000,0.000000,0.000000,0.000000,0.000000
6110.288000,0.392000,1,START a_bow,Note,62,D4,A,down,0.606958,0.335656,0.456606,0.161330,-1.630491,-2.058370,1.046413,1.039965,-2.290869,-1.786727,-1.375117,1.958348,3.798599,0.000000,0.000000,0.000000,0.000000,0.000000,0.000000
6110.296000,0.400000,1,START a_bow,Note,62,D4,A,down,0.598958,0.335599,0.456733,0.161278,-1.630519,-2.058385,1.046380,1.040157,-2.291051,-1.786571,-1.375001,1.958466,3.798774,0.000000,0.000000,0.000000,0.000000,0.000000,0.000000
6110.304000,0.408000,1,START a_bow,Note,62,D4,A,down,0.590958,0.335529,0.456886,0.161214,-1.630553,-2.058403,1.046340,1.040389,-2.291269,-1.786383,-1.374862,1.958608,3.798984,0.000000,0.000000,0.000000,0.000000,0.000000,0.000000
6110.312000,0.416000,1,START a_bow,Note,62,D4,A,down,0.582958,0.335448,0.457066,0.161141,-1.630592,-2.058424,1.046294,1.040659,-2.291525,-1.786163,-1.374698,1.958773,3.799230,0.000000,0.000000,0.000000,0.000000,0.000000,0.000000
6110.320000,0.424000,1,START a_bow,Note,62,D4,A,down,0.574958,0.335355,0.457271,0.161056,-1.630637,-2.058448,1.046240,1.040969,-2.291819,-1.785910,-1.374511,1.958963,3.799512,0.000000,0.000000,0.000000,0.000000,0.000000,0.000000
6110.328000,0.432000,1,START a_bow,Note,62,D4,A,down,0.566958,0.335250,0.457503,0.160961,-1.630687,-2.058476,1.046180,1.041318,-2.292149,-1.785626,-1.374301,1.959177,3.799830,0.000000,0.000000,0.000000,0.000000,0.000000,0.000000
6110.336000,0.440000,1,START a_bow,Note,62,D4,A,down,0.558958,0.335133,0.457760,0.160855,-1.630744,-2.058506,1.046113,1.041706,-2.292517,-1.785308,-1.374067,1.959415,3.800183,0.000000,0.000000,0.000000,0.000000,0.000000,0.000000
6110.344000,0.448000,1,START a_bow,Note,62,D4,A,down,0.550958,0.335004,0.458044,0.160738,-1.630806,-2.058540,1.046039,1.042133,-2.292923,-1.784958,-1.373809,1.959676,3.800572,0.000000,0.000000,0.000000,0.000000,0.000000,0.000000
6110.352000,0.456000,1,START a_bow,Note,62,D4,A,down,0.542958,0.334864,0.458354,0.160610,-1.630873,-2.058576,1.045959,1.042600,-2.293366,-1.784575,-1.373529,1.959961,3.800997,0.000000,0.000000,0.000000,0.000000,0.000000,0.000000
6110.360000,0.464000,1,START a_bow,Note,62,D4,A,down,0.534958,0.334712,0.458690,0.160472,-1.630947,-2.058616,1.045872,1.043105,-2.293846,-1.784159,-1.373225,1.960270,3.801458,0.000000,0.000000,0.000000,0.000000,0.000000,0.000000
6110.368000,0.472000,1,START a_bow,Note,62,D4,A,down,0.526958,0.334548,0.459052,0.160323,-1.631026,-2.058659,1.045777,1.043649,-2.294364,-1.783710,-1.372899,1.960603,3.801954,0.000000,0.000000,0.000000,0.000000,0.000000,0.000000
6110.376000,0.480000,1,START a_bow,Note,62,D4,A,down,0.518958,0.334372,0.459440,0.160163,-1.631110,-2.058704,1.045676,1.044232,-2.294920,-1.783227,-1.372549,1.960959,3.802486,0.000000,0.000000,0.000000,0.000000,0.000000,0.000000
6110.384000,0.488000,1,START a_bow,Note,62,D4,A,down,0.510958,0.334184,0.459854,0.159992,-1.631201,-2.058753,1.045569,1.044854,-2.295513,-1.782711,-1.372177,1.961339,3.803054,0.000000,0.000000,0.000000,0.000000,0.000000,0.000000
6110.392000,0.496000,1,START a_bow,Note,62,D4,A,down,0.502958,0.333984,0.460295,0.159811,-1.631297,-2.058805,1.045454,1.045514,-2.296145,-1.782161,-1.371782,1.961742,3.803657,0.000000,0.000000,0.000000,0.000000,0.000000,0.000000
6110.400000,0.504000,1,START a_bow,Note,62,D4,A,down,0.494958,0.333773,0.460761,0.159619,-1.631399,-2.058860,1.045333,1.046213,-2.296814,-1.781577,-1.371364,1.962168,3.804296,0.000000,0.000000,0.000000,0.000000,0.000000,0.000000
6110.408000,0.512000,1,START a_bow,Note,62,D4,A,down,0.486958,0.333550,0.461254,0.159416,-1.631506,-2.058918,1.045205,1.046950,-2.297521,-1.780958,-1.370924,1.962617,3.804970,0.000000,0.000000,0.000000,0.000000,0.000000,0.000000
6110.416000,0.520000,1,START a_bow,Note,62,D4,A,down,0.478958,0.333315,0.461772,0.159203,-1.631619,-2.058979,1.045070,1.047726,-2.298266,-1.780305,-1.370462,1.963090,3.805680,0.000000,0.000000,0.000000,0.000000,0.000000,0.000000
6110.424000,0.528000,1,START a_bow,Note,62,D4,A,down,0.470958,0.333068,0.462317,0.158979,-1.631738,-2.059044,1.044928,1.048540,-2.299049,-1.779617,-1.369979,1.963585,3.806425,0.000000,0.000000,0.000000,0.000000,0.000000,0.000000
6110.432000,0.536000,1,START a_bow,Note,62,D4,A,down,0.462958,0.332809,0.462888,0.158744,-1.631863,-2.059111,1.044780,1.049392,-2.299870,-1.778893,-1.369473,1.964103,3.807206,0.000000,0.000000,0.000000,0.000000,0.000000,0.000000
6110.440000,0.544000,1,START a_bow,Note,62,D4,A,down,0.454958,0.332538,0.463485,0.158498,-1.631993,-2.059181,1.044624,1.050282,-2.300730,-1.778134,-1.368946,1.964644,3.808022,0.000000,0.000000,0.000000,0.000000,0.000000,0.000000
6110.448000,0.552000,1,START a_bow,Note,62,D4,A,down,0.446958,0.332256,0.464108,0.158241,-1.632129,-2.059255,1.044462,1.051210,-2.301628,-1.777339,-1.368397,1.965207,3.808874,0.000000,0.000000,0.000000,0.000000,0.000000,0.000000
6110.456000,0.560000,1,START a_bow,Note,62,D4,A,down,0.438958,0.331962,0.464757,0.157974,-1.632271,-2.059331,1.044293,1.052175,-2.302565,-1.776508,-1.367828,1.965792,3.809760,0.000000,0.000000,0.000000,0.000000,0.000000,0.000000
6110.464000,0.568000,1,START a_bow,Note,62,D4,A,down,0.430958,0.331656,0.465432,0.157696,-1.632418,-2.059411,1.044118,1.053178,-2.303540,-1.775640,-1.367237,1.966400,3.810683,0.000000,0.000000,0.000000,0.000000,0.000000,0.000000
6110.472000,0.576000,1,START a_bow,Note,62,D4,A,down,0.422958,0.331338,0.466133,0.157407,-1.632571,-2.059493,1.043935,1.054219,-2.304553,-1.774735,-1.366626,1.967030,3.811640,0.000000,0.000000,0.000000,0.000000,0.000000,0.000000
6110.480000,0.584000,1,START a_bow,Note,62,D4,A,down,0.414958,0.331008,0.466861,0.157108,-1.632730,-2.059579,1.043746,1.055296,-2.305606,-1.773793,-1.365995,1.967681,3.812633,0.000000,0.000000,0.000000,0.000000,0.000000,0.000000
6110.488000,0.592000,1,START a_bow,Note,62,D4,A,down,0.406958,0.330667,0.467614,0.156798,-1.632894,-2.059668,1.043550,1.056411,-2.306698,-1.772813,-1.365343,1.968355,3.813660,0.000000,0.000000,0.000000,0.000000,0.000000,0.000000
6110.496000,0.600000,1,START a_bow,Note,62,D4,A,down,0.398958,0.330313,0.468394,0.156477,-1.633065,-2.059759,1.043347,1.057563,-2.307828,-1.771795,-1.364672,1.969050,3.814723,0.000000,0.000000,0.000000,0.000000,0.000000,0.000000
6110.504000,0.608000,1,START a_bow,Note,62,D4,A,down,0.390958,0.329949,0.469198,0.156146,-1.633240,-2.059854,1.043137,1.058750,-2.308997,-1.770739,-1.363982,1.969765,3.815820,0.000000,0.000000,0.000000,0.000000,0.000000,0.000000
6110.512000,0.616000,1,START a_bow,Note,62,D4,A,down,0.382958,0.329588,0.469994,0.155818,-1.633414,-2.059948,1.042930,1.059923,-2.310153,-1.769691,-1.363302,1.970471,3.816904,0.000000,0.000000,0.000000,0.000000,0.000000,0.000000
6110.520000,0.624000,1,START a_bow,Note,62,D4,A,down,0.374958,0.329239,0.470764,0.155501,-1.633582,-2.060038,1.042730,1.061055,-2.311274,-1.768672,-1.362647,1.971152,3.817952,0.000000,0.000000,0.000000,0.000000,0.000000,0.000000
6110.528000,0.632000,1,START a_bow,Note,62,D4,A,down,0.366958,0.328902,0.471508,0.155195,-1.633744,-2.060126,1.042536,1.062148,-2.312357,-1.767684,-1.362017,1.971808,3.818963,0.000000,0.000000,0.000000,0.000000,0.000000,0.000000
6110.536000,0.640000,1,START a_bow,Note,62,D4,A,down,0.358958,0.328577,0.472225,0.154899,-1.633901,-2.060210,1.042349,1.063200,-2.313404,-1.766727,-1.361412,1.972439,3.819939,0.000000,0.000000,0.000000,0.000000,0.000000,0.000000
6110.544000,0.648000,1,START a_bow,Note,62,D4,A,down,0.350958,0.328263,0.472917,0.154615,-1.634051,-2.060292,1.042169,1.064213,-2.314413,-1.765801,-1.360831,1.973047,3.820880,0.000000,0.000000,0.000000,0.000000,0.000000,0.000000
6110.552000,0.656000,1,START a_bow,Note,62,D4,A,down,0.342958,0.327961,0.473582,0.154341,-1.634197,-2.060370,1.041996,1.065187,-2.315385,-1.764907,-1.360274,1.973629,3.821784,0.000000,0.000000,0.000000,0.000000,0.000000,0.000000
6110.560000,0.664000,1,START a_bow,Note,62,D4,A,down,0.334958,0.327672,0.474221,0.154078,-1.634336,-2.060445,1.041829,1.066121,-2.316320,-1.764045,-1.359740,1.974188,3.822652,0.000000,0.000000,0.000000,0.000000,0.000000,0.000000
6110.568000,0.672000,1,START a_bow,Note,62,D4,A,down,0.326958,0.327394,0.474835,0.153825,-1.634470,-2.060517,1.041669,1.067016,-2.317218,-1.763215,-1.359231,1.974723,3.823485,0.000000,0.000000,0.000000,0.000000,0.000000,0.000000
6110.576000,0.680000,1,START a_bow,Note,62,D4,A,down,0.318958,0.327128,0.475422,0.153583,-1.634598,-2.060586,1.041516,1.067871,-2.318078,-1.762418,-1.358744,1.975234,3.824282,0.000000,0.000000,0.000000,0.000000,0.000000,0.000000
6110.584000,0.688000,1,START a_bow,Note,62,D4,A,down,0.310958,0.326873,0.475983,0.153352,-1.634720,-2.060652,1.041370,1.068688,-2.318900,-1.761654,-1.358281,1.975721,3.825043,0.000000,0.000000,0.000000,0.000000,0.000000,0.000000
6110.592000,0.696000,1,START a_bow,Note,62,D4,A,down,0.302958,0.326631,0.476518,0.153132,-1.634837,-2.060715,1.041231,1.069467,-2.319685,-1.760924,-1.357840,1.976185,3.825768,0.000000,0.000000,0.000000,0.000000,0.000000,0.000000
6110.600000,0.704000,1,START a_bow,Note,62,D4,A,down,0.294958,0.326400,0.477027,0.152923,-1.634948,-2.060775,1.041098,1.070206,-2.320432,-1.760227,-1.357423,1.976626,3.826458,0.000000,0.000000,0.000000,0.000000,0.000000,0.000000
6110.608000,0.712000,1,START a_bow,Note,62,D4,A,down,0.286958,0.326181,0.477509,0.152724,-1.635053,-2.060831,1.040972,1.070907,-2.321142,-1.759565,-1.357027,1.977043,3.827113,0.000000,0.000000,0.000000,0.000000,0.000000,0.000000
6110.616000,0.720000,1,START a_bow,Note,62,D4,A,down,0.278958,0.325974,0.477966,0.152536,-1.635153,-2.060885,1.040853,1.071569,-2.321813,-1.758936,-1.356655,1.977437,3.827731,0.000000,0.000000,0.000000,0.000000,0.000000,0.000000
6110.624000,0.728000,1,START a_bow,Note,62,D4,A,down,0.270958,0.325779,0.478396,0.152359,-1.635247,-2.060936,1.040741,1.072193,-2.322447,-1.758342,-1.356304,1.977808,3.828314,0.000000,0.000000,0.000000,0.000000,0.000000,0.000000
6110.632000,0.736000,1,START a_bow,Note,62,D4,A,down,0.262958,0.325596,0.478801,0.152192,-1.635335,-2.060983,1.040636,1.072779,-2.323042,-1.757783,-1.355975,1.978156,3.828862,0.000000,0.000000,0.000000,0.000000,0.000000,0.000000
6110.640000,0.744000,1,START a_bow,Note,62,D4,A,down,0.254958,0.325424,0.479179,0.152036,-1.635417,-2.061028,1.040537,1.073326,-2.323599,-1.757259,-1.355669,1.978481,3.829374,0.000000,0.000000,0.000000,0.000000,0.000000,0.000000
6110.648000,0.752000,1,START a_bow,Note,62,D4,A,down,0.246958,0.325265,0.479532,0.151891,-1.635494,-2.061069,1.040445,1.073836,-2.324118,-1.756771,-1.355384,1.978783,3.829851,0.000000,0.000000,0.000000,0.000000,0.000000,0.000000
6110.656000,0.760000,1,START a_bow,Note,62,D4,A,down,0.238958,0.325117,0.479858,0.151757,-1.635565,-2.061107,1.040360,1.074307,-2.324599,-1.756317,-1.355121,1.979062,3.830293,0.000000,0.000000,0.000000,0.000000,0.000000,0.000000
6110.664000,0.768000,1,START a_bow,Note,62,D4,A,down,0.230958,0.324981,0.480158,0.151634,-1.635631,-2.061142,1.040282,1.074741,-2.325042,-1.755899,-1.354879,1.979319,3.830699,0.000000,0.000000,0.000000,0.000000,0.000000,0.000000
6110.672000,0.776000,1,START a_bow,Note,62,D4,A,down,0.222958,0.324857,0.480432,0.151521,-1.635691,-2.061175,1.040210,1.075136,-2.325446,-1.755517,-1.354658,1.979554,3.831069,0.000000,0.000000,0.000000,0.000000,0.000000,0.000000
6110.680000,0.784000,1,START a_bow,Note,62,D4,A,down,0.214958,0.324744,0.480680,0.151419,-1.635745,-2.061204,1.040146,1.075494,-2.325812,-1.755171,-1.354459,1.979765,3.831405,0.000000,0.000000,0.000000,0.000000,0.000000,0.000000
6110.688000,0.792000,1,START a_bow,Note,62,D4,A,down,0.206958,0.324644,0.480901,0.151327,-1.635793,-2.061230,1.040088,1.075814,-2.326139,-1.754861,-1.354281,1.979955,3.831704,0.000000,0.000000,0.000000,0.000000,0.000000,0.000000
6110.696000,0.800000,1,START a_bow,Note,62,D4,A,down,0.198958,0.324555,0.481097,0.151247,-1.635836,-2.061253,1.040037,1.076096,-2.326428,-1.754587,-1.354125,1.980122,3.831969,0.000000,0.000000,0.000000,0.000000,0.000000,0.000000
6110.704000,0.808000,1,START a_bow,Note,62,D4,A,down,0.190958,0.324478,0.481267,0.151177,-1.635873,-2.061273,1.039993,1.076340,-2.326679,-1.754350,-1.353989,1.980266,3.832198,0.000000,0.000000,0.000000,0.000000,0.000000,0.000000
6110.712000,0.816000,1,START a_bow,Note,62,D4,A,down,0.182958,0.324413,0.481410,0.151118,-1.635904,-2.061290,1.039955,1.076547,-2.326891,-1.754149,-1.353874,1.980389,3.832392,0.000000,0.000000,0.000000,0.000000,0.000000,0.000000
6110.720000,0.824000,1,START a_bow,Note,62,D4,A,down,0.174958,0.324360,0.481528,0.151070,-1.635930,-2.061303,1.039925,1.076716,-2.327065,-1.753984,-1.353780,1.980489,3.832551,0.000000,0.000000,0.000000,0.000000,0.000000,0.000000
6110.728000,0.832000,1,START a_bow,Note,62,D4,A,down,0.166958,0.324319,0.481619,0.151032,-1.635950,-2.061314,1.039901,1.076847,-2.327200,-1.753856,-1.353707,1.980566,3.832675,0.000000,0.000000,0.000000,0.000000,0.000000,0.000000
6110.736000,0.840000,1,START a_bow,Note,62,D4,A,down,0.158958,0.324289,0.481684,0.151005,-1.635964,-2.061322,1.039884,1.076941,-2.327296,-1.753764,-1.353655,1.980622,3.832763,0.000000,0.000000,0.000000,0.000000,0.000000,0.000000
6110.744000,0.848000,1,START a_bow,Note,62,D4,A,down,0.150958,0.324271,0.481723,0.150989,-1.635972,-2.061326,1.039874,1.076998,-2.327354,-1.753709,-1.353624,1.980655,3.832816,0.000000,0.000000,0.000000,0.000000,0.000000,0.000000
6110.752000,0.856000,1,START a_bow,Note,62,D4,A,down,0.142958,0.324265,0.481736,0.150984,-1.635975,-2.061328,1.039870,1.077016,-2.327373,-1.753691,-1.353614,1.980666,3.832833,0.000000,0.000000,0.000000,0.000000,0.000000,0.000000
6110.760000,0.864000,2,END a_bow,Note,62,D4,A,down,0.134958,0.324265,0.481736,0.150984,-1.635975,-2.061328,1.039870,1.077016,-2.327373,-1.753691,-1.353614,1.980666,3.832833,0.000000,0.000000,0.000000,0.000000,0.000000,0.000000
6110.768000,0.872000,2,END a_bow,Note,62,D4,A,down,0.126958,0.324265,0.481736,0.150984,-1.635975,-2.061328,1.039870,1.077016,-2.327373,-1.753691,-1.353614,1.980666,3.832833,0.000000,0.000000,0.000000,0.000000,0.000000,0.000000
6110.776000,0.880000,2,END a_bow,Note,62,D4,A,down,0.118958,0.324265,0.481736,0.150984,-1.635975,-2.061328,1.039870,1.077016,-2.327373,-1.753691,-1.353614,1.980666,3.832833,0.000000,0.000000,0.000000,0.000000,0.000000,0.000000
6110.784000,0.888000,1,START a_bow,Note,57,A3,A,up,0.610958,0.324268,0.481731,0.150986,-1.635974,-2.061327,1.039872,1.077009,-2.327366,-1.753698,-1.353618,1.980662,3.832826,0.000000,0.000000,0.000000,0.000000,0.000000,0.000000
6110.792000,0.896000,1,START a_bow,Note,57,A3,A,up,0.602958,0.324281,0.481702,0.150998,-1.635968,-2.061324,1.039879,1.076967,-2.327322,-1.753739,-1.353641,1.980637,3.832787,0.000000,0.000000,0.000000,0.000000,0.000000,0.000000
6110.800000,0.904000,1,START a_bow,Note,57,A3,A,up,0.594958,0.324306,0.481647,0.151021,-1.635956,-2.061317,1.039894,1.076887,-2.327240,-1.753817,-1.353686,1.980590,3.832712,0.000000,0.000000,0.000000,0.000000,0.000000,0.000000
6110.808000,0.912000,1,START a_bow,Note,57,A3,A,up,0.586958,0.324343,0.481565,0.151054,-1.635938,-2.061308,1.039915,1.076770,-2.327120,-1.753932,-1.353751,1.980520,3.832602,0.000000,0.000000,0.000000,0.000000,0.000000,0.000000
6110.816000,0.920000,1,START a_bow,Note,57,A3,A,up,0.578958,0.324392,0.481457,0.151099,-1.635914,-2.061295,1.039943,1.076615,-2.326961,-1.754083,-1.353837,1.980429,3.832456,0.000000,0.000000,0.000000,0.000000,0.000000,0.000000
6110.824000,0.928000,1,START a_bow,Note,57,A3,A,up,0.570958,0.324452,0.481324,0.151154,-1.635885,-2.061279,1.039978,1.076422,-2.326763,-1.754270,-1.353943,1.980315,3.832275,0.000000,0.000000,0.000000,0.000000,0.000000,0.000000
6110.832000,0.936000,1,START a_bow,Note,57,A3,A,up,0.562958,0.324525,0.481164,0.151219,-1.635850,-2.061261,1.040020,1.076192,-2.326527,-1.754494,-1.354071,1.980179,3.832059,0.000000,0.000000,0.000000,0.000000,0.000000,0.000000
6110.840000,0.944000,1,START a_bow,Note,57,A3,A,up,0.554958,0.324609,0.480978,0.151296,-1.635810,-2.061239,1.040068,1.075924,-2.326252,-1.754754,-1.354220,1.980020,3.831808,0.000000,0.000000,0.000000,0.000000,0.000000,0.000000
6110.848000,0.952000,1,START a_bow,Note,57,A3,A,up,0.546958,0.324705,0.480766,0.151383,-1.635763,-2.061214,1.040123,1.075618,-2.325939,-1.755051,-1.354390,1.979839,3.831521,0.000000,0.000000,0.000000,0.000000,0.000000,0.000000
6110.856000,0.960000,1,START a_bow,Note,57,A3,A,up,0.538958,0.324813,0.480528,0.151481,-1.635712,-2.061186,1.040185,1.075275,-2.325588,-1.755383,-1.354581,1.979636,3.831199,0.000000,0.000000,0.000000,0.000000,0.000000,0.000000
6110.864000,0.968000,1,START a_bow,Note,57,A3,A,up,0.530958,0.324933,0.480264,0.151590,-1.635654,-2.061155,1.040254,1.074893,-2.325198,-1.755752,-1.354794,1.979410,3.830842,0.000000,0.000000,0.000000,0.000000,0.000000,0.000000
6110.872000,0.976000,1,START a_bow,Note,57,A3,A,up,0.522958,0.325065,0.479973,0.151710,-1.635591,-2.061121,1.040330,1.074474,-2.324770,-1.756156,-1.355027,1.979161,3.830449,0.000000,0.000000,0.000000,0.000000,0.000000,0.000000
6110.880000,0.984000,1,START a_bow,Note,57,A3,A,up,0.514958,0.325208,0.479657,0.151840,-1.635522,-2.061084,1.040412,1.074017,-2.324303,-1.756596,-1.355283,1.978890,3.830021,0.000000,0.000000,0.000000,0.000000,0.000000,0.000000
6110.888000,0.992000,1,START a_bow,Note,57,A3,A,up,0.506958,0.325363,0.479314,0.151981,-1.635447,-2.061043,1.040502,1.073522,-2.323798,-1.757072,-1.355559,1.978597,3.829557,0.000000,0.000000,0.000000,0.000000,0.000000,0.000000
6110.896000,1.000000,1,START a_bow,Note,57,A3,A,up,0.498958,0.325530,0.478946,0.152133,-1.635367,-2.061000,1.040598,1.072989,-2.323255,-1.757583,-1.355858,1.978280,3.829058,0.000000,0.000000,0.000000,0.000000,0.000000,0.000000
6110.904000,1.008000,1,START a_bow,Note,57,A3,A,up,0.490958,0.325709,0.478551,0.152295,-1.635280,-2.060954,1.040701,1.072417,-2.322674,-1.758129,-1.356178,1.977941,3.828524,0.000000,0.000000,0.000000,0.000000,0.000000,0.000000
6110.912000,1.016000,1,START a_bow,Note,57,A3,A,up,0.482958,0.325900,0.478130,0.152468,-1.635189,-2.060904,1.040810,1.071808,-2.322055,-1.758710,-1.356521,1.977579,3.827954,0.000000,0.000000,0.000000,0.000000,0.000000,0.000000
6110.920000,1.024000,1,START a_bow,Note,57,A3,A,up,0.474958,0.326102,0.477684,0.152652,-1.635091,-2.060852,1.040927,1.071160,-2.321398,-1.759325,-1.356885,1.977193,3.827349,0.000000,0.000000,0.000000,0.000000,0.000000,0.000000
6110.928000,1.032000,1,START a_bow,Note,57,A3,A,up,0.466958,0.326317,0.477211,0.152847,-1.634988,-2.060796,1.041050,1.070473,-2.320703,-1.759975,-1.357272,1.976785,3.826708,0.000000,0.000000,0.000000,0.000000,0.000000,0.000000
6110.936000,1.040000,1,START a_bow,Note,57,A3,A,up,0.458958,0.326543,0.476712,0.153052,-1.634879,-2.060738,1.041180,1.069748,-2.319970,-1.760659,-1.357681,1.976353,3.826031,0.000000,0.000000,0.000000,0.000000,0.000000,0.000000
6110.944000,1.048000,1,START a_bow,Note,57,A3,A,up,0.450958,0.326781,0.476186,0.153269,-1.634765,-2.060676,1.041317,1.068985,-2.319199,-1.761376,-1.358113,1.975898,3.825319,0.000000,0.000000,0.000000,0.000000,0.000000,0.000000
6110.952000,1.056000,1,START a_bow,Note,57,A3,A,up,0.442958,0.327031,0.475635,0.153496,-1.634644,-2.060611,1.041461,1.068182,-2.318391,-1.762128,-1.358568,1.975420,3.824571,0.000000,0.000000,0.000000,0.000000,0.000000,0.000000
6110.960000,1.064000,1,START a_bow,Note,57,A3,A,up,0.434958,0.327293,0.475058,0.153733,-1.634519,-2.060543,1.041611,1.067341,-2.317545,-1.762912,-1.359045,1.974917,3.823788,0.000000,0.000000,0.000000,0.000000,0.000000,0.000000
6110.968000,1.072000,1,START a_bow,Note,57,A3,A,up,0.426958,0.327566,0.474454,0.153982,-1.634387,-2.060472,1.041768,1.066461,-2.316661,-1.763730,-1.359546,1.974392,3.822969,0.000000,0.000000,0.000000,0.000000,0.000000,0.000000
6110.976000,1.080000,1,START a_bow,Note,57,A3,A,up,0.418958,0.327851,0.473825,0.154241,-1.634250,-2.060398,1.041932,1.065541,-2.315740,-1.764580,-1.360071,1.973842,3.822114,0.000000,0.000000,0.000000,0.000000,0.000000,0.000000
6110.984000,1.088000,1,START a_bow,Note,57,A3,A,up,0.410958,0.328149,0.473169,0.154511,-1.634107,-2.060321,1.042103,1.064583,-2.314782,-1.765462,-1.360619,1.973268,3.821223,0.000000,0.000000,0.000000,0.000000,0.000000,0.000000
6110.992000,1.096000,1,START a_bow,Note,57,A3,A,up,0.402958,0.328458,0.472488,0.154791,-1.633958,-2.060241,1.042281,1.063585,-2.313786,-1.766376,-1.361191,1.972670,3.820296,0.000000,0.000000,0.000000,0.000000,0.000000,0.000000
6111.000000,1.104000,1,START a_bow,Note,57,A3,A,up,0.394958,0.328778,0.471780,0.155083,-1.633803,-2.060158,1.042465,1.062547,-2.312754,-1.767321,-1.361787,1.972048,3.819334,0.000000,0.000000,0.000000,0.000000,0.000000,0.000000
6111.008000,1.112000,1,START a_bow,Note,57,A3,A,up,0.386958,0.329111,0.471046,0.155385,-1.633643,-2.060071,1.042656,1.061469,-2.311684,-1.768298,-1.362408,1.971401,3.818335,0.000000,0.000000,0.000000,0.000000,0.000000,0.000000
6111.016000,1.120000,1,START a_bow,Note,57,A3,A,up,0.378958,0.329456,0.470286,0.155698,-1.633477,-2.059982,1.042854,1.060352,-2.310578,-1.769305,-1.363053,1.970729,3.817301,0.000000,0.000000,0.000000,0.000000,0.000000,0.000000
6111.024000,1.128000,1,START a_bow,Note,57,A3,A,up,0.370958,0.329812,0.469500,0.156021,-1.633306,-2.059890,1.043059,1.059195,-2.309435,-1.770343,-1.363724,1.970033,3.816230,0.000000,0.000000,0.000000,0.000000,0.000000,0.000000
6111.032000,1.136000,1,START a_bow,Note,57,A3,A,up,0.362958,0.330178,0.468693,0.156354,-1.633130,-2.059795,1.043269,1.058005,-2.308262,-1.771403,-1.364415,1.969316,3.815131,0.000000,0.000000,0.000000,0.000000,0.000000,0.000000
6111.040000,1.144000,1,START a_bow,Note,57,A3,A,up,0.354958,0.330535,0.467903,0.156679,-1.632958,-2.059702,1.043474,1.056839,-2.307117,-1.772436,-1.365094,1.968613,3.814055,0.000000,0.000000,0.000000,0.000000,0.000000,0.000000
6111.048000,1.152000,1,START a_bow,Note,57,A3,A,up,0.346958,0.330881,0.467140,0.156993,-1.632791,-2.059612,1.043673,1.055710,-2.306011,-1.773430,-1.365753,1.967932,3.813014,0.000000,0.000000,0.000000,0.000000,0.000000,0.000000
6111.056000,1.160000,1,START a_bow,Note,57,A3,A,up,0.338958,0.331216,0.466403,0.157296,-1.632630,-2.059525,1.043865,1.054618,-2.304944,-1.774387,-1.366392,1.967272,3.812008,0.000000,0.000000,0.000000,0.000000,0.000000,0.000000
6111.064000,1.168000,1,START a_bow,Note,57,A3,A,up,0.330958,0.331538,0.465692,0.157589,-1.632475,-2.059441,1.044050,1.053564,-2.303915,-1.775305,-1.367011,1.966634,3.811037,0.000000,0.000000,0.000000,0.000000,0.000000,0.000000
6111.072000,1.176000,1,START a_bow,Note,57,A3,A,up,0.322958,0.331848,0.465007,0.157871,-1.632325,-2.059361,1.044228,1.052547,-2.302926,-1.776187,-1.367609,1.966018,3.810102,0.000000,0.000000,0.000000,0.000000,0.000000,0.000000
6111.080000,1.184000,1,START a_bow,Note,57,A3,A,up,0.314958,0.332147,0.464348,0.158142,-1.632182,-2.059283,1.044400,1.051567,-2.301975,-1.777032,-1.368186,1.965424,3.809202,0.000000,0.000000,0.000000,0.000000,0.000000,0.000000
6111.088000,1.192000,1,START a_bow,Note,57,A3,A,up,0.306958,0.332434,0.463715,0.158403,-1.632044,-2.059208,1.044564,1.050625,-2.301062,-1.777840,-1.368743,1.964852,3.808337,0.000000,0.000000,0.000000,0.000000,0.000000,0.000000
6111.096000,1.200000,1,START a_bow,Note,57,A3,A,up,0.298958,0.332709,0.463109,0.158653,-1.631911,-2.059137,1.044722,1.049721,-2.300188,-1.778613,-1.369278,1.964303,3.807508,0.000000,0.000000,0.000000,0.000000,0.000000,0.000000
6111.104000,1.208000,1,START a_bow,Note,57,A3,A,up,0.290958,0.332972,0.462528,0.158892,-1.631784,-2.059068,1.044873,1.048855,-2.299353,-1.779350,-1.369792,1.963776,3.806714,0.000000,0.000000,0.000000,0.000000,0.000000,0.000000
6111.112000,1.216000,1,START a_bow,Note,57,A3,A,up,0.282958,0.333223,0.461974,0.159120,-1.631663,-2.059003,1.045018,1.048027,-2.298555,-1.780051,-1.370284,1.963273,3.805955,0.000000,0.000000,0.000000,0.000000,0.000000,0.000000
6111.120000,1.224000,1,START a_bow,Note,57,A3,A,up,0.274958,0.333463,0.461445,0.159338,-1.631548,-2.058941,1.045155,1.047237,-2.297796,-1.780717,-1.370754,1.962792,3.805232,0.000000,0.000000,0.000000,0.000000,0.000000,0.000000
6111.128000,1.232000,1,START a_bow,Note,57,A3,A,up,0.266958,0.333691,0.460943,0.159544,-1.631438,-2.058882,1.045286,1.046485,-2.297074,-1.781349,-1.371202,1.962334,3.804544,0.000000,0.000000,0.000000,0.000000,0.000000,0.000000
6111.136000,1.240000,1,START a_bow,Note,57,A3,A,up,0.258958,0.333906,0.460467,0.159740,-1.631334,-2.058825,1.045410,1.045772,-2.296391,-1.781946,-1.371628,1.961899,3.803892,0.000000,0.000000,0.000000,0.000000,0.000000,0.000000
6111.144000,1.248000,1,START a_bow,Note,57,A3,A,up,0.250958,0.334110,0.460016,0.159926,-1.631236,-2.058772,1.045527,1.045097,-2.295746,-1.782509,-1.372031,1.961487,3.803276,0.000000,0.000000,0.000000,0.000000,0.000000,0.000000
6111.152000,1.256000,1,START a_bow,Note,57,A3,A,up,0.242958,0.334303,0.459592,0.160100,-1.631144,-2.058722,1.045637,1.044461,-2.295138,-1.783038,-1.372412,1.961099,3.802695,0.000000,0.000000,0.000000,0.000000,0.000000,0.000000
6111.160000,1.264000,1,START a_bow,Note,57,A3,A,up,0.234958,0.334483,0.459195,0.160264,-1.631057,-2.058675,1.045740,1.043863,-2.294568,-1.783533,-1.372770,1.960734,3.802150,0.000000,0.000000,0.000000,0.000000,0.000000,0.000000
6111.168000,1.272000,1,START a_bow,Note,57,A3,A,up,0.226958,0.334652,0.458823,0.160417,-1.630975,-2.058632,1.045837,1.043304,-2.294036,-1.783995,-1.373105,1.960392,3.801640,0.000000,0.000000,0.000000,0.000000,0.000000,0.000000
6111.176000,1.280000,1,START a_bow,Note,57,A3,A,up,0.218958,0.334808,0.458477,0.160560,-1.630900,-2.058591,1.045927,1.042785,-2.293541,-1.784423,-1.373418,1.960075,3.801166,0.000000,0.000000,0.000000,0.000000,0.000000,0.000000
6111.184000,1.288000,1,START a_bow,Note,57,A3,A,up,0.210958,0.334953,0.458157,0.160691,-1.630830,-2.058553,1.046010,1.042304,-2.293084,-1.784818,-1.373707,1.959780,3.800728,0.000000,0.000000,0.000000,0.000000,0.000000,0.000000
6111.192000,1.296000,1,START a_bow,Note,57,A3,A,up,0.202958,0.335086,0.457864,0.160812,-1.630766,-2.058518,1.046086,1.041862,-2.292665,-1.785181,-1.373973,1.959510,3.800325,0.000000,0.000000,0.000000,0.000000,0.000000,0.000000
6111.200000,1.304000,1,START a_bow,Note,57,A3,A,up,0.194958,0.335207,0.457596,0.160922,-1.630708,-2.058487,1.046156,1.041459,-2.292283,-1.785510,-1.374216,1.959263,3.799958,0.000000,0.000000,0.000000,0.000000,0.000000,0.000000
6111.208000,1.312000,1,START a_bow,Note,57,A3,A,up,0.186958,0.335317,0.457355,0.161022,-1.630655,-2.058458,1.046219,1.041095,-2.291938,-1.785807,-1.374435,1.959041,3.799627,0.000000,0.000000,0.000000,0.000000,0.000000,0.000000
6111.216000,1.320000,1,START a_bow,Note,57,A3,A,up,0.178958,0.335414,0.457140,0.161110,-1.630608,-2.058433,1.046275,1.040771,-2.291631,-1.786072,-1.374631,1.958842,3.799332,0.000000,0.000000,0.000000,0.000000,0.000000,0.000000
6111.224000,1.328000,1,START a_bow,Note,57,A3,A,up,0.170958,0.335500,0.456950,0.161188,-1.630567,-2.058411,1.046324,1.040485,-2.291361,-1.786304,-1.374803,1.958667,3.799072,0.000000,0.000000,0.000000,0.000000,0.000000,0.000000
6111.232000,1.336000,1,START a_bow,Note,57,A3,A,up,0.162958,0.335574,0.456787,0.161255,-1.630531,-2.058391,1.046366,1.040239,-2.291128,-1.786504,-1.374952,1.958516,3.798848,0.000000,0.000000,0.000000,0.000000,0.000000,0.000000
6111.240000,1.344000,1,START a_bow,Note,57,A3,A,up,0.154958,0.335636,0.456650,0.161312,-1.630501,-2.058375,1.046402,1.040033,-2.290933,-1.786672,-1.375077,1.958389,3.798660,0.000000,0.000000,0.000000,0.000000,0.000000,0.000000
6111.248000,1.352000,1,START a_bow,Note,57,A3,A,up,0.146958,0.335686,0.456539,0.161357,-1.630477,-2.058362,1.046431,1.039865,-2.290775,-1.786808,-1.375178,1.958287,3.798508,0.000000,0.000000,0.000000,0.000000,0.000000,0.000000
6111.256000,1.360000,1,START a_bow,Note,57,A3,A,up,0.138958,0.335725,0.456455,0.161392,-1.630458,-2.058352,1.046453,1.039737,-2.290654,-1.786912,-1.375255,1.958208,3.798392,0.000000,0.000000,0.000000,0.000000,0.000000,0.000000
6111.264000,1.368000,1,START a_bow,Note,57,A3,A,up,0.130958,0.335752,0.456396,0.161416,-1.630446,-2.058345,1.046468,1.039649,-2.290570,-1.786983,-1.375309,1.958154,3.798311,0.000000,0.000000,0.000000,0.000000,0.000000,0.000000
6111.272000,1.376000,1,START a_bow,Note,57,A3,A,up,0.122958,0.335766,0.456363,0.161430,-1.630439,-2.058341,1.046476,1.039599,-2.290523,-1.787023,-1.375339,1.958124,3.798266,0.000000,0.000000,0.000000,0.000000,0.000000,0.000000
6111.280000,1.384000,2,END a_bow,Note,57,A3,A,up,0.114958,0.335770,0.456356,0.161433,-1.630437,-2.058341,1.046478,1.039588,-2.290513,-1.787032,-1.375345,1.958117,3.798256,0.000000,0.000000,0.000000,0.000000,0.000000,0.000000
6111.288000,1.392000,2,END a_bow,Note,57,A3,A,up,0.106958,0.335770,0.456356,0.161433,-1.630437,-2.058341,1.046478,1.039588,-2.290513,-1.787032,-1.375345,1.958117,3.798256,0.000000,0.000000,0.000000,0.000000,0.000000,0.000000
6111.296000,1.400000,2,END a_bow,Note,57,A3,A,up,0.098958,0.335770,0.456356,0.161433,-1.630437,-2.058341,1.046478,1.039588,-2.290513,-1.787032,-1.375345,1.958117,3.798256,0.000000,0.000000,0.000000,0.000000,0.000000,0.000000
6111.304000,1.408000,2,END a_bow,Note,57,A3,A,up,0.090958,0.335770,0.456356,0.161433,-1.630437,-2.058341,1.046478,1.039588,-2.290513,-1.787032,-1.375345,1.958117,3.798256,0.000000,0.000000,0.000000,0.000000,0.000000,0.000000
6111.312000,1.416000,1,START a_bow,Note,57,A3,A,down,0.582958,0.335765,0.456366,0.161429,-1.630439,-2.058342,1.046476,1.039603,-2.290527,-1.787020,-1.375336,1.958126,3.798270,0.000000,0.000000,0.000000,0.000000,0.000000,0.000000
6111.320000,1.424000,1,START a_bow,Note,57,A3,A,down,0.574958,0.335749,0.456402,0.161414,-1.630447,-2.058346,1.046466,1.039658,-2.290578,-1.786976,-1.375303,1.958159,3.798319,0.000000,0.000000,0.000000,0.000000,0.000000,0.000000
6111.328000,1.432000,1,START a_bow,Note,57,A3,A,down,0.566958,0.335721,0.456464,0.161388,-1.630460,-2.058353,1.046450,1.039751,-2.290667,-1.786900,-1.375247,1.958217,3.798404,0.000000,0.000000,0.000000,0.000000,0.000000,0.000000
6111.336000,1.440000,1,START a_bow,Note,57,A3,A,down,0.558958,0.335681,0.456552,0.161352,-1.630480,-2.058364,1.046427,1.039884,-2.290792,-1.786793,-1.375166,1.958298,3.798525,0.000000,0.000000,0.000000,0.000000,0.000000,0.000000
6111.344000,1.448000,1,START a_bow,Note,57,A3,A,down,0.550958,0.335629,0.456666,0.161305,-1.630505,-2.058377,1.046398,1.040056,-2.290955,-1.786653,-1.375062,1.958404,3.798682,0.000000,0.000000,0.000000,0.000000,0.000000,0.000000
6111.352000,1.456000,1,START a_bow,Note,57,A3,A,down,0.542958,0.335566,0.456806,0.161247,-1.630535,-2.058394,1.046361,1.040268,-2.291155,-1.786481,-1.374934,1.958534,3.798874,0.000000,0.000000,0.000000,0.000000,0.000000,0.000000
6111.360000,1.464000,1,START a_bow,Note,57,A3,A,down,0.534958,0.335490,0.456973,0.161179,-1.630572,-2.058413,1.046318,1.040519,-2.291393,-1.786277,-1.374783,1.958687,3.799103,0.000000,0.000000,0.000000,0.000000,0.000000,0.000000
6111.368000,1.472000,1,START a_bow,Note,57,A3,A,down,0.526958,0.335403,0.457165,0.161100,-1.630614,-2.058436,1.046268,1.040809,-2.291667,-1.786041,-1.374608,1.958865,3.799367,0.000000,0.000000,0.000000,0.000000,0.000000,0.000000
6111.376000,1.480000,1,START a_bow,Note,57,A3,A,down,0.518958,0.335304,0.457384,0.161010,-1.630661,-2.058462,1.046211,1.041139,-2.291979,-1.785772,-1.374409,1.959067,3.799666,0.000000,0.000000,0.000000,0.000000,0.000000,0.000000
6111.384000,1.488000,1,START a_bow,Note,57,A3,A,down,0.510958,0.335193,0.457628,0.160909,-1.630715,-2.058491,1.046148,1.041507,-2.292328,-1.785471,-1.374187,1.959293,3.800002,0.000000,0.000000,0.000000,0.000000,0.000000,0.000000
6111.392000,1.496000,1,START a_bow,Note,57,A3,A,down,0.502958,0.335070,0.457899,0.160798,-1.630774,-2.058523,1.046077,1.041915,-2.292715,-1.785137,-1.373941,1.959542,3.800373,0.000000,0.000000,0.000000,0.000000,0.000000,0.000000
6111.400000,1.504000,1,START a_bow,Note,57,A3,A,down,0.494958,0.334936,0.458196,0.160675,-1.630839,-2.058558,1.046000,1.042362,-2.293139,-1.784771,-1.373672,1.959816,3.800780,0.000000,0.000000,0.000000,0.000000,0.000000,0.000000
6111.408000,1.512000,1,START a_bow,Note,57,A3,A,down,0.486958,0.334789,0.458519,0.160542,-1.630909,-2.058596,1.045916,1.042847,-2.293601,-1.784371,-1.373380,1.960113,3.801223,0.000000,0.000000,0.000000,0.000000,0.000000,0.000000
6111.416000,1.520000,1,START a_bow,Note,57,A3,A,down,0.478958,0.334631,0.458868,0.160399,-1.630985,-2.058637,1.045825,1.043372,-2.294100,-1.783939,-1.373065,1.960434,3.801702,0.000000,0.000000,0.000000,0.000000,0.000000,0.000000
6111.424000,1.528000,1,START a_bow,Note,57,A3,A,down,0.470958,0.334461,0.459243,0.160244,-1.631067,-2.058681,1.045728,1.043936,-2.294637,-1.783473,-1.372727,1.960778,3.802216,0.000000,0.000000,0.000000,0.000000,0.000000,0.000000
6111.432000,1.536000,1,START a_bow,Note,57,A3,A,down,0.462958,0.334279,0.459644,0.160079,-1.631155,-2.058728,1.045623,1.044538,-2.295212,-1.782974,-1.372366,1.961146,3.802766,0.000000,0.000000,0.000000,0.000000,0.000000,0.000000
6111.440000,1.544000,1,START a_bow,Note,57,A3,A,down,0.454958,0.334086,0.460071,0.159903,-1.631248,-2.058779,1.045512,1.045179,-2.295824,-1.782440,-1.371982,1.961537,3.803351,0.000000,0.000000,0.000000,0.000000,0.000000,0.000000
6111.448000,1.552000,1,START a_bow,Note,57,A3,A,down,0.446958,0.333880,0.460525,0.159717,-1.631347,-2.058832,1.045394,1.045859,-2.296474,-1.781873,-1.371576,1.961952,3.803972,0.000000,0.000000,0.000000,0.000000,0.000000,0.000000
6111.456000,1.560000,1,START a_bow,Note,57,A3,A,down,0.438958,0.333663,0.461004,0.159519,-1.631452,-2.058889,1.045270,1.046577,-2.297163,-1.781272,-1.371147,1.962390,3.804628,0.000000,0.000000,0.000000,0.000000,0.000000,0.000000
6111.464000,1.568000,1,START a_bow,Note,57,A3,A,down,0.430958,0.333434,0.461510,0.159311,-1.631562,-2.058948,1.045138,1.047333,-2.297889,-1.780636,-1.370696,1.962851,3.805321,0.000000,0.000000,0.000000,0.000000,0.000000,0.000000
6111.472000,1.576000,1,START a_bow,Note,57,A3,A,down,0.422958,0.333193,0.462041,0.159092,-1.631678,-2.059011,1.045000,1.048128,-2.298653,-1.779965,-1.370223,1.963334,3.806048,0.000000,0.000000,0.000000,0.000000,0.000000,0.000000
6111.480000,1.584000,1,START a_bow,Note,57,A3,A,down,0.414958,0.332940,0.462599,0.158862,-1.631800,-2.059077,1.044855,1.048961,-2.299455,-1.779259,-1.369729,1.963841,3.806811,0.000000,0.000000,0.000000,0.000000,0.000000,0.000000
6111.488000,1.592000,1,START a_bow,Note,57,A3,A,down,0.406958,0.332675,0.463183,0.158622,-1.631927,-2.059146,1.044703,1.049832,-2.300295,-1.778518,-1.369212,1.964370,3.807610,0.000000,0.000000,0.000000,0.000000,0.000000,0.000000
6111.496000,1.600000,1,START a_bow,Note,57,A3,A,down,0.398958,0.332399,0.463793,0.158371,-1.632060,-2.059217,1.044544,1.050741,-2.301174,-1.777741,-1.368674,1.964922,3.808443,0.000000,0.000000,0.000000,0.000000,0.000000,0.000000
6111.504000,1.608000,1,START a_bow,Note,57,A3,A,down,0.390958,0.332110,0.464429,0.158109,-1.632199,-2.059292,1.044379,1.051688,-2.302092,-1.776928,-1.368115,1.965497,3.809313,0.000000,0.000000,0.000000,0.000000,0.000000,0.000000
6111.512000,1.616000,1,START a_bow,Note,57,A3,A,down,0.382958,0.331810,0.465091,0.157837,-1.632344,-2.059370,1.044206,1.052672,-2.303047,-1.776079,-1.367535,1.966093,3.810217,0.000000,0.000000,0.000000,0.000000,0.000000,0.000000
6111.520000,1.624000,1,START a_bow,Note,57,A3,A,down,0.374958,0.331498,0.465779,0.157553,-1.632494,-2.059451,1.044027,1.053694,-2.304042,-1.775193,-1.366934,1.966712,3.811157,0.000000,0.000000,0.000000,0.000000,0.000000,0.000000
6111.528000,1.632000,1,START a_bow,Note,57,A3,A,down,0.366958,0.331174,0.466494,0.157259,-1.632650,-2.059536,1.043841,1.054753,-2.305075,-1.774269,-1.366313,1.967353,3.812132,0.000000,0.000000,0.000000,0.000000,0.000000,0.000000
6111.536000,1.640000,1,START a_bow,Note,57,A3,A,down,0.358958,0.330839,0.467234,0.156954,-1.632811,-2.059623,1.043649,1.055849,-2.306147,-1.773308,-1.365672,1.968015,3.813142,0.000000,0.000000,0.000000,0.000000,0.000000,0.000000
6111.544000,1.648000,1,START a_bow,Note,57,A3,A,down,0.350958,0.330491,0.468001,0.156639,-1.632979,-2.059713,1.043449,1.056983,-2.307258,-1.772309,-1.365010,1.968700,3.814187,0.000000,0.000000,0.000000,0.000000,0.000000,0.000000
6111.552000,1.656000,1,START a_bow,Note,57,A3,A,down,0.342958,0.330132,0.468793,0.156312,-1.633152,-2.059806,1.043243,1.058153,-2.308408,-1.771271,-1.364329,1.969405,3.815268,0.000000,0.000000,0.000000,0.000000,0.000000,0.000000
6111.560000,1.664000,1,START a_bow,Note,57,A3,A,down,0.334958,0.329767,0.469600,0.155980,-1.633328,-2.059901,1.043033,1.059342,-2.309580,-1.770211,-1.363639,1.970121,3.816366,0.000000,0.000000,0.000000,0.000000,0.000000,0.000000
6111.568000,1.672000,1,START a_bow,Note,57,A3,A,down,0.326958,0.329412,0.470382,0.155658,-1.633498,-2.059993,1.042829,1.060494,-2.310718,-1.769178,-1.362971,1.970815,3.817432,0.000000,0.000000,0.000000,0.000000,0.000000,0.000000
6111.576000,1.680000,1,START a_bow,Note,57,A3,A,down,0.318958,0.329069,0.471139,0.155347,-1.633664,-2.060082,1.042632,1.061606,-2.311820,-1.768174,-1.362329,1.971483,3.818462,0.000000,0.000000,0.000000,0.000000,0.000000,0.000000
6111.584000,1.688000,1,START a_bow,Note,57,A3,A,down,0.310958,0.328738,0.471870,0.155046,-1.633823,-2.060168,1.042442,1.062679,-2.312885,-1.767201,-1.361712,1.972127,3.819456,0.000000,0.000000,0.000000,0.000000,0.000000,0.000000
6111.592000,1.696000,1,START a_bow,Note,57,A3,A,down,0.302958,0.328418,0.472574,0.154756,-1.633977,-2.060251,1.042258,1.063712,-2.313913,-1.766260,-1.361118,1.972746,3.820414,0.000000,0.000000,0.000000,0.000000,0.000000,0.000000
6111.600000,1.704000,1,START a_bow,Note,57,A3,A,down,0.294958,0.328111,0.473253,0.154476,-1.634125,-2.060331,1.042081,1.064705,-2.314904,-1.765350,-1.360549,1.973341,3.821336,0.000000,0.000000,0.000000,0.000000,0.000000,0.000000
6111.608000,1.712000,1,START a_bow,Note,57,A3,A,down,0.286958,0.327815,0.473905,0.154208,-1.634267,-2.060408,1.041912,1.065658,-2.315857,-1.764472,-1.360004,1.973912,3.822222,0.000000,0.000000,0.000000,0.000000,0.000000,0.000000
6111.616000,1.720000,1,START a_bow,Note,57,A3,A,down,0.278958,0.327531,0.474531,0.153950,-1.634404,-2.060481,1.041748,1.066573,-2.316774,-1.763626,-1.359482,1.974459,3.823073,0.000000,0.000000,0.000000,0.000000,0.000000,0.000000
6111.624000,1.728000,1,START a_bow,Note,57,A3,A,down,0.270958,0.327259,0.475131,0.153703,-1.634535,-2.060552,1.041592,1.067448,-2.317653,-1.762812,-1.358984,1.974982,3.823888,0.000000,0.000000,0.000000,0.000000,0.000000,0.000000
6111.632000,1.736000,1,START a_bow,Note,57,A3,A,down,0.262958,0.326999,0.475706,0.153467,-1.634660,-2.060619,1.041442,1.068285,-2.318494,-1.762032,-1.358509,1.975481,3.824667,0.000000,0.000000,0.000000,0.000000,0.000000,0.000000
6111.640000,1.744000,1,START a_bow,Note,57,A3,A,down,0.254958,0.326751,0.476253,0.153241,-1.634779,-2.060684,1.041300,1.069082,-2.319298,-1.761285,-1.358058,1.975956,3.825410,0.000000,0.000000,0.000000,0.000000,0.000000,0.000000
6111.648000,1.752000,1,START a_bow,Note,57,A3,A,down,0.246958,0.326514,0.476775,0.153026,-1.634893,-2.060745,1.041164,1.069841,-2.320064,-1.760571,-1.357629,1.976408,3.826118,0.000000,0.000000,0.000000,0.000000,0.000000,0.000000
6111.656000,1.760000,1,START a_bow,Note,57,A3,A,down,0.238958,0.326289,0.477271,0.152822,-1.635001,-2.060803,1.041034,1.070561,-2.320792,-1.759892,-1.357222,1.976837,3.826790,0.000000,0.000000,0.000000,0.000000,0.000000,0.000000
6111.664000,1.768000,1,START a_bow,Note,57,A3,A,down,0.230958,0.326076,0.477741,0.152629,-1.635104,-2.060859,1.040912,1.071243,-2.321482,-1.759246,-1.356838,1.977243,3.827426,0.000000,0.000000,0.000000,0.000000,0.000000,0.000000
6111.672000,1.776000,1,START a_bow,Note,57,A3,A,down,0.222958,0.325875,0.478184,0.152446,-1.635200,-2.060911,1.040796,1.071886,-2.322135,-1.758635,-1.356477,1.977625,3.828027,0.000000,0.000000,0.000000,0.000000,0.000000,0.000000
6111.680000,1.784000,1,START a_bow,Note,57,A3,A,down,0.214958,0.325686,0.478602,0.152274,-1.635292,-2.060960,1.040688,1.072491,-2.322749,-1.758059,-1.356137,1.977984,3.828593,0.000000,0.000000,0.000000,0.000000,0.000000,0.000000
6111.688000,1.792000,1,START a_bow,Note,57,A3,A,down,0.206958,0.325509,0.478993,0.152113,-1.635377,-2.061006,1.040585,1.073057,-2.323325,-1.757517,-1.355819,1.978321,3.829123,0.000000,0.000000,0.000000,0.000000,0.000000,0.000000
6111.696000,1.800000,1,START a_bow,Note,57,A3,A,down,0.198958,0.325343,0.479359,0.151963,-1.635457,-2.061049,1.040490,1.073586,-2.323864,-1.757011,-1.355524,1.978635,3.829617,0.000000,0.000000,0.000000,0.000000,0.000000,0.000000
6111.704000,1.808000,1,START a_bow,Note,57,A3,A,down,0.190958,0.325189,0.479698,0.151823,-1.635531,-2.061088,1.040402,1.074076,-2.324364,-1.756539,-1.355250,1.978925,3.830076,0.000000,0.000000,0.000000,0.000000,0.000000,0.000000
6111.712000,1.816000,1,START a_bow,Note,57,A3,A,down,0.182958,0.325047,0.480011,0.151694,-1.635599,-2.061125,1.040320,1.074529,-2.324825,-1.756104,-1.354997,1.979194,3.830500,0.000000,0.000000,0.000000,0.000000,0.000000,0.000000
6111.720000,1.824000,1,START a_bow,Note,57,A3,A,down,0.174958,0.324917,0.480298,0.151576,-1.635661,-2.061159,1.040245,1.074943,-2.325249,-1.755704,-1.354766,1.979439,3.830888,0.000000,0.000000,0.000000,0.000000,0.000000,0.000000
6111.728000,1.832000,1,START a_bow,Note,57,A3,A,down,0.166958,0.324799,0.480559,0.151468,-1.635718,-2.061190,1.040177,1.075320,-2.325634,-1.755340,-1.354556,1.979662,3.831241,0.000000,0.000000,0.000000,0.000000,0.000000,0.000000
6111.736000,1.840000,1,START a_bow,Note,57,A3,A,down,0.158958,0.324693,0.480794,0.151372,-1.635770,-2.061217,1.040116,1.075658,-2.325980,-1.755012,-1.354368,1.979863,3.831559,0.000000,0.000000,0.000000,0.000000,0.000000,0.000000
6111.744000,1.848000,1,START a_bow,Note,57,A3,A,down,0.150958,0.324598,0.481003,0.151286,-1.635815,-2.061242,1.040062,1.075959,-2.326289,-1.754720,-1.354200,1.980041,3.831841,0.000000,0.000000,0.000000,0.000000,0.000000,0.000000
6111.752000,1.856000,1,START a_bow,Note,57,A3,A,down,0.142958,0.324515,0.481185,0.151211,-1.635855,-2.061263,1.040014,1.076223,-2.326559,-1.754464,-1.354054,1.980197,3.832088,0.000000,0.000000,0.000000,0.000000,0.000000,0.000000
6111.760000,1.864000,1,START a_bow,Note,57,A3,A,down,0.134958,0.324444,0.481342,0.151146,-1.635889,-2.061281,1.039973,1.076448,-2.326790,-1.754245,-1.353929,1.980330,3.832300,0.000000,0.000000,0.000000,0.000000,0.000000,0.000000
6111.768000,1.872000,1,START a_bow,Note,57,A3,A,down,0.126958,0.324385,0.481472,0.151092,-1.635918,-2.061297,1.039939,1.076636,-2.326983,-1.754062,-1.353825,1.980441,3.832476,0.000000,0.000000,0.000000,0.000000,0.000000,0.000000
6111.776000,1.880000,1,START a_bow,Note,57,A3,A,down,0.118958,0.324338,0.481577,0.151049,-1.635940,-2.061309,1.039912,1.076786,-2.327137,-1.753915,-1.353741,1.980530,3.832617,0.000000,0.000000,0.000000,0.000000,0.000000,0.000000
6111.784000,1.888000,1,START a_bow,Note,57,A3,A,down,0.110958,0.324302,0.481655,0.151017,-1.635957,-2.061318,1.039892,1.076899,-2.327253,-1.753805,-1.353679,1.980597,3.832723,0.000000,0.000000,0.000000,0.000000,0.000000,0.000000
6111.792000,1.896000,1,START a_bow,Note,57,A3,A,down,0.102958,0.324279,0.481707,0.150996,-1.635969,-2.061324,1.039878,1.076974,-2.327330,-1.753732,-1.353637,1.980641,3.832794,0.000000,0.000000,0.000000,0.000000,0.000000,0.000000
6111.800000,1.904000,1,START a_bow,Note,57,A3,A,down,0.094958,0.324267,0.481733,0.150985,-1.635974,-2.061327,1.039871,1.077012,-2.327368,-1.753695,-1.353616,1.980664,3.832829,0.000000,0.000000,0.000000,0.000000,0.000000,0.000000
6111.808000,1.912000,2,END a_bow,Note,57,A3,A,down,0.086958,0.324265,0.481736,0.150984,-1.635975,-2.061328,1.039870,1.077016,-2.327373,-1.753691,-1.353614,1.980666,3.832833,0.000000,0.000000,0.000000,0.000000,0.000000,0.000000
6111.816000,1.920000,2,END a_bow,Note,57,A3,A,down,0.078958,0.324265,0.481736,0.150984,-1.635975,-2.061328,1.039870,1.077016,-2.327373,-1.753691,-1.353614,1.980666,3.832833,0.000000,0.000000,0.000000,0.000000,0.000000,0.000000
6111.824000,1.928000,2,END a_bow,Note,57,A3,A,down,0.070958,0.324265,0.481736,0.150984,-1.635975,-2.061328,1.039870,1.077016,-2.327373,-1.753691,-1.353614,1.980666,3.832833,0.000000,0.000000,0.000000,0.000000,0.000000,0.000000
6111.832000,1.936000,1,START a_bow,Note,59,B3,A,up,0.312958,0.324265,0.481736,0.150984,-1.635975,-2.061328,1.039870,1.077016,-2.327373,-1.753691,-1.353614,1.980666,3.832833,0.000000,0.000000,0.000000,0.000000,0.000000,0.000000
6111.840000,1.944000,1,START a_bow,Note,59,B3,A,up,0.304958,0.324273,0.481720,0.150991,-1.635971,-2.061326,1.039875,1.076992,-2.327348,-1.753714,-1.353627,1.980652,3.832811,0.000000,0.000000,0.000000,0.000000,0.000000,0.000000
6111.848000,1.952000,1,START a_bow,Note,59,B3,A,up,0.296958,0.324292,0.481677,0.151008,-1.635962,-2.061321,1.039886,1.076930,-2.327285,-1.753775,-1.353662,1.980615,3.832752,0.000000,0.000000,0.000000,0.000000,0.000000,0.000000
6111.856000,1.960000,1,START a_bow,Note,59,B3,A,up,0.288958,0.324324,0.481607,0.151037,-1.635947,-2.061313,1.039904,1.076830,-2.327182,-1.753873,-1.353717,1.980556,3.832658,0.000000,0.000000,0.000000,0.000000,0.000000,0.000000
6111.864000,1.968000,1,START a_bow,Note,59,B3,A,up,0.280958,0.324368,0.481511,0.151077,-1.635926,-2.061301,1.039929,1.076691,-2.327039,-1.754008,-1.353794,1.980474,3.832528,0.000000,0.000000,0.000000,0.000000,0.000000,0.000000
6111.872000,1.976000,1,START a_bow,Note,59,B3,A,up,0.272958,0.324423,0.481388,0.151127,-1.635899,-2.061287,1.039961,1.076514,-2.326858,-1.754180,-1.353892,1.980370,3.832362,0.000000,0.000000,0.000000,0.000000,0.000000,0.000000
6111.880000,1.984000,1,START a_bow,Note,59,B3,A,up,0.264958,0.324491,0.481239,0.151189,-1.635866,-2.061269,1.040000,1.076299,-2.326637,-1.754389,-1.354011,1.980242,3.832160,0.000000,0.000000,0.000000,0.000000,0.000000,0.000000
6111.888000,1.992000,1,START a_bow,Note,59,B3,A,up,0.256958,0.324571,0.481063,0.151261,-1.635828,-2.061249,1.040046,1.076046,-2.326378,-1.754636,-1.354152,1.980092,3.831922,0.000000,0.000000,0.000000,0.000000,0.000000,0.000000
6111.896000,2.000000,1,START a_bow,Note,59,B3,A,up,0.248958,0.324662,0.480860,0.151344,-1.635784,-2.061225,1.040098,1.075754,-2.326079,-1.754919,-1.354314,1.979920,3.831649,0.000000,0.000000,0.000000,0.000000,0.000000,0.000000
6111.904000,2.008000,1,START a_bow,Note,59,B3,A,up,0.240958,0.324766,0.480631,0.151439,-1.635734,-2.061198,1.040158,1.075424,-2.325741,-1.755239,-1.354498,1.979724,3.831339,0.000000,0.000000,0.000000,0.000000,0.000000,0.000000
6111.912000,2.016000,1,START a_bow,Note,59,B3,A,up,0.232958,0.324882,0.480376,0.151544,-1.635678,-2.061168,1.040225,1.075055,-2.325364,-1.755595,-1.354703,1.979506,3.830994,0.000000,0.000000,0.000000,0.000000,0.000000,0.000000
6111.920000,2.024000,1,START a_bow,Note,59,B3,A,up,0.224958,0.325010,0.480094,0.151660,-1.635617,-2.061135,1.040298,1.074648,-2.324947,-1.755989,-1.354930,1.979265,3.830612,0.000000,0.000000,0.000000,0.000000,0.000000,0.000000
6111.928000,2.032000,1,START a_bow,Note,59,B3,A,up,0.216958,0.325150,0.479785,0.151787,-1.635549,-2.061098,1.040378,1.074202,-2.324492,-1.756418,-1.355179,1.979001,3.830195,0.000000,0.000000,0.000000,0.000000,0.000000,0.000000
6111.936000,2.040000,1,START a_bow,Note,59,B3,A,up,0.208958,0.325302,0.479450,0.151925,-1.635476,-2.061059,1.040466,1.073718,-2.323998,-1.756884,-1.355449,1.978714,3.829741,0.000000,0.000000,0.000000,0.000000,0.000000,0.000000
6111.944000,2.048000,1,START a_bow,Note,59,B3,A,up,0.200958,0.325466,0.479088,0.152074,-1.635397,-2.061016,1.040560,1.073195,-2.323465,-1.757385,-1.355742,1.978403,3.829251,0.000000,0.000000,0.000000,0.000000,0.000000,0.000000
6111.952000,2.056000,1,START a_bow,Note,59,B3,A,up,0.192958,0.325642,0.478700,0.152234,-1.635313,-2.060971,1.040661,1.072633,-2.322894,-1.757923,-1.356056,1.978070,3.828726,0.000000,0.000000,0.000000,0.000000,0.000000,0.000000
6111.960000,2.064000,1,START a_bow,Note,59,B3,A,up,0.184958,0.325826,0.478294,0.152401,-1.635224,-2.060923,1.040767,1.072045,-2.322296,-1.758484,-1.356387,1.977720,3.828175,0.000000,0.000000,0.000000,0.000000,0.000000,0.000000
6111.968000,2.072000,1,START a_bow,Note,59,B3,A,up,0.176958,0.326000,0.477909,0.152559,-1.635140,-2.060877,1.040867,1.071487,-2.321730,-1.759015,-1.356700,1.977389,3.827654,0.000000,0.000000,0.000000,0.000000,0.000000,0.000000
6111.976000,2.080000,1,START a_bow,Note,59,B3,A,up,0.168958,0.326163,0.477551,0.152707,-1.635062,-2.060835,1.040960,1.070967,-2.321203,-1.759508,-1.356993,1.977080,3.827168,0.000000,0.000000,0.000000,0.000000,0.000000,0.000000
6111.984000,2.088000,1,START a_bow,Note,59,B3,A,up,0.160958,0.326313,0.477219,0.152844,-1.634989,-2.060796,1.041047,1.070485,-2.320715,-1.759964,-1.357264,1.976793,3.826719,0.000000,0.000000,0.000000,0.000000,0.000000,0.000000
6111.992000,2.096000,1,START a_bow,Note,59,B3,A,up,0.152958,0.326451,0.476914,0.152969,-1.634923,-2.060760,1.041126,1.070042,-2.320267,-1.760382,-1.357514,1.976530,3.826305,0.000000,0.000000,0.000000,0.000000,0.000000,0.000000
6112.000000,2.104000,1,START a_bow,Note,59,B3,A,up,0.144958,0.326578,0.476635,0.153084,-1.634862,-2.060727,1.041199,1.069637,-2.319857,-1.760764,-1.357743,1.976288,3.825927,0.000000,0.000000,0.000000,0.000000,0.000000,0.000000
6112.008000,2.112000,1,START a_bow,Note,59,B3,A,up,0.136958,0.326692,0.476383,0.153188,-1.634807,-2.060698,1.041264,1.069270,-2.319487,-1.761109,-1.357950,1.976070,3.825585,0.000000,0.000000,0.000000,0.000000,0.000000,0.000000
6112.016000,2.120000,1,START a_bow,Note,59,B3,A,up,0.128958,0.326794,0.476157,0.153281,-1.634758,-2.060671,1.041323,1.068942,-2.319156,-1.761417,-1.358136,1.975874,3.825279,0.000000,0.000000,0.000000,0.000000,0.000000,0.000000
6112.024000,2.128000,1,START a_bow,Note,59,B3,A,up,0.120958,0.326885,0.475958,0.153363,-1.634714,-2.060648,1.041375,1.068652,-2.318864,-1.761688,-1.358300,1.975702,3.825009,0.000000,0.000000,0.000000,0.000000,0.000000,0.000000
6112.032000,2.136000,1,START a_bow,Note,59,B3,A,up,0.112958,0.326963,0.475785,0.153434,-1.634677,-2.060627,1.041420,1.068401,-2.318611,-1.761924,-1.358442,1.975552,3.824775,0.000000,0.000000,0.000000,0.000000,0.000000,0.000000
6112.040000,2.144000,1,START a_bow,Note,59,B3,A,up,0.104958,0.327029,0.475639,0.153494,-1.634645,-2.060610,1.041458,1.068189,-2.318397,-1.762122,-1.358563,1.975425,3.824577,0.000000,0.000000,0.000000,0.000000,0.000000,0.000000
6112.048000,2.152000,1,START a_bow,Note,59,B3,A,up,0.096958,0.327083,0.475520,0.153543,-1.634619,-2.060596,1.041489,1.068015,-2.318222,-1.762285,-1.358661,1.975322,3.824415,0.000000,0.000000,0.000000,0.000000,0.000000,0.000000
6112.056000,2.160000,1,START a_bow,Note,59,B3,A,up,0.088958,0.327125,0.475427,0.153581,-1.634598,-2.060585,1.041513,1.067879,-2.318086,-1.762411,-1.358738,1.975241,3.824289,0.000000,0.000000,0.000000,0.000000,0.000000,0.000000
6112.064000,2.168000,1,START a_bow,Note,59,B3,A,up,0.080958,0.327155,0.475361,0.153609,-1.634584,-2.060577,1.041530,1.067783,-2.317989,-1.762501,-1.358793,1.975183,3.824199,0.000000,0.000000,0.000000,0.000000,0.000000,0.000000
6112.072000,2.176000,1,START a_bow,Note,59,B3,A,up,0.072958,0.327173,0.475321,0.153625,-1.634575,-2.060573,1.041541,1.067725,-2.317930,-1.762556,-1.358826,1.975148,3.824144,0.000000,0.000000,0.000000,0.000000,0.000000,0.000000
6112.080000,2.184000,1,START a_bow,Note,59,B3,A,up,0.064958,0.327179,0.475308,0.153630,-1.634572,-2.060571,1.041544,1.067705,-2.317911,-1.762574,-1.358837,1.975137,3.824126,0.000000,0.000000,0.000000,0.000000,0.000000,0.000000
6112.088000,2.192000,2,END a_bow,Note,59,B3,A,up,0.056958,0.327179,0.475308,0.153630,-1.634572,-2.060571,1.041544,1.067705,-2.317911,-1.762574,-1.358837,1.975137,3.824126,0.000000,0.000000,0.000000,0.000000,0.000000,0.000000
6112.096000,2.200000,2,END a_bow,Note,59,B3,A,up,0.048958,0.327179,0.475308,0.153630,-1.634572,-2.060571,1.041544,1.067705,-2.317911,-1.762574,-1.358837,1.975137,3.824126,0.000000,0.000000,0.000000,0.000000,0.000000,0.000000
6112.104000,2.208000,2,END a_bow,Note,59,B3,A,up,0.040958,0.327179,0.475308,0.153630,-1.634572,-2.060571,1.041544,1.067705,-2.317911,-1.762574,-1.358837,1.975137,3.824126,0.000000,0.000000,0.000000,0.000000,0.000000,0.000000
6112.112000,2.216000,1,START a_bow,Note,61,C#4,A,down,0.282958,0.327177,0.475313,0.153628,-1.634573,-2.060572,1.041543,1.067713,-2.317918,-1.762567,-1.358833,1.975141,3.824133,0.000000,0.000000,0.000000,0.000000,0.000000,0.000000
6112.120000,2.224000,1,START a_bow,Note,61,C#4,A,down,0.274958,0.327163,0.475343,0.153616,-1.634580,-2.060575,1.041535,1.067756,-2.317962,-1.762526,-1.358808,1.975167,3.824174,0.000000,0.000000,0.000000,0.000000,0.000000,0.000000
6112.128000,2.232000,1,START a_bow,Note,61,C#4,A,down,0.266958,0.327138,0.475399,0.153593,-1.634592,-2.060582,1.041520,1.067838,-2.318045,-1.762449,-1.358761,1.975216,3.824251,0.000000,0.000000,0.000000,0.000000,0.000000,0.000000
6112.136000,2.240000,1,START a_bow,Note,61,C#4,A,down,0.258958,0.327100,0.475482,0.153559,-1.634610,-2.060592,1.041499,1.067959,-2.318166,-1.762337,-1.358693,1.975289,3.824363,0.000000,0.000000,0.000000,0.000000,0.000000,0.000000
6112.144000,2.248000,1,START a_bow,Note,61,C#4,A,down,0.250958,0.327051,0.475591,0.153514,-1.634634,-2.060605,1.041470,1.068119,-2.318327,-1.762188,-1.358602,1.975384,3.824512,0.000000,0.000000,0.000000,0.000000,0.000000,0.000000
6112.152000,2.256000,1,START a_bow,Note,61,C#4,A,down,0.242958,0.326989,0.475727,0.153458,-1.634664,-2.060621,1.041435,1.068317,-2.318526,-1.762002,-1.358490,1.975502,3.824696,0.000000,0.000000,0.000000,0.000000,0.000000,0.000000
6112.160000,2.264000,1,START a_bow,Note,61,C#4,A,down,0.234958,0.326915,0.475890,0.153391,-1.634699,-2.060640,1.041392,1.068554,-2.318765,-1.761781,-1.358356,1.975643,3.824917,0.000000,0.000000,0.000000,0.000000,0.000000,0.000000
6112.168000,2.272000,1,START a_bow,Note,61,C#4,A,down,0.226958,0.326830,0.476079,0.153313,-1.634741,-2.060662,1.041343,1.068829,-2.319042,-1.761523,-1.358200,1.975807,3.825173,0.000000,0.000000,0.000000,0.000000,0.000000,0.000000
6112.176000,2.280000,1,START a_bow,Note,61,C#4,A,down,0.218958,0.326732,0.476295,0.153224,-1.634788,-2.060687,1.041287,1.069143,-2.319359,-1.761229,-1.358022,1.975994,3.825466,0.000000,0.000000,0.000000,0.000000,0.000000,0.000000
6112.184000,2.288000,1,START a_bow,Note,61,C#4,A,down,0.210958,0.326622,0.476537,0.153124,-1.634841,-2.060716,1.041224,1.069495,-2.319714,-1.760898,-1.357823,1.976204,3.825795,0.000000,0.000000,0.000000,0.000000,0.000000,0.000000
6112.192000,2.296000,1,START a_bow,Note,61,C#4,A,down,0.202958,0.326500,0.476806,0.153014,-1.634899,-2.060748,1.041154,1.069886,-2.320109,-1.760530,-1.357602,1.976436,3.826159,0.000000,0.000000,0.000000,0.000000,0.000000,0.000000
6112.200000,2.304000,1,START a_bow,Note,61,C#4,A,down,0.194958,0.326366,0.477101,0.152892,-1.634964,-2.060782,1.041077,1.070315,-2.320542,-1.760125,-1.357360,1.976692,3.826559,0.000000,0.000000,0.000000,0.000000,0.000000,0.000000
6112.208000,2.312000,1,START a_bow,Note,61,C#4,A,down,0.186958,0.326220,0.477423,0.152759,-1.635034,-2.060820,1.040993,1.070782,-2.321015,-1.759683,-1.357097,1.976970,3.826996,0.000000,0.000000,0.000000,0.000000,0.000000,0.000000
6112.216000,2.320000,1,START a_bow,Note,61,C#4,A,down,0.178958,0.326063,0.477771,0.152616,-1.635110,-2.060861,1.040903,1.071287,-2.321527,-1.759204,-1.356812,1.977270,3.827468,0.000000,0.000000,0.000000,0.000000,0.000000,0.000000
6112.224000,2.328000,1,START a_bow,Note,61,C#4,A,down,0.170958,0.325893,0.478146,0.152462,-1.635192,-2.060905,1.040805,1.071831,-2.322079,-1.758688,-1.356507,1.977594,3.827976,0.000000,0.000000,0.000000,0.000000,0.000000,0.000000
6112.232000,2.336000,1,START a_bow,Note,61,C#4,A,down,0.162958,0.325711,0.478548,0.152296,-1.635279,-2.060953,1.040701,1.072412,-2.322669,-1.758134,-1.356180,1.977939,3.828519,0.000000,0.000000,0.000000,0.000000,0.000000,0.000000
6112.240000,2.344000,1,START a_bow,Note,61,C#4,A,down,0.154958,0.325530,0.478946,0.152133,-1.635366,-2.060999,1.040597,1.072989,-2.323256,-1.757583,-1.355857,1.978281,3.829058,0.000000,0.000000,0.000000,0.000000,0.000000,0.000000
6112.248000,2.352000,1,START a_bow,Note,61,C#4,A,down,0.146958,0.325362,0.479318,0.151980,-1.635447,-2.061043,1.040500,1.073526,-2.323803,-1.757068,-1.355556,1.978600,3.829562,0.000000,0.000000,0.000000,0.000000,0.000000,0.000000
6112.256000,2.360000,1,START a_bow,Note,61,C#4,A,down,0.138958,0.325205,0.479663,0.151837,-1.635523,-2.061084,1.040410,1.074025,-2.324312,-1.756589,-1.355277,1.978896,3.830029,0.000000,0.000000,0.000000,0.000000,0.000000,0.000000
6112.264000,2.368000,1,START a_bow,Note,61,C#4,A,down,0.130958,0.325061,0.479981,0.151706,-1.635592,-2.061121,1.040327,1.074486,-2.324781,-1.756145,-1.355021,1.979169,3.830460,0.000000,0.000000,0.000000,0.000000,0.000000,0.000000
6112.272000,2.376000,1,START a_bow,Note,61,C#4,A,down,0.122958,0.324929,0.480273,0.151586,-1.635656,-2.061156,1.040251,1.074907,-2.325212,-1.755739,-1.354786,1.979418,3.830855,0.000000,0.000000,0.000000,0.000000,0.000000,0.000000
6112.280000,2.384000,1,START a_bow,Note,61,C#4,A,down,0.114958,0.324808,0.480539,0.151477,-1.635714,-2.061187,1.040182,1.075290,-2.325604,-1.755368,-1.354572,1.979645,3.831214,0.000000,0.000000,0.000000,0.000000,0.000000,0.000000
6112.288000,2.392000,1,START a_bow,Note,61,C#4,A,down,0.106958,0.324700,0.480778,0.151378,-1.635766,-2.061215,1.040120,1.075635,-2.325956,-1.755035,-1.354381,1.979849,3.831537,0.000000,0.000000,0.000000,0.000000,0.000000,0.000000
6112.296000,2.400000,1,START a_bow,Note,61,C#4,A,down,0.098958,0.324604,0.480990,0.151291,-1.635812,-2.061240,1.040065,1.075941,-2.326270,-1.754738,-1.354210,1.980030,3.831824,0.000000,0.000000,0.000000,0.000000,0.000000,0.000000
6112.304000,2.408000,1,START a_bow,Note,61,C#4,A,down,0.090958,0.324519,0.481176,0.151214,-1.635853,-2.061262,1.040016,1.076209,-2.326544,-1.754477,-1.354062,1.980189,3.832075,0.000000,0.000000,0.000000,0.000000,0.000000,0.000000
6112.312000,2.416000,1,START a_bow,Note,61,C#4,A,down,0.082958,0.324447,0.481335,0.151149,-1.635888,-2.061281,1.039975,1.076438,-2.326780,-1.754254,-1.353934,1.980325,3.832291,0.000000,0.000000,0.000000,0.000000,0.000000,0.000000
6112.320000,2.424000,1,START a_bow,Note,61,C#4,A,down,0.074958,0.324387,0.481468,0.151094,-1.635916,-2.061296,1.039940,1.076629,-2.326976,-1.754068,-1.353828,1.980438,3.832470,0.000000,0.000000,0.000000,0.000000,0.000000,0.000000
6112.328000,2.432000,1,START a_bow,Note,61,C#4,A,down,0.066958,0.324339,0.481574,0.151051,-1.635940,-2.061309,1.039913,1.076782,-2.327133,-1.753919,-1.353743,1.980528,3.832613,0.000000,0.000000,0.000000,0.000000,0.000000,0.000000
6112.336000,2.440000,1,START a_bow,Note,61,C#4,A,down,0.058958,0.324303,0.481654,0.151018,-1.635957,-2.061318,1.039892,1.076897,-2.327251,-1.753807,-1.353680,1.980596,3.832721,0.000000,0.000000,0.000000,0.000000,0.000000,0.000000
6112.344000,2.448000,1,START a_bow,Note,61,C#4,A,down,0.050958,0.324279,0.481707,0.150996,-1.635969,-2.061324,1.039878,1.076973,-2.327329,-1.753733,-1.353638,1.980641,3.832793,0.000000,0.000000,0.000000,0.000000,0.000000,0.000000
6112.352000,2.456000,1,START a_bow,Note,61,C#4,A,down,0.042958,0.324267,0.481733,0.150985,-1.635974,-2.061327,1.039871,1.077012,-2.327368,-1.753695,-1.353616,1.980663,3.832829,0.000000,0.000000,0.000000,0.000000,0.000000,0.000000
6112.360000,2.464000,2,END a_bow,Note,61,C#4,A,down,0.034958,0.324265,0.481736,0.150984,-1.635975,-2.061328,1.039870,1.077016,-2.327373,-1.753691,-1.353614,1.980666,3.832833,0.000000,0.000000,0.000000,0.000000,0.000000,0.000000
6112.368000,2.472000,2,END a_bow,Note,61,C#4,A,down,0.026958,0.324265,0.481736,0.150984,-1.635975,-2.061328,1.039870,1.077016,-2.327373,-1.753691,-1.353614,1.980666,3.832833,0.000000,0.000000,0.000000,0.000000,0.000000,0.000000
6112.376000,2.480000,2,END a_bow,Note,61,C#4,A,down,0.018958,0.324265,0.481736,0.150984,-1.635975,-2.061328,1.039870,1.077016,-2.327373,-1.753691,-1.353614,1.980666,3.832833,0.000000,0.000000,0.000000,0.000000,0.000000,0.000000
6112.384000,2.488000,1,START a_bow,Note,62,D4,A,up,0.260958,0.324265,0.481736,0.150984,-1.635975,-2.061328,1.039870,1.077016,-2.327373,-1.753691,-1.353614,1.980666,3.832833,0.000000,0.000000,0.000000,0.000000,0.000000,0.000000
6112.392000,2.496000,1,START a_bow,Note,62,D4,A,up,0.252958,0.324273,0.481720,0.150991,-1.635971,-2.061326,1.039875,1.076992,-2.327348,-1.753714,-1.353627,1.980652,3.832811,0.000000,0.000000,0.000000,0.000000,0.000000,0.000000
6112.400000,2.504000,1,START a_bow,Note,62,D4,A,up,0.244958,0.324292,0.481677,0.151008,-1.635962,-2.061321,1.039886,1.076930,-2.327285,-1.753775,-1.353662,1.980615,3.832752,0.000000,0.000000,0.000000,0.000000,0.000000,0.000000
6112.408000,2.512000,1,START a_bow,Note,62,D4,A,up,0.236958,0.324324,0.481607,0.151037,-1.635947,-2.061313,1.039904,1.076830,-2.327182,-1.753873,-1.353717,1.980556,3.832658,0.000000,0.000000,0.000000,0.000000,0.000000,0.000000
6112.416000,2.520000,1,START a_bow,Note,62,D4,A,up,0.228958,0.324368,0.481511,0.151077,-1.635926,-2.061301,1.039929,1.076691,-2.327039,-1.754008,-1.353794,1.980474,3.832528,0.000000,0.000000,0.000000,0.000000,0.000000,0.000000
6112.424000,2.528000,1,START a_bow,Note,62,D4,A,up,0.220958,0.324423,0.481388,0.151127,-1.635899,-2.061287,1.039961,1.076514,-2.326858,-1.754180,-1.353892,1.980370,3.832362,0.000000,0.000000,0.000000,0.000000,0.000000,0.000000
6112.432000,2.536000,1,START a_bow,Note,62,D4,A,up,0.212958,0.324491,0.481239,0.151189,-1.635866,-2.061269,1.040000,1.076299,-2.326637,-1.754389,-1.354011,1.980242,3.832160,0.000000,0.000000,0.000000,0.000000,0.000000,0.000000
6112.440000,2.544000,1,START a_bow,Note,62,D4,A,up,0.204958,0.324571,0.481063,0.151261,-1.635828,-2.061249,1.040046,1.076046,-2.326378,-1.754636,-1.354152,1.980092,3.831922,0.000000,0.000000,0.000000,0.000000,0.000000,0.000000
6112.448000,2.552000,1,START a_bow,Note,62,D4,A,up,0.196958,0.324662,0.480860,0.151344,-1.635784,-2.061225,1.040098,1.075754,-2.326079,-1.754919,-1.354314,1.979920,3.831649,0.000000,0.000000,0.000000,0.000000,0.000000,0.000000
6112.456000,2.560000,1,START a_bow,Note,62,D4,A,up,0.188958,0.324766,0.480631,0.151439,-1.635734,-2.061198,1.040158,1.075424,-2.325741,-1.755239,-1.354498,1.979724,3.831339,0.000000,0.000000,0.000000,0.000000,0.000000,0.000000
6112.464000,2.568000,1,START a_bow,Note,62,D4,A,up,0.180958,0.324882,0.480376,0.151544,-1.635678,-2.061168,1.040225,1.075055,-2.325364,-1.755595,-1.354703,1.979506,3.830994,0.000000,0.000000,0.000000,0.000000,0.000000,0.000000
6112.472000,2.576000,1,START a_bow,Note,62,D4,A,up,0.172958,0.325010,0.480094,0.151660,-1.635617,-2.061135,1.040298,1.074648,-2.324947,-1.755989,-1.354930,1.979265,3.830612,0.000000,0.000000,0.000000,0.000000,0.000000,0.000000
6112.480000,2.584000,1,START a_bow,Note,62,D4,A,up,0.164958,0.325150,0.479785,0.151787,-1.635549,-2.061098,1.040378,1.074202,-2.324492,-1.756418,-1.355179,1.979001,3.830195,0.000000,0.000000,0.000000,0.000000,0.000000,0.000000
6112.488000,2.592000,1,START a_bow,Note,62,D4,A,up,0.156958,0.325302,0.479450,0.151925,-1.635476,-2.061059,1.040466,1.073718,-2.323998,-1.756884,-1.355449,1.978714,3.829741,0.000000,0.000000,0.000000,0.000000,0.000000,0.000000
6112.496000,2.600000,1,START a_bow,Note,62,D4,A,up,0.148958,0.325466,0.479088,0.152074,-1.635397,-2.061016,1.040560,1.073195,-2.323465,-1.757385,-1.355742,1.978403,3.829251,0.000000,0.000000,0.000000,0.000000,0.000000,0.000000
6112.504000,2.608000,1,START a_bow,Note,62,D4,A,up,0.140958,0.325642,0.478700,0.152234,-1.635313,-2.060971,1.040661,1.072633,-2.322894,-1.757923,-1.356056,1.978070,3.828726,0.000000,0.000000,0.000000,0.000000,0.000000,0.000000
6112.512000,2.616000,1,START a_bow,Note,62,D4,A,up,0.132958,0.325826,0.478294,0.152401,-1.635224,-2.060923,1.040767,1.072045,-2.322296,-1.758484,-1.356387,1.977720,3.828175,0.000000,0.000000,0.000000,0.000000,0.000000,0.000000
6112.520000,2.624000,1,START a_bow,Note,62,D4,A,up,0.124958,0.326000,0.477909,0.152559,-1.635140,-2.060877,1.040867,1.071487,-2.321730,-1.759015,-1.356700,1.977389,3.827654,0.000000,0.000000,0.000000,0.000000,0.000000,0.000000
6112.528000,2.632000,1,START a_bow,Note,62,D4,A,up,0.116958,0.326163,0.477551,0.152707,-1.635062,-2.060835,1.040960,1.070967,-2.321203,-1.759508,-1.356993,1.977080,3.827168,0.000000,0.000000,0.000000,0.000000,0.000000,0.000000
6112.536000,2.640000,1,START a_bow,Note,62,D4,A,up,0.108958,0.326313,0.477219,0.152844,-1.634989,-2.060796,1.041047,1.070485,-2.320715,-1.759964,-1.357264,1.976793,3.826719,0.000000,0.000000,0.000000,0.000000,0.000000,0.000000
6112.544000,2.648000,1,START a_bow,Note,62,D4,A,up,0.100958,0.326451,0.476914,0.152969,-1.634923,-2.060760,1.041126,1.070042,-2.320267,-1.760382,-1.357514,1.976530,3.826305,0.000000,0.000000,0.000000,0.000000,0.000000,0.000000
6112.552000,2.656000,1,START a_bow,Note,62,D4,A,up,0.092958,0.326578,0.476635,0.153084,-1.634862,-2.060727,1.041199,1.069637,-2.319857,-1.760764,-1.357743,1.976288,3.825927,0.000000,0.000000,0.000000,0.000000,0.000000,0.000000
6112.560000,2.664000,1,START a_bow,Note,62,D4,A,up,0.084958,0.326692,0.476383,0.153188,-1.634807,-2.060698,1.041264,1.069270,-2.319487,-1.761109,-1.357950,1.976070,3.825585,0.000000,0.000000,0.000000,0.000000,0.000000,0.000000
6112.568000,2.672000,1,START a_bow,Note,62,D4,A,up,0.076958,0.326794,0.476157,0.153281,-1.634758,-2.060671,1.041323,1.068942,-2.319156,-1.761417,-1.358136,1.975874,3.825279,0.000000,0.000000,0.000000,0.000000,0.000000,0.000000
6112.576000,2.680000,1,START a_bow,Note,62,D4,A,up,0.068958,0.326885,0.475958,0.153363,-1.634714,-2.060648,1.041375,1.068652,-2.318864,-1.761688,-1.358300,1.975702,3.825009,0.000000,0.000000,0.000000,0.000000,0.000000,0.000000
6112.584000,2.688000,1,START a_bow,Note,62,D4,A,up,0.060958,0.326963,0.475785,0.153434,-1.634677,-2.060627,1.041420,1.068401,-2.318611,-1.761924,-1.358442,1.975552,3.824775,0.000000,0.000000,0.000000,0.000000,0.000000,0.000000
6112.592000,2.696000,1,START a_bow,Note,62,D4,A,up,0.052958,0.327029,0.475639,0.153494,-1.634645,-2.060610,1.041458,1.068189,-2.318397,-1.762122,-1.358563,1.975425,3.824577,0.000000,0.000000,0.000000,0.000000,0.000000,0.000000
6112.600000,2.704000,1,START a_bow,Note,62,D4,A,up,0.044958,0.327083,0.475520,0.153543,-1.634619,-2.060596,1.041489,1.068015,-2.318222,-1.762285,-1.358661,1.975322,3.824415,0.000000,0.000000,0.000000,0.000000,0.000000,0.000000
6112.608000,2.712000,1,START a_bow,Note,62,D4,A,up,0.036958,0.327125,0.475427,0.153581,-1.634598,-2.060585,1.041513,1.067879,-2.318086,-1.762411,-1.358738,1.975241,3.824289,0.000000,0.000000,0.000000,0.000000,0.000000,0.000000
6112.616000,2.720000,1,START a_bow,Note,62,D4,A,up,0.028958,0.327155,0.475361,0.153609,-1.634584,-2.060577,1.041530,1.067783,-2.317989,-1.762501,-1.358793,1.975183,3.824199,0.000000,0.000000,0.000000,0.000000,0.000000,0.000000
6112.624000,2.728000,1,START a_bow,Note,62,D4,A,up,0.020958,0.327173,0.475321,0.153625,-1.634575,-2.060573,1.041541,1.067725,-2.317930,-1.762556,-1.358826,1.975148,3.824144,0.000000,0.000000,0.000000,0.000000,0.000000,0.000000
6112.632000,2.736000,1,START a_bow,Note,62,D4,A,up,0.012958,0.327179,0.475308,0.153630,-1.634572,-2.060571,1.041544,1.067705,-2.317911,-1.762574,-1.358837,1.975137,3.824126,0.000000,0.000000,0.000000,0.000000,0.000000,0.000000
6112.640000,2.744000,2,END a_bow,Note,62,D4,A,up,0.004958,0.327179,0.475308,0.153630,-1.634572,-2.060571,1.041544,1.067705,-2.317911,-1.762574,-1.358837,1.975137,3.824126,0.000000,0.000000,0.000000,0.000000,0.000000,0.000000
6112.648000,2.752000,2,END a_bow,Note,59,B3,A,up,0.246958,0.327179,0.475308,0.153630,-1.634572,-2.060571,1.041544,1.067705,-2.317911,-1.762574,-1.358837,1.975137,3.824126,0.000000,0.000000,0.000000,0.000000,0.000000,0.000000
6112.656000,2.760000,2,END a_bow,Note,59,B3,A,up,0.238958,0.327179,0.475308,0.153630,-1.634572,-2.060571,1.041544,1.067705,-2.317911,-1.762574,-1.358837,1.975137,3.824126,0.000000,0.000000,0.000000,0.000000,0.000000,0.000000
6112.664000,2.768000,1,START a_bow,Note,59,B3,A,down,0.230958,0.327177,0.475313,0.153628,-1.634573,-2.060572,1.041543,1.067713,-2.317918,-1.762567,-1.358833,1.975141,3.824133,0.000000,0.000000,0.000000,0.000000,0.000000,0.000000
6112.672000,2.776000,1,START a_bow,Note,59,B3,A,down,0.222958,0.327163,0.475343,0.153616,-1.634580,-2.060575,1.041535,1.067756,-2.317962,-1.762526,-1.358808,1.975167,3.824174,0.000000,0.000000,0.000000,0.000000,0.000000,0.000000
6112.680000,2.784000,1,START a_bow,Note,59,B3,A,down,0.214958,0.327138,0.475399,0.153593,-1.634592,-2.060582,1.041520,1.067838,-2.318045,-1.762449,-1.358761,1.975216,3.824251,0.000000,0.000000,0.000000,0.000000,0.000000,0.000000
6112.688000,2.792000,1,START a_bow,Note,59,B3,A,down,0.206958,0.327100,0.475482,0.153559,-1.634610,-2.060592,1.041499,1.067959,-2.318166,-1.762337,-1.358693,1.975289,3.824363,0.000000,0.000000,0.000000,0.000000,0.000000,0.000000
6112.696000,2.800000,1,START a_bow,Note,59,B3,A,down,0.198958,0.327051,0.475591,0.153514,-1.634634,-2.060605,1.041470,1.068119,-2.318327,-1.762188,-1.358602,1.975384,3.824512,0.000000,0.000000,0.000000,0.000000,0.000000,0.000000
6112.704000,2.808000,1,START a_bow,Note,59,B3,A,down,0.190958,0.326989,0.475727,0.153458,-1.634664,-2.060621,1.041435,1.068317,-2.318526,-1.762002,-1.358490,1.975502,3.824696,0.000000,0.000000,0.000000,0.000000,0.000000,0.000000
6112.712000,2.816000,1,START a_bow,Note,59,B3,A,down,0.182958,0.326915,0.475890,0.153391,-1.634699,-2.060640,1.041392,1.068554,-2.318765,-1.761781,-1.358356,1.975643,3.824917,0.000000,0.000000,0.000000,0.000000,0.000000,0.000000
6112.720000,2.824000,1,START a_bow,Note,59,B3,A,down,0.174958,0.326830,0.476079,0.153313,-1.634741,-2.060662,1.041343,1.068829,-2.319042,-1.761523,-1.358200,1.975807,3.825173,0.000000,0.000000,0.000000,0.000000,0.000000,0.000000
6112.728000,2.832000,1,START a_bow,Note,59,B3,A,down,0.166958,0.326732,0.476295,0.153224,-1.634788,-2.060687,1.041287,1.069143,-2.319359,-1.761229,-1.358022,1.975994,3.825466,0.000000,0.000000,0.000000,0.000000,0.000000,0.000000
6112.736000,2.840000,1,START a_bow,Note,59,B3,A,down,0.158958,0.326622,0.476537,0.153124,-1.634841,-2.060716,1.041224,1.069495,-2.319714,-1.760898,-1.357823,1.976204,3.825795,0.000000,0.000000,0.000000,0.000000,0.000000,0.000000
6112.744000,2.848000,1,START a_bow,Note,59,B3,A,down,0.150958,0.326500,0.476806,0.153014,-1.634899,-2.060748,1.041154,1.069886,-2.320109,-1.760530,-1.357602,1.976436,3.826159,0.000000,0.000000,0.000000,0.000000,0.000000,0.000000
6112.752000,2.856000,1,START a_bow,Note,59,B3,A,down,0.142958,0.326366,0.477101,0.152892,-1.634964,-2.060782,1.041077,1.070315,-2.320542,-1.760125,-1.357360,1.976692,3.826559,0.000000,0.000000,0.000000,0.000000,0.000000,0.000000
6112.760000,2.864000,1,START a_bow,Note,59,B3,A,down,0.134958,0.326220,0.477423,0.152759,-1.635034,-2.060820,1.040993,1.070782,-2.321015,-1.759683,-1.357097,1.976970,3.826996,0.000000,0.000000,0.000000,0.000000,0.000000,0.000000
6112.768000,2.872000,1,START a_bow,Note,59,B3,A,down,0.126958,0.326063,0.477771,0.152616,-1.635110,-2.060861,1.040903,1.071287,-2.321527,-1.759204,-1.356812,1.977270,3.827468,0.000000,0.000000,0.000000,0.000000,0.000000,0.000000
6112.776000,2.880000,1,START a_bow,Note,59,B3,A,down,0.118958,0.325893,0.478146,0.152462,-1.635192,-2.060905,1.040805,1.071831,-2.322079,-1.758688,-1.356507,1.977594,3.827976,0.000000,0.000000,0.000000,0.000000,0.000000,0.000000
6112.784000,2.888000,1,START a_bow,Note,59,B3,A,down,0.110958,0.325711,0.478548,0.152296,-1.635279,-2.060953,1.040701,1.072412,-2.322669,-1.758134,-1.356180,1.977939,3.828519,0.000000,0.000000,0.000000,0.000000,0.000000,0.000000
6112.792000,2.896000,1,START a_bow,Note,59,B3,A,down,0.102958,0.325530,0.478946,0.152133,-1.635366,-2.060999,1.040597,1.072989,-2.323256,-1.757583,-1.355857,1.978281,3.829058,0.000000,0.000000,0.000000,0.000000,0.000000,0.000000
6112.800000,2.904000,1,START a_bow,Note,59,B3,A,down,0.094958,0.325362,0.479318,0.151980,-1.635447,-2.061043,1.040500,1.073526,-2.323803,-1.757068,-1.355556,1.978600,3.829562,0.000000,0.000000,0.000000,0.000000,0.000000,0.000000
6112.808000,2.912000,1,START a_bow,Note,59,B3,A,down,0.086958,0.325205,0.479663,0.151837,-1.635523,-2.061084,1.040410,1.074025,-2.324312,-1.756589,-1.355277,1.978896,3.830029,0.000000,0.000000,0.000000,0.000000,0.000000,0.000000
6112.816000,2.920000,1,START a_bow,Note,59,B3,A,down,0.078958,0.325061,0.479981,0.151706,-1.635592,-2.061121,1.040327,1.074486,-2.324781,-1.756145,-1.355021,1.979169,3.830460,0.000000,0.000000,0.000000,0.000000,0.000000,0.000000
6112.824000,2.928000,1,START a_bow,Note,59,B3,A,down,0.070958,0.324929,0.480273,0.151586,-1.635656,-2.061156,1.040251,1.074907,-2.325212,-1.755739,-1.354786,1.979418,3.830855,0.000000,0.000000,0.000000,0.000000,0.000000,0.000000
6112.832000,2.936000,1,START a_bow,Note,59,B3,A,down,0.062958,0.324808,0.480539,0.151477,-1.635714,-2.061187,1.040182,1.075290,-2.325604,-1.755368,-1.354572,1.979645,3.831214,0.000000,0.000000,0.000000,0.000000,0.000000,0.000000
6112.840000,2.944000,1,START a_bow,Note,59,B3,A,down,0.054958,0.324700,0.480778,0.151378,-1.635766,-2.061215,1.040120,1.075635,-2.325956,-1.755035,-1.354381,1.979849,3.831537,0.000000,0.000000,0.000000,0.000000,0.000000,0.000000
6112.848000,2.952000,1,START a_bow,Note,59,B3,A,down,0.046958,0.324604,0.480990,0.151291,-1.635812,-2.061240,1.040065,1.075941,-2.326270,-1.754738,-1.354210,1.980030,3.831824,0.000000,0.000000,0.000000,0.000000,0.000000,0.000000
6112.856000,2.960000,1,START a_bow,Note,59,B3,A,down,0.038958,0.324519,0.481176,0.151214,-1.635853,-2.061262,1.040016,1.076209,-2.326544,-1.754477,-1.354062,1.980189,3.832075,0.000000,0.000000,0.000000,0.000000,0.000000,0.000000
6112.864000,2.968000,1,START a_bow,Note,59,B3,A,down,0.030958,0.324447,0.481335,0.151149,-1.635888,-2.061281,1.039975,1.076438,-2.326780,-1.754254,-1.353934,1.980325,3.832291,0.000000,0.000000,0.000000,0.000000,0.000000,0.000000
6112.872000,2.976000,1,START a_bow,Note,59,B3,A,down,0.022958,0.324387,0.481468,0.151094,-1.635916,-2.061296,1.039940,1.076629,-2.326976,-1.754068,-1.353828,1.980438,3.832470,0.000000,0.000000,0.000000,0.000000,0.000000,0.000000
6112.880000,2.984000,1,START a_bow,Note,59,B3,A,down,0.014958,0.324339,0.481574,0.151051,-1.635940,-2.061309,1.039913,1.076782,-2.327133,-1.753919,-1.353743,1.980528,3.832613,0.000000,0.000000,0.000000,0.000000,0.000000,0.000000
6112.888000,2.992000,1,START a_bow,Note,59,B3,A,down,0.006958,0.324303,0.481654,0.151018,-1.635957,-2.061318,1.039892,1.076897,-2.327251,-1.753807,-1.353680,1.980596,3.832721,0.000000,0.000000,0.000000,0.000000,0.000000,0.000000
6112.896000,3.000000,1,START a_bow,Note,57,A3,A,down,0.498958,0.324279,0.481707,0.150996,-1.635969,-2.061324,1.039878,1.076973,-2.327329,-1.753733,-1.353638,1.980641,3.832793,0.000000,0.000000,0.000000,0.000000,0.000000,0.000000
6112.904000,3.008000,1,START a_bow,Note,57,A3,A,down,0.490958,0.324267,0.481733,0.150985,-1.635974,-2.061327,1.039871,1.077012,-2.327368,-1.753695,-1.353616,1.980663,3.832829,0.000000,0.000000,0.000000,0.000000,0.000000,0.000000
6112.912000,3.016000,2,END a_bow,Note,57,A3,A,down,0.482958,0.324265,0.481736,0.150984,-1.635975,-2.061328,1.039870,1.077016,-2.327373,-1.753691,-1.353614,1.980666,3.832833,0.000000,0.000000,0.000000,0.000000,0.000000,0.000000
6112.920000,3.024000,2,END a_bow,Note,57,A3,A,down,0.474958,0.324265,0.481736,0.150984,-1.635975,-2.061328,1.039870,1.077016,-2.327373,-1.753691,-1.353614,1.980666,3.832833,0.000000,0.000000,0.000000,0.000000,0.000000,0.000000
6112.928000,3.032000,2,END a_bow,Note,57,A3,A,down,0.466958,0.324265,0.481736,0.150984,-1.635975,-2.061328,1.039870,1.077016,-2.327373,-1.753691,-1.353614,1.980666,3.832833,0.000000,0.000000,0.000000,0.000000,0.000000,0.000000
6112.936000,3.040000,1,START a_bow,Note,57,A3,A,up,0.458958,0.324265,0.481736,0.150984,-1.635975,-2.061328,1.039870,1.077016,-2.327373,-1.753691,-1.353614,1.980666,3.832833,0.000000,0.000000,0.000000,0.000000,0.000000,0.000000
6112.944000,3.048000,1,START a_bow,Note,57,A3,A,up,0.450958,0.324273,0.481720,0.150990,-1.635972,-2.061326,1.039875,1.076993,-2.327349,-1.753714,-1.353627,1.980652,3.832811,0.000000,0.000000,0.000000,0.000000,0.000000,0.000000
6112.952000,3.056000,1,START a_bow,Note,57,A3,A,up,0.442958,0.324292,0.481678,0.151008,-1.635962,-2.061321,1.039886,1.076932,-2.327286,-1.753774,-1.353661,1.980616,3.832754,0.000000,0.000000,0.000000,0.000000,0.000000,0.000000
6112.960000,3.064000,1,START a_bow,Note,57,A3,A,up,0.434958,0.324323,0.481609,0.151036,-1.635947,-2.061313,1.039903,1.076833,-2.327185,-1.753870,-1.353715,1.980558,3.832661,0.000000,0.000000,0.000000,0.000000,0.000000,0.000000
6112.968000,3.072000,1,START a_bow,Note,57,A3,A,up,0.426958,0.324366,0.481514,0.151075,-1.635927,-2.061302,1.039928,1.076697,-2.327045,-1.754002,-1.353791,1.980477,3.832533,0.000000,0.000000,0.000000,0.000000,0.000000,0.000000
6112.976000,3.080000,1,START a_bow,Note,57,A3,A,up,0.418958,0.324421,0.481394,0.151125,-1.635900,-2.061288,1.039960,1.076523,-2.326867,-1.754172,-1.353887,1.980374,3.832370,0.000000,0.000000,0.000000,0.000000,0.000000,0.000000
6112.984000,3.088000,1,START a_bow,Note,57,A3,A,up,0.410958,0.324487,0.481247,0.151185,-1.635868,-2.061270,1.039998,1.076312,-2.326650,-1.754377,-1.354005,1.980249,3.832172,0.000000,0.000000,0.000000,0.000000,0.000000,0.000000
6112.992000,3.096000,1,START a_bow,Note,57,A3,A,up,0.402958,0.324566,0.481074,0.151256,-1.635831,-2.061250,1.040043,1.076062,-2.326394,-1.754620,-1.354143,1.980102,3.831938,0.000000,0.000000,0.000000,0.000000,0.000000,0.000000
6113.000000,3.104000,1,START a_bow,Note,57,A3,A,up,0.394958,0.324656,0.480875,0.151338,-1.635787,-2.061227,1.040095,1.075776,-2.326101,-1.754898,-1.354303,1.979932,3.831669,0.000000,0.000000,0.000000,0.000000,0.000000,0.000000
6113.008000,3.112000,1,START a_bow,Note,57,A3,A,up,0.386958,0.324758,0.480650,0.151431,-1.635738,-2.061200,1.040154,1.075451,-2.325768,-1.755213,-1.354483,1.979740,3.831365,0.000000,0.000000,0.000000,0.000000,0.000000,0.000000
6113.016000,3.120000,1,START a_bow,Note,57,A3,A,up,0.378958,0.324872,0.480399,0.151534,-1.635683,-2.061171,1.040219,1.075089,-2.325398,-1.755563,-1.354685,1.979525,3.831025,0.000000,0.000000,0.000000,0.000000,0.000000,0.000000
6113.024000,3.128000,1,START a_bow,Note,57,A3,A,up,0.370958,0.324997,0.480122,0.151648,-1.635623,-2.061138,1.040291,1.074688,-2.324989,-1.755950,-1.354908,1.979288,3.830650,0.000000,0.000000,0.000000,0.000000,0.000000,0.000000
6113.032000,3.136000,1,START a_bow,Note,57,A3,A,up,0.362958,0.325135,0.479818,0.151773,-1.635557,-2.061103,1.040370,1.074250,-2.324541,-1.756372,-1.355152,1.979029,3.830239,0.000000,0.000000,0.000000,0.000000,0.000000,0.000000
6113.040000,3.144000,1,START a_bow,Note,57,A3,A,up,0.354958,0.325284,0.479489,0.151909,-1.635485,-2.061064,1.040456,1.073774,-2.324056,-1.756830,-1.355418,1.978746,3.829794,0.000000,0.000000,0.000000,0.000000,0.000000,0.000000
6113.048000,3.152000,1,START a_bow,Note,57,A3,A,up,0.346958,0.325445,0.479133,0.152055,-1.635407,-2.061022,1.040549,1.073260,-2.323532,-1.757323,-1.355706,1.978441,3.829312,0.000000,0.000000,0.000000,0.000000,0.000000,0.000000
6113.056000,3.160000,1,START a_bow,Note,57,A3,A,up,0.338958,0.325618,0.478752,0.152212,-1.635324,-2.060977,1.040648,1.072708,-2.322970,-1.757851,-1.356015,1.978113,3.828796,0.000000,0.000000,0.000000,0.000000,0.000000,0.000000
6113.064000,3.168000,1,START a_bow,Note,57,A3,A,up,0.330958,0.325803,0.478344,0.152380,-1.635235,-2.060929,1.040755,1.072117,-2.322369,-1.758415,-1.356347,1.977763,3.828244,0.000000,0.000000,0.000000,0.000000,0.000000,0.000000
6113.072000,3.176000,1,START a_bow,Note,57,A3,A,up,0.322958,0.326000,0.477910,0.152559,-1.635141,-2.060878,1.040868,1.071489,-2.321731,-1.759013,-1.356700,1.977389,3.827656,0.000000,0.000000,0.000000,0.000000,0.000000,0.000000
6113.080000,3.184000,1,START a_bow,Note,57,A3,A,up,0.314958,0.326208,0.477450,0.152748,-1.635040,-2.060824,1.040988,1.070821,-2.321055,-1.759646,-1.357076,1.976992,3.827033,0.000000,0.000000,0.000000,0.000000,0.000000,0.000000
6113.088000,3.192000,1,START a_bow,Note,57,A3,A,up,0.306958,0.326428,0.476964,0.152948,-1.634934,-2.060767,1.041114,1.070116,-2.320341,-1.760312,-1.357474,1.976572,3.826374,0.000000,0.000000,0.000000,0.000000,0.000000,0.000000
6113.096000,3.200000,1,START a_bow,Note,57,A3,A,up,0.298958,0.326661,0.476452,0.153159,-1.634823,-2.060707,1.041248,1.069371,-2.319589,-1.761013,-1.357894,1.976129,3.825680,0.000000,0.000000,0.000000,0.000000,0.000000,0.000000
6113.104000,3.208000,1,START a_bow,Note,57,A3,A,up,0.290958,0.326904,0.475914,0.153381,-1.634705,-2.060644,1.041388,1.068588,-2.318800,-1.761748,-1.358337,1.975662,3.824950,0.000000,0.000000,0.000000,0.000000,0.000000,0.000000
6113.112000,3.216000,1,START a_bow,Note,57,A3,A,up,0.282958,0.327160,0.475350,0.153613,-1.634582,-2.060578,1.041535,1.067767,-2.317972,-1.762516,-1.358804,1.975171,3.824184,0.000000,0.000000,0.000000,0.000000,0.000000,0.000000
6113.120000,3.224000,1,START a_bow,Note,57,A3,A,up,0.274958,0.327428,0.474759,0.153856,-1.634453,-2.060508,1.041689,1.066906,-2.317108,-1.763317,-1.359293,1.974657,3.823383,0.000000,0.000000,0.000000,0.000000,0.000000,0.000000
6113.128000,3.232000,1,START a_bow,Note,57,A3,A,up,0.266958,0.327707,0.474143,0.154110,-1.634319,-2.060436,1.041850,1.066006,-2.316205,-1.764151,-1.359806,1.974120,3.822546,0.000000,0.000000,0.000000,0.000000,0.000000,0.000000
6113.136000,3.240000,1,START a_bow,Note,57,A3,A,up,0.258958,0.327999,0.473500,0.154374,-1.634179,-2.060360,1.042017,1.065067,-2.315266,-1.765017,-1.360342,1.973558,3.821673,0.000000,0.000000,0.000000,0.000000,0.000000,0.000000
6113.144000,3.248000,1,START a_bow,Note,57,A3,A,up,0.250958,0.328302,0.472832,0.154650,-1.634033,-2.060282,1.042191,1.064089,-2.314289,-1.765915,-1.360902,1.972972,3.820764,0.000000,0.000000,0.000000,0.000000,0.000000,0.000000
6113.152000,3.256000,1,START a_bow,Note,57,A3,A,up,0.242958,0.328617,0.472137,0.154936,-1.633881,-2.060200,1.042372,1.063071,-2.313275,-1.766845,-1.361486,1.972362,3.819819,0.000000,0.000000,0.000000,0.000000,0.000000,0.000000
6113.160000,3.264000,1,START a_bow,Note,57,A3,A,up,0.234958,0.328943,0.471416,0.155233,-1.633724,-2.060115,1.042560,1.062013,-2.312224,-1.767806,-1.362095,1.971727,3.818839,0.000000,0.000000,0.000000,0.000000,0.000000,0.000000
6113.168000,3.272000,1,START a_bow,Note,57,A3,A,up,0.226958,0.329282,0.470669,0.155540,-1.633561,-2.060027,1.042754,1.060916,-2.311136,-1.768798,-1.362728,1.971068,3.817823,0.000000,0.000000,0.000000,0.000000,0.000000,0.000000
6113.176000,3.280000,1,START a_bow,Note,57,A3,A,up,0.218958,0.329632,0.469896,0.155858,-1.633392,-2.059936,1.042956,1.059779,-2.310011,-1.769820,-1.363385,1.970384,3.816770,0.000000,0.000000,0.000000,0.000000,0.000000,0.000000
6113.184000,3.288000,1,START a_bow,Note,57,A3,A,up,0.210958,0.329994,0.469097,0.156187,-1.633218,-2.059842,1.043164,1.058601,-2.308849,-1.770872,-1.364068,1.969675,3.815682,0.000000,0.000000,0.000000,0.000000,0.000000,0.000000
6113.192000,3.296000,1,START a_bow,Note,57,A3,A,up,0.202958,0.330358,0.468295,0.156518,-1.633043,-2.059748,1.043373,1.057417,-2.307685,-1.771924,-1.364757,1.968962,3.814588,0.000000,0.000000,0.000000,0.000000,0.000000,0.000000
6113.200000,3.304000,1,START a_bow,Note,57,A3,A,up,0.194958,0.330710,0.467518,0.156837,-1.632874,-2.059656,1.043575,1.056270,-2.306559,-1.772938,-1.365426,1.968270,3.813530,0.000000,0.000000,0.000000,0.000000,0.000000,0.000000
6113.208000,3.312000,1,START a_bow,Note,57,A3,A,up,0.186958,0.331050,0.466768,0.157146,-1.632710,-2.059568,1.043770,1.055160,-2.305472,-1.773913,-1.366075,1.967599,3.812507,0.000000,0.000000,0.000000,0.000000,0.000000,0.000000
6113.216000,3.320000,1,START a_bow,Note,57,A3,A,up,0.178958,0.331378,0.466044,0.157444,-1.632552,-2.059483,1.043958,1.054087,-2.304425,-1.774851,-1.366704,1.966950,3.811518,0.000000,0.000000,0.000000,0.000000,0.000000,0.000000
6113.224000,3.328000,1,START a_bow,Note,57,A3,A,up,0.170958,0.331695,0.465346,0.157732,-1.632399,-2.059400,1.044140,1.053051,-2.303416,-1.775751,-1.367312,1.966323,3.810565,0.000000,0.000000,0.000000,0.000000,0.000000,0.000000
6113.232000,3.336000,1,START a_bow,Note,57,A3,A,up,0.162958,0.331999,0.464674,0.158008,-1.632253,-2.059321,1.044315,1.052052,-2.302445,-1.776614,-1.367900,1.965718,3.809648,0.000000,0.000000,0.000000,0.000000,0.000000,0.000000
6113.240000,3.344000,1,START a_bow,Note,57,A3,A,up,0.154958,0.332292,0.464028,0.158274,-1.632112,-2.059245,1.044483,1.051092,-2.301514,-1.777441,-1.368467,1.965135,3.808765,0.000000,0.000000,0.000000,0.000000,0.000000,0.000000
6113.248000,3.352000,1,START a_bow,Note,57,A3,A,up,0.146958,0.332573,0.463409,0.158529,-1.631977,-2.059172,1.044644,1.050168,-2.300621,-1.778231,-1.369013,1.964575,3.807918,0.000000,0.000000,0.000000,0.000000,0.000000,0.000000
6113.256000,3.360000,1,START a_bow,Note,57,A3,A,up,0.138958,0.332842,0.462815,0.158774,-1.631847,-2.059102,1.044799,1.049283,-2.299766,-1.778986,-1.369537,1.964037,3.807106,0.000000,0.000000,0.000000,0.000000,0.000000,0.000000
6113.264000,3.368000,1,START a_bow,Note,57,A3,A,up,0.130958,0.333099,0.462248,0.159007,-1.631723,-2.059035,1.044946,1.048436,-2.298949,-1.779705,-1.370040,1.963522,3.806330,0.000000,0.000000,0.000000,0.000000,0.000000,0.000000
6113.272000,3.376000,1,START a_bow,Note,57,A3,A,up,0.122958,0.333345,0.461706,0.159230,-1.631605,-2.058972,1.045087,1.047627,-2.298171,-1.780389,-1.370521,1.963029,3.805589,0.000000,0.000000,0.000000,0.000000,0.000000,0.000000
6113.280000,3.384000,1,START a_bow,Note,57,A3,A,up,0.114958,0.333578,0.461191,0.159442,-1.631492,-2.058911,1.045221,1.046856,-2.297430,-1.781037,-1.370981,1.962560,3.804884,0.000000,0.000000,0.000000,0.000000,0.000000,0.000000
6113.288000,3.392000,1,START a_bow,Note,57,A3,A,up,0.106958,0.333800,0.460701,0.159644,-1.631386,-2.058853,1.045348,1.046123,-2.296728,-1.781652,-1.371418,1.962113,3.804214,0.000000,0.000000,0.000000,0.000000,0.000000,0.000000
6113.296000,3.400000,1,START a_bow,Note,57,A3,A,up,0.098958,0.334010,0.460238,0.159834,-1.631285,-2.058798,1.045469,1.045429,-2.296064,-1.782232,-1.371832,1.961690,3.803580,0.000000,0.000000,0.000000,0.000000,0.000000,0.000000
6113.304000,3.408000,1,START a_bow,Note,57,A3,A,up,0.090958,0.334208,0.459801,0.160014,-1.631189,-2.058747,1.045583,1.044774,-2.295437,-1.782778,-1.372224,1.961290,3.802981,0.000000,0.000000,0.000000,0.000000,0.000000,0.000000
6113.312000,3.416000,1,START a_bow,Note,57,A3,A,up,0.082958,0.334394,0.459390,0.160184,-1.631099,-2.058698,1.045689,1.044157,-2.294848,-1.783290,-1.372594,1.960913,3.802418,0.000000,0.000000,0.000000,0.000000,0.000000,0.000000
6113.320000,3.424000,1,START a_bow,Note,57,A3,A,up,0.074958,0.334569,0.459005,0.160342,-1.631015,-2.058653,1.045790,1.043579,-2.294297,-1.783768,-1.372941,1.960560,3.801890,0.000000,0.000000,0.000000,0.000000,0.000000,0.000000
6113.328000,3.432000,1,START a_bow,Note,57,A3,A,up,0.066958,0.334731,0.458647,0.160490,-1.630937,-2.058611,1.045883,1.043040,-2.293784,-1.784213,-1.373264,1.960231,3.801398,0.000000,0.000000,0.000000,0.000000,0.000000,0.000000
6113.336000,3.440000,1,START a_bow,Note,57,A3,A,up,0.058958,0.334882,0.458314,0.160627,-1.630864,-2.058572,1.045969,1.042539,-2.293308,-1.784625,-1.373565,1.959924,3.800942,0.000000,0.000000,0.000000,0.000000,0.000000,0.000000
6113.344000,3.448000,1,START a_bow,Note,57,A3,A,up,0.050958,0.335021,0.458007,0.160753,-1.630797,-2.058535,1.046049,1.042078,-2.292870,-1.785004,-1.373843,1.959642,3.800522,0.000000,0.000000,0.000000,0.000000,0.000000,0.000000
6113.352000,3.456000,1,START a_bow,Note,57,A3,A,up,0.042958,0.335148,0.457727,0.160868,-1.630736,-2.058502,1.046122,1.041655,-2.292469,-1.785350,-1.374097,1.959384,3.800137,0.000000,0.000000,0.000000,0.000000,0.000000,0.000000
6113.360000,3.464000,1,START a_bow,Note,57,A3,A,up,0.034958,0.335264,0.457472,0.160973,-1.630681,-2.058472,1.046188,1.041272,-2.292106,-1.785663,-1.374328,1.959149,3.799788,0.000000,0.000000,0.000000,0.000000,0.000000,0.000000
6113.368000,3.472000,1,START a_bow,Note,57,A3,A,up,0.026958,0.335367,0.457244,0.161067,-1.630631,-2.058445,1.046247,1.040928,-2.291780,-1.785944,-1.374536,1.958938,3.799475,0.000000,0.000000,0.000000,0.000000,0.000000,0.000000
6113.376000,3.480000,1,START a_bow,Note,57,A3,A,up,0.018958,0.335459,0.457042,0.161150,-1.630587,-2.058421,1.046300,1.040623,-2.291491,-1.786192,-1.374720,1.958751,3.799197,0.000000,0.000000,0.000000,0.000000,0.000000,0.000000
6113.384000,3.488000,1,START a_bow,Note,57,A3,A,up,0.010958,0.335539,0.456866,0.161223,-1.630548,-2.058401,1.046346,1.040358,-2.291240,-1.786408,-1.374880,1.958589,3.798956,0.000000,0.000000,0.000000,0.000000,0.000000,0.000000
