Praneshv25/Robot-Cello-RL/RL-code/allegro-detailed-test-newaypoints.csv
timestamp_robot,time_elapsed_sec,event_flag,event_label,current_event_type,current_note_number,current_note_name,current_string,current_bowing,remaining_duration_sec,TCP_pose_x,TCP_pose_y,TCP_pose_z,TCP_pose_rx,TCP_pose_ry,TCP_pose_rz,q_base,q_shoulder,q_elbow,q_wrist1,q_wrist2,q_wrist3,TCP_force_x,TCP_force_y,TCP_force_z,TCP_force_rx,TCP_force_ry,TCP_force_rz
2204.572000,0.000000,0,IDLE/BETWEEN,Note,62,D4,A,down,0.498958,0.300720,0.793569,0.099719,-1.544015,-2.354979,1.346976,-2.181647,-0.134173,0.375157,-0.918634,-1.573512,-2.588776,-2.251966,1.865319,-2.819145,-0.063616,-0.039121,-0.018971
2204.580000,0.008000,0,IDLE/BETWEEN,Note,62,D4,A,down,0.490958,0.300698,0.793575,0.099728,-1.543968,-2.355056,1.346954,-2.181619,-0.134185,0.375160,-0.918650,-1.573535,-2.588795,-1.884027,1.585195,-2.847760,-0.058049,-0.030119,-0.018924
2204.588000,0.016000,0,IDLE/BETWEEN,Note,62,D4,A,down,0.482958,0.300694,0.793580,0.099725,-1.544014,-2.355028,1.346955,-2.181615,-0.134181,0.375157,-0.918650,-1.573519,-2.588761,-1.652170,1.756176,-2.945928,-0.060188,-0.024249,-0.023312
2204.596000,0.024000,0,IDLE/BETWEEN,Note,62,D4,A,down,0.474958,0.300707,0.793573,0.099727,-1.544019,-2.354998,1.346973,-2.181631,-0.134192,0.375172,-0.918638,-1.573516,-2.588764,-1.966654,1.660077,-2.792959,-0.055571,-0.030694,-0.016338
2204.604000,0.032000,0,IDLE/BETWEEN,Note,62,D4,A,down,0.466958,0.300699,0.793572,0.099706,-1.543980,-2.355013,1.347027,-2.181624,-0.134169,0.375179,-0.918634,-1.573535,-2.588776,-1.990505,1.434590,-2.844226,-0.059178,-0.035192,-0.019320
2204.612000,0.040000,0,IDLE/BETWEEN,Note,62,D4,A,down,0.458958,0.300723,0.793568,0.099745,-1.544024,-2.354991,1.346957,-2.181650,-0.134207,0.375160,-0.918619,-1.573519,-2.588776,-1.918119,1.639414,-2.912888,-0.060592,-0.031588,-0.018395
2204.620000,0.048000,0,IDLE/BETWEEN,Note,62,D4,A,down,0.450958,0.300704,0.793574,0.099722,-1.544017,-2.355012,1.346970,-2.181628,-0.134185,0.375172,-0.918650,-1.573523,-2.588764,-1.807052,1.483482,-2.752595,-0.056905,-0.033621,-0.023083
2204.628000,0.056000,0,IDLE/BETWEEN,Note,62,D4,A,down,0.442958,0.300698,0.793575,0.099714,-1.543974,-2.355028,1.346951,-2.181619,-0.134173,0.375172,-0.918669,-1.573512,-2.588791,-1.849042,1.288244,-2.597853,-0.050863,-0.032702,-0.023441
2204.636000,0.064000,0,IDLE/BETWEEN,Note,62,D4,A,down,0.434958,0.300695,0.793578,0.099716,-1.543998,-2.355068,1.346931,-2.181615,-0.134166,0.375148,-0.918677,-1.573539,-2.588776,-1.791513,1.334956,-2.710242,-0.054143,-0.028490,-0.019994
2204.644000,0.072000,0,IDLE/BETWEEN,Note,62,D4,A,down,0.426958,0.300708,0.793574,0.099735,-1.544000,-2.355025,1.346978,-2.181631,-0.134185,0.375138,-0.918612,-1.573535,-2.588776,-1.945932,1.301059,-2.867493,-0.057901,-0.036780,-0.024745
2204.652000,0.080000,0,IDLE/BETWEEN,Note,62,D4,A,down,0.418958,0.300705,0.793569,0.099725,-1.543988,-2.355029,1.347003,-2.181631,-0.134200,0.375195,-0.918638,-1.573546,-2.588779,-1.939548,1.674040,-3.026693,-0.061879,-0.031922,-0.023165
2204.660000,0.088000,0,IDLE/BETWEEN,Note,62,D4,A,down,0.410958,0.300712,0.793574,0.099738,-1.544021,-2.355051,1.346915,-2.181635,-0.134188,0.375138,-0.918654,-1.573539,-2.588776,-2.210340,1.874104,-2.843563,-0.061083,-0.036380,-0.010928
2204.668000,0.096000,0,IDLE/BETWEEN,Note,62,D4,A,down,0.402958,0.300715,0.793565,0.099721,-1.543980,-2.355031,1.347008,-2.181643,-0.134185,0.375172,-0.918627,-1.573558,-2.588791,-2.166312,1.778920,-3.132590,-0.066966,-0.033271,-0.018038
2204.676000,0.104000,0,IDLE/BETWEEN,Note,62,D4,A,down,0.394958,0.300694,0.793575,0.099728,-1.543949,-2.355022,1.347012,-2.181615,-0.134188,0.375165,-0.918607,-1.573523,-2.588795,-1.804477,1.639407,-2.968289,-0.063355,-0.028947,-0.024079
2204.684000,0.112000,0,IDLE/BETWEEN,Note,62,D4,A,down,0.386958,0.300704,0.793573,0.099724,-1.543990,-2.354983,1.347004,-2.181628,-0.134188,0.375175,-0.918619,-1.573507,-2.588776,-1.953324,1.666587,-2.796952,-0.057896,-0.031379,-0.021201
2204.692000,0.120000,0,IDLE/BETWEEN,Note,62,D4,A,down,0.378958,0.300721,0.793567,0.099721,-1.544042,-2.355010,1.346986,-2.181650,-0.134185,0.375169,-0.918641,-1.573551,-2.588757,-2.271949,1.746537,-2.708678,-0.060972,-0.038732,-0.012309
2204.700000,0.128000,0,IDLE/BETWEEN,Note,62,D4,A,down,0.370958,0.300730,0.793564,0.099709,-1.544064,-2.354948,1.347010,-2.181662,-0.134173,0.375175,-0.918634,-1.573523,-2.588745,-1.971420,1.614795,-2.780573,-0.060734,-0.035763,-0.020672
2204.708000,0.136000,0,IDLE/BETWEEN,Note,62,D4,A,down,0.362958,0.300707,0.793573,0.099729,-1.544005,-2.355032,1.346960,-2.181631,-0.134188,0.375160,-0.918643,-1.573535,-2.588776,-2.154614,1.590815,-2.835710,-0.057027,-0.033282,-0.012729
2204.716000,0.144000,0,IDLE/BETWEEN,Note,62,D4,A,down,0.354958,0.300719,0.793566,0.099722,-1.543988,-2.354983,1.347010,-2.181647,-0.134185,0.375172,-0.918615,-1.573523,-2.588788,-2.128406,1.735320,-2.963525,-0.062489,-0.036153,-0.017605
2204.724000,0.152000,0,IDLE/BETWEEN,Note,62,D4,A,down,0.346958,0.300694,0.793578,0.099722,-1.544003,-2.355078,1.346974,-2.181615,-0.134173,0.375141,-0.918643,-1.573566,-2.588764,-2.002017,1.599585,-2.738756,-0.055349,-0.037627,-0.017655
2204.732000,0.160000,0,IDLE/BETWEEN,Note,62,D4,A,down,0.338958,0.300703,0.793572,0.099714,-1.544001,-2.355045,1.346979,-2.181628,-0.134173,0.375163,-0.918654,-1.573551,-2.588773,-2.093501,1.756115,-2.760545,-0.062595,-0.037622,-0.013847
2204.740000,0.168000,0,IDLE/BETWEEN,Note,62,D4,A,down,0.330958,0.300691,0.793576,0.099714,-1.543951,-2.355040,1.347010,-2.181612,-0.134169,0.375160,-0.918627,-1.573535,-2.588792,-1.961983,1.532465,-2.695797,-0.054976,-0.028334,-0.014327
2204.748000,0.176000,0,IDLE/BETWEEN,Note,62,D4,A,down,0.322958,0.300711,0.793571,0.099730,-1.543978,-2.355018,1.346956,-2.181635,-0.134185,0.375157,-0.918638,-1.573519,-2.588798,-1.892616,1.621243,-2.960815,-0.064282,-0.031949,-0.020481
2204.756000,0.184000,0,IDLE/BETWEEN,Note,62,D4,A,down,0.314958,0.300712,0.793575,0.099746,-1.544045,-2.355018,1.346892,-2.181635,-0.134207,0.375160,-0.918666,-1.573508,-2.588764,-1.921978,1.393700,-2.622954,-0.053824,-0.038060,-0.019101
2204.764000,0.192000,0,IDLE/BETWEEN,Note,62,D4,A,down,0.306958,0.300701,0.793571,0.099706,-1.544002,-2.355010,1.347023,-2.181628,-0.134178,0.375195,-0.918646,-1.573539,-2.588764,-2.319266,1.636177,-2.785371,-0.059854,-0.043675,-0.017790
2204.772000,0.200000,0,IDLE/BETWEEN,Note,62,D4,A,down,0.298958,0.300708,0.793572,0.099731,-1.543998,-2.355056,1.346923,-2.181631,-0.134188,0.375157,-0.918665,-1.573539,-2.588788,-1.988748,1.552989,-2.853755,-0.059375,-0.033856,-0.018672
2204.780000,0.208000,0,IDLE/BETWEEN,Note,62,D4,A,down,0.290958,0.300698,0.793572,0.099702,-1.543990,-2.354988,1.347055,-2.181624,-0.134169,0.375188,-0.918622,-1.573528,-2.588764,-1.892309,1.747797,-2.726248,-0.059456,-0.033489,-0.015291
2204.788000,0.216000,0,IDLE/BETWEEN,Note,62,D4,A,down,0.282958,0.300731,0.793564,0.099733,-1.544050,-2.354962,1.346998,-2.181662,-0.134200,0.375172,-0.918612,-1.573526,-2.588757,-1.805283,1.523076,-3.057812,-0.064378,-0.031833,-0.023641
2204.796000,0.224000,0,IDLE/BETWEEN,Note,62,D4,A,down,0.274958,0.300711,0.793568,0.099707,-1.544001,-2.355000,1.347014,-2.181639,-0.134169,0.375175,-0.918638,-1.573535,-2.588773,-1.807319,1.321409,-2.702062,-0.052094,-0.035179,-0.026235
2204.804000,0.232000,0,IDLE/BETWEEN,Note,62,D4,A,down,0.266958,0.300720,0.793565,0.099704,-1.544027,-2.354957,1.347025,-2.181650,-0.134173,0.375192,-0.918638,-1.573519,-2.588761,-2.197359,1.643348,-2.769109,-0.060638,-0.039344,-0.015419
2204.812000,0.240000,0,IDLE/BETWEEN,Note,62,D4,A,down,0.258958,0.300697,0.793576,0.099726,-1.543993,-2.355045,1.346963,-2.181619,-0.134185,0.375160,-0.918646,-1.573535,-2.588776,-2.015673,1.606381,-2.684278,-0.052793,-0.032952,-0.015881
2204.820000,0.248000,0,IDLE/BETWEEN,Note,62,D4,A,down,0.250958,0.300706,0.793573,0.099722,-1.544030,-2.355035,1.346950,-2.181631,-0.134185,0.375169,-0.918666,-1.573539,-2.588761,-2.110693,1.717207,-2.646463,-0.059059,-0.034935,-0.017039
2204.828000,0.256000,0,IDLE/BETWEEN,Note,62,D4,A,down,0.242958,0.300713,0.793566,0.099711,-1.544019,-2.354984,1.347029,-2.181643,-0.134188,0.375203,-0.918638,-1.573535,-2.588761,-2.020249,1.689766,-2.703484,-0.057826,-0.030942,-0.019470
2204.836000,0.264000,0,IDLE/BETWEEN,Note,62,D4,A,down,0.234958,0.300719,0.793566,0.099714,-1.543993,-2.355014,1.346991,-2.181647,-0.134169,0.375160,-0.918638,-1.573542,-2.588788,-2.123785,1.765668,-2.808683,-0.060834,-0.035218,-0.015596
2204.844000,0.272000,0,IDLE/BETWEEN,Note,62,D4,A,down,0.226958,0.300707,0.793573,0.099729,-1.544018,-2.355047,1.346931,-2.181631,-0.134188,0.375160,-0.918666,-1.573539,-2.588772,-1.990471,1.597285,-2.625442,-0.054199,-0.031846,-0.015753
2204.852000,0.280000,0,IDLE/BETWEEN,Note,62,D4,A,down,0.218958,0.300697,0.793576,0.099718,-1.543983,-2.355022,1.346999,-2.181619,-0.134173,0.375157,-0.918627,-1.573528,-2.588776,-1.952669,1.729758,-2.670718,-0.056973,-0.029012,-0.015624
2204.860000,0.288000,0,IDLE/BETWEEN,Note,62,D4,A,down,0.210958,0.300703,0.793566,0.099696,-1.543955,-2.354997,1.347077,-2.181631,-0.134169,0.375203,-0.918622,-1.573542,-2.588788,-1.934800,1.784348,-2.872917,-0.062172,-0.031729,-0.016471
2204.868000,0.296000,0,IDLE/BETWEEN,Note,62,D4,A,down,0.202958,0.300707,0.793570,0.099716,-1.543961,-2.355027,1.347021,-2.181631,-0.134169,0.375153,-0.918612,-1.573546,-2.588795,-2.047505,1.636394,-2.611461,-0.055532,-0.036193,-0.017676
2204.876000,0.304000,0,IDLE/BETWEEN,Note,62,D4,A,down,0.194958,0.300693,0.793571,0.099704,-1.543971,-2.354988,1.347062,-2.181619,-0.134185,0.375215,-0.918627,-1.573523,-2.588773,-1.933535,1.588125,-2.836509,-0.060458,-0.032852,-0.023392
2204.884000,0.312000,0,IDLE/BETWEEN,Note,62,D4,A,down,0.186958,0.300690,0.793577,0.099719,-1.543984,-2.355024,1.347009,-2.181612,-0.134188,0.375184,-0.918634,-1.573528,-2.588769,-2.216012,1.784427,-2.700169,-0.064416,-0.041296,-0.015785
2204.892000,0.320000,0,IDLE/BETWEEN,Note,62,D4,A,down,0.178958,0.300718,0.793567,0.099719,-1.544021,-2.354997,1.346971,-2.181647,-0.134185,0.375179,-0.918654,-1.573526,-2.588773,-1.959980,1.864916,-2.904835,-0.065834,-0.035187,-0.019913
2204.900000,0.328000,0,IDLE/BETWEEN,Note,62,D4,A,down,0.170958,0.300705,0.793572,0.099704,-1.543961,-2.354976,1.347027,-2.181628,-0.134154,0.375157,-0.918615,-1.573504,-2.588791,-1.918179,1.436103,-2.593811,-0.054734,-0.036605,-0.018212
2204.908000,0.336000,0,IDLE/BETWEEN,Note,62,D4,A,down,0.162958,0.300720,0.793565,0.099722,-1.544037,-2.354977,1.346988,-2.181650,-0.134203,0.375210,-0.918654,-1.573523,-2.588761,-1.925145,1.768262,-2.968262,-0.062887,-0.027895,-0.017700
2204.916000,0.344000,0,IDLE/BETWEEN,Note,62,D4,A,down,0.154958,0.300718,0.793567,0.099714,-1.544004,-2.354985,1.346997,-2.181647,-0.134173,0.375169,-0.918634,-1.573523,-2.588779,-1.948894,1.585663,-2.768129,-0.055999,-0.031782,-0.017430
2204.924000,0.352000,0,IDLE/BETWEEN,Note,62,D4,A,down,0.146958,0.300692,0.793578,0.099721,-1.544027,-2.355020,1.347004,-2.181615,-0.134188,0.375175,-0.918634,-1.573535,-2.588742,-2.235576,1.782916,-2.645799,-0.056615,-0.036900,-0.007959
2204.932000,0.360000,0,IDLE/BETWEEN,Note,62,D4,A,down,0.138958,0.300707,0.793572,0.099721,-1.544001,-2.355024,1.346955,-2.181631,-0.134185,0.375175,-0.918662,-1.573526,-2.588780,-2.015465,1.570247,-2.723533,-0.055860,-0.034690,-0.015608
2204.940000,0.368000,0,IDLE/BETWEEN,Note,62,D4,A,down,0.130958,0.300714,0.793569,0.099719,-1.544013,-2.355006,1.346944,-2.181640,-0.134181,0.375175,-0.918669,-1.573516,-2.588779,-2.257485,1.712974,-2.710153,-0.057991,-0.037978,-0.012598
2204.948000,0.376000,0,IDLE/BETWEEN,Note,62,D4,A,down,0.122958,0.300708,0.793575,0.099729,-1.544022,-2.354984,1.346980,-2.181631,-0.134185,0.375153,-0.918619,-1.573507,-2.588761,-1.754199,1.554983,-2.783618,-0.058541,-0.030570,-0.023710
2204.956000,0.384000,0,IDLE/BETWEEN,Note,62,D4,A,down,0.114958,0.300711,0.793568,0.099722,-1.543997,-2.355011,1.347012,-2.181639,-0.134188,0.375175,-0.918622,-1.573542,-2.588776,-1.950474,1.714958,-2.701518,-0.055964,-0.033358,-0.021805
2204.964000,0.392000,0,IDLE/BETWEEN,Note,62,D4,A,down,0.106958,0.300703,0.793567,0.099700,-1.543972,-2.355025,1.347079,-2.181631,-0.134169,0.375188,-0.918615,-1.573570,-2.588776,-2.022390,1.611772,-2.892929,-0.060914,-0.035265,-0.017755
2204.972000,0.400000,0,IDLE/BETWEEN,Note,62,D4,A,down,0.098958,0.300721,0.793570,0.099733,-1.544033,-2.355020,1.346911,-2.181647,-0.134188,0.375153,-0.918666,-1.573523,-2.588776,-2.027391,1.788592,-2.664129,-0.058849,-0.036836,-0.020388
2204.980000,0.408000,0,IDLE/BETWEEN,Note,62,D4,A,down,0.090958,0.300712,0.793569,0.099723,-1.544027,-2.355028,1.346986,-2.181640,-0.134188,0.375172,-0.918643,-1.573554,-2.588761,-1.892818,1.796515,-2.767154,-0.060454,-0.032808,-0.019275
2204.988000,0.416000,0,IDLE/BETWEEN,Note,62,D4,A,down,0.082958,0.300696,0.793578,0.099724,-1.543964,-2.355026,1.346976,-2.181615,-0.134169,0.375138,-0.918622,-1.573516,-2.588791,-2.238796,1.836039,-2.718391,-0.060037,-0.036276,-0.013326
2204.996000,0.424000,0,IDLE/BETWEEN,Note,62,D4,A,down,0.074958,0.300680,0.793584,0.099724,-1.543966,-2.355074,1.346970,-2.181597,-0.134173,0.375141,-0.918638,-1.573539,-2.588779,-1.942499,1.494095,-2.637478,-0.050938,-0.032782,-0.020889
2205.004000,0.432000,0,IDLE/BETWEEN,Note,62,D4,A,down,0.066958,0.300718,0.793572,0.099731,-1.544046,-2.355018,1.346914,-2.181643,-0.134185,0.375150,-0.918666,-1.573523,-2.588764,-2.081823,1.681757,-2.788761,-0.058632,-0.036793,-0.018349
2205.012000,0.440000,0,IDLE/BETWEEN,Note,62,D4,A,down,0.058958,0.300706,0.793571,0.099731,-1.543954,-2.355050,1.346956,-2.181628,-0.134185,0.375153,-0.918638,-1.573535,-2.588810,-2.058443,1.635553,-2.729794,-0.059765,-0.042008,-0.016550
2205.020000,0.448000,0,IDLE/BETWEEN,Note,62,D4,A,down,0.050958,0.300716,0.793567,0.099711,-1.543998,-2.355030,1.346945,-2.181643,-0.134169,0.375172,-0.918681,-1.573535,-2.588791,-1.761703,1.417359,-2.612417,-0.052313,-0.030335,-0.022534
2205.028000,0.456000,0,IDLE/BETWEEN,Note,62,D4,A,down,0.042958,0.300730,0.793568,0.099739,-1.544057,-2.354982,1.346961,-2.181659,-0.134188,0.375133,-0.918612,-1.573526,-2.588757,-1.931991,1.706356,-2.606572,-0.056116,-0.036243,-0.016340
2205.036000,0.464000,0,IDLE/BETWEEN,Note,62,D4,A,down,0.034958,0.300707,0.793573,0.099719,-1.544009,-2.355015,1.346962,-2.181631,-0.134176,0.375163,-0.918654,-1.573523,-2.588773,-2.080728,1.914848,-2.819131,-0.063418,-0.035917,-0.016874
2205.044000,0.472000,0,IDLE/BETWEEN,Note,62,D4,A,down,0.026958,0.300716,0.793566,0.099700,-1.543988,-2.354992,1.346980,-2.181643,-0.134157,0.375175,-0.918665,-1.573516,-2.588791,-2.119703,1.808899,-2.737641,-0.062719,-0.036148,-0.016612
2205.052000,0.480000,0,IDLE/BETWEEN,Note,62,D4,A,down,0.018958,0.300707,0.793571,0.099729,-1.543967,-2.355028,1.346997,-2.181631,-0.134185,0.375153,-0.918612,-1.573539,-2.588795,-1.809003,1.700261,-2.715808,-0.057272,-0.031479,-0.018236
2205.060000,0.488000,0,IDLE/BETWEEN,Note,62,D4,A,down,0.010958,0.300722,0.793566,0.099712,-1.544024,-2.354998,1.346953,-2.181650,-0.134173,0.375175,-0.918673,-1.573523,-2.588776,-2.008229,1.735069,-2.722991,-0.058425,-0.034844,-0.016734
2205.068000,0.496000,0,IDLE/BETWEEN,Note,62,D4,A,down,0.002958,0.300707,0.793576,0.099717,-1.544053,-2.355026,1.346947,-2.181631,-0.134169,0.375150,-0.918666,-1.573535,-2.588745,-1.794959,1.757962,-2.779368,-0.058226,-0.029468,-0.016845
2205.076000,0.504000,0,IDLE/BETWEEN,Note,62,D4,A,down,0.494958,0.300729,0.793567,0.099726,-1.544058,-2.354953,1.346956,-2.181659,-0.134188,0.375169,-0.918643,-1.573500,-2.588757,-1.847698,1.698106,-2.623764,-0.056976,-0.030634,-0.017662
2205.084000,0.512000,0,IDLE/BETWEEN,Note,62,D4,A,down,0.486958,0.300722,0.793567,0.099735,-1.544015,-2.354983,1.346970,-2.181650,-0.134200,0.375172,-0.918627,-1.573516,-2.588779,-1.857468,1.711547,-2.990100,-0.064289,-0.029073,-0.019975
2205.092000,0.520000,0,IDLE/BETWEEN,Note,62,D4,A,down,0.478958,0.300706,0.793570,0.099729,-1.543994,-2.355019,1.347001,-2.181631,-0.134200,0.375184,-0.918627,-1.573539,-2.588776,-2.001662,1.968129,-2.733618,-0.063698,-0.035755,-0.016720
2205.100000,0.528000,0,IDLE/BETWEEN,Note,62,D4,A,down,0.470958,0.300706,0.793576,0.099734,-1.544004,-2.355020,1.346970,-2.181628,-0.134185,0.375141,-0.918619,-1.573526,-2.588773,-1.846542,1.547635,-2.675458,-0.055251,-0.034369,-0.020323
2205.108000,0.536000,0,IDLE/BETWEEN,Note,62,D4,A,down,0.462958,0.300717,0.793567,0.099727,-1.543984,-2.355022,1.346978,-2.181643,-0.134181,0.375153,-0.918627,-1.573539,-2.588795,-1.935393,1.615499,-2.810911,-0.056577,-0.034234,-0.019199
2205.116000,0.544000,0,IDLE/BETWEEN,Note,62,D4,A,down,0.454958,0.300701,0.793576,0.099713,-1.544009,-2.355002,1.347003,-2.181624,-0.134166,0.375153,-0.918627,-1.573523,-2.588761,-1.893488,1.855963,-2.687091,-0.063225,-0.036488,-0.020274
2205.124000,0.552000,0,IDLE/BETWEEN,Note,62,D4,A,down,0.446958,0.300705,0.793569,0.099715,-1.543991,-2.355033,1.346993,-2.181631,-0.134185,0.375188,-0.918654,-1.573546,-2.588779,-2.048602,1.772646,-2.934260,-0.064988,-0.030716,-0.018175
2205.132000,0.560000,0,IDLE/BETWEEN,Note,62,D4,A,down,0.438958,0.300728,0.793563,0.099713,-1.544025,-2.355011,1.346978,-2.181659,-0.134169,0.375160,-0.918650,-1.573550,-2.588776,-1.981050,1.807959,-2.713704,-0.059520,-0.035405,-0.014194
2205.140000,0.568000,0,IDLE/BETWEEN,Note,62,D4,A,down,0.430958,0.300713,0.793569,0.099719,-1.543980,-2.355013,1.346975,-2.181639,-0.134173,0.375157,-0.918638,-1.573526,-2.588795,-1.816073,1.668402,-2.833173,-0.058662,-0.029199,-0.018577
2205.148000,0.576000,0,IDLE/BETWEEN,Note,62,D4,A,down,0.422958,0.300690,0.793577,0.099721,-1.543969,-2.355028,1.347024,-2.181612,-0.134185,0.375172,-0.918615,-1.573535,-2.588776,-2.162422,1.883060,-2.816243,-0.064724,-0.037970,-0.014688
2205.156000,0.584000,0,IDLE/BETWEEN,Note,62,D4,A,down,0.414958,0.300688,0.793578,0.099721,-1.543983,-2.355080,1.346963,-2.181609,-0.134185,0.375172,-0.918666,-1.573554,-2.588776,-1.891138,1.844564,-2.720945,-0.063274,-0.036383,-0.023673
2205.164000,0.592000,0,IDLE/BETWEEN,Note,62,D4,A,down,0.406958,0.300719,0.793566,0.099722,-1.543997,-2.355005,1.346960,-2.181647,-0.134185,0.375175,-0.918654,-1.573523,-2.588791,-2.171780,2.002018,-2.834409,-0.065908,-0.037383,-0.013353
2205.172000,0.600000,0,IDLE/BETWEEN,Note,62,D4,A,down,0.398958,0.300716,0.793568,0.099725,-1.544000,-2.355001,1.346982,-2.181643,-0.134188,0.375172,-0.918634,-1.573526,-2.588783,-2.154045,1.870324,-2.955416,-0.062564,-0.032551,-0.014890
2205.180000,0.608000,0,IDLE/BETWEEN,Note,62,D4,A,down,0.390958,0.300694,0.793579,0.099727,-1.544003,-2.355020,1.346976,-2.181615,-0.134185,0.375157,-0.918631,-1.573519,-2.588764,-2.263110,1.941105,-2.692844,-0.064439,-0.040579,-0.014385
2205.188000,0.616000,0,IDLE/BETWEEN,Note,62,D4,A,down,0.382958,0.300732,0.793566,0.099724,-1.544066,-2.355020,1.346939,-2.181662,-0.134169,0.375130,-0.918650,-1.573554,-2.588757,-1.782122,1.758942,-2.780764,-0.063085,-0.032525,-0.023795
2205.196000,0.624000,0,IDLE/BETWEEN,Note,62,D4,A,down,0.374958,0.300704,0.793571,0.099700,-1.543979,-2.355022,1.346978,-2.181628,-0.134157,0.375172,-0.918669,-1.573526,-2.588788,-2.015094,1.934721,-2.741850,-0.060838,-0.038658,-0.017585
2205.204000,0.632000,0,IDLE/BETWEEN,Note,62,D4,A,down,0.366958,0.300704,0.793567,0.099690,-1.543948,-2.354961,1.347105,-2.181631,-0.134153,0.375188,-0.918596,-1.573523,-2.588788,-1.997116,1.802701,-2.730239,-0.061996,-0.036914,-0.018819
2205.212000,0.640000,0,IDLE/BETWEEN,Note,62,D4,A,down,0.358958,0.300714,0.793567,0.099706,-1.544017,-2.354975,1.347018,-2.181643,-0.134173,0.375184,-0.918638,-1.573523,-2.588764,-2.018699,1.692573,-2.705552,-0.059526,-0.037026,-0.017019
2205.220000,0.648000,0,IDLE/BETWEEN,Note,62,D4,A,down,0.350958,0.300696,0.793579,0.099733,-1.543993,-2.355049,1.346931,-2.181615,-0.134185,0.375145,-0.918650,-1.573523,-2.588779,-2.022123,1.932621,-2.776149,-0.062886,-0.037752,-0.019487
2205.228000,0.656000,0,IDLE/BETWEEN,Note,62,D4,A,down,0.342958,0.300718,0.793565,0.099715,-1.543983,-2.354996,1.347026,-2.181647,-0.134173,0.375163,-0.918612,-1.573539,-2.588788,-2.102738,2.039296,-2.890558,-0.067638,-0.038193,-0.016387
2205.236000,0.664000,0,IDLE/BETWEEN,Note,62,D4,A,down,0.334958,0.300733,0.793567,0.099736,-1.544062,-2.354980,1.346937,-2.181662,-0.134188,0.375141,-0.918634,-1.573519,-2.588761,-2.201827,2.012590,-2.903739,-0.063141,-0.032157,-0.009474
2205.244000,0.672000,0,IDLE/BETWEEN,Note,62,D4,A,down,0.326958,0.300711,0.793570,0.099717,-1.543980,-2.354998,1.347002,-2.181636,-0.134169,0.375153,-0.918619,-1.573523,-2.588788,-1.983118,1.932325,-2.722238,-0.061661,-0.032432,-0.016388
2205.252000,0.680000,0,IDLE/BETWEEN,Note,62,D4,A,down,0.318958,0.300705,0.793570,0.099708,-1.543988,-2.355002,1.347039,-2.181631,-0.134173,0.375179,-0.918622,-1.573539,-2.588773,-1.893681,1.809736,-2.751952,-0.058238,-0.032872,-0.015253
2205.260000,0.688000,0,IDLE/BETWEEN,Note,62,D4,A,down,0.310958,0.300705,0.793573,0.099736,-1.543989,-2.355023,1.346962,-2.181628,-0.134200,0.375169,-0.918634,-1.573523,-2.588785,-1.846798,1.759334,-2.454572,-0.057343,-0.032032,-0.016681
2205.268000,0.696000,0,IDLE/BETWEEN,Note,62,D4,A,down,0.302958,0.300708,0.793573,0.099727,-1.544003,-2.355000,1.346967,-2.181631,-0.134185,0.375160,-0.918634,-1.573511,-2.588776,-2.010221,1.849188,-2.648955,-0.057395,-0.032192,-0.014372
2205.276000,0.704000,0,IDLE/BETWEEN,Note,62,D4,A,down,0.294958,0.300692,0.793580,0.099730,-1.544007,-2.355030,1.346969,-2.181612,-0.134188,0.375157,-0.918634,-1.573523,-2.588761,-1.863135,2.091922,-2.757042,-0.065058,-0.030080,-0.014439
2205.284000,0.712000,0,IDLE/BETWEEN,Note,62,D4,A,down,0.286958,0.300687,0.793578,0.099706,-1.543986,-2.354989,1.347034,-2.181609,-0.134173,0.375188,-0.918631,-1.573508,-2.588761,-1.994465,1.901174,-2.534465,-0.060302,-0.035187,-0.014768
2205.292000,0.720000,0,IDLE/BETWEEN,Note,62,D4,A,down,0.278958,0.300691,0.793578,0.099725,-1.543976,-2.355026,1.346985,-2.181612,-0.134188,0.375172,-0.918634,-1.573519,-2.588779,-1.721503,1.856602,-3.042778,-0.064538,-0.027850,-0.019199
2205.300000,0.728000,0,IDLE/BETWEEN,Note,62,D4,A,down,0.270958,0.300689,0.793576,0.099709,-1.543972,-2.355046,1.347033,-2.181612,-0.134169,0.375169,-0.918627,-1.573554,-2.588773,-1.779604,1.433903,-2.807440,-0.058382,-0.030624,-0.021071
2205.308000,0.736000,0,IDLE/BETWEEN,Note,62,D4,A,down,0.262958,0.300701,0.793576,0.099715,-1.544007,-2.354994,1.346993,-2.181624,-0.134173,0.375163,-0.918634,-1.573512,-2.588764,-1.869777,1.575014,-2.571655,-0.053690,-0.031141,-0.018209
2205.316000,0.744000,0,IDLE/BETWEEN,Note,62,D4,A,down,0.254958,0.300689,0.793576,0.099712,-1.543987,-2.355058,1.347023,-2.181612,-0.134176,0.375172,-0.918634,-1.573563,-2.588764,-1.908852,1.785512,-2.864887,-0.061239,-0.028722,-0.012499
2205.324000,0.752000,0,IDLE/BETWEEN,Note,62,D4,A,down,0.246958,0.300703,0.793577,0.099736,-1.544016,-2.355055,1.346913,-2.181624,-0.134188,0.375145,-0.918662,-1.573532,-2.588773,-2.086754,1.807658,-2.708431,-0.061260,-0.038077,-0.013834
2205.332000,0.760000,0,IDLE/BETWEEN,Note,62,D4,A,down,0.238958,0.300700,0.793571,0.099704,-1.543961,-2.355003,1.347017,-2.181624,-0.134169,0.375188,-0.918643,-1.573519,-2.588791,-1.713296,1.656539,-2.489751,-0.056431,-0.032070,-0.016106
2205.340000,0.768000,0,IDLE/BETWEEN,Note,62,D4,A,down,0.230958,0.300704,0.793573,0.099715,-1.543994,-2.355012,1.346991,-2.181628,-0.134169,0.375157,-0.918634,-1.573526,-2.588776,-1.861523,1.520867,-2.695184,-0.055619,-0.031136,-0.017449
2205.348000,0.776000,0,IDLE/BETWEEN,Note,62,D4,A,down,0.222958,0.300697,0.793573,0.099705,-1.543995,-2.354981,1.347047,-2.181622,-0.134173,0.375188,-0.918622,-1.573519,-2.588761,-1.775623,1.475473,-2.629483,-0.053411,-0.029901,-0.021355
2205.356000,0.784000,0,IDLE/BETWEEN,Note,62,D4,A,down,0.214958,0.300681,0.793580,0.099699,-1.543956,-2.355043,1.347034,-2.181600,-0.134150,0.375157,-0.918631,-1.573539,-2.588776,-1.724326,1.680525,-2.738327,-0.060655,-0.031890,-0.021580
2205.364000,0.792000,0,IDLE/BETWEEN,Note,62,D4,A,down,0.206958,0.300720,0.793567,0.099728,-1.543987,-2.354976,1.347014,-2.181647,-0.134185,0.375157,-0.918596,-1.573519,-2.588788,-2.368731,1.963555,-2.794544,-0.063260,-0.040046,-0.010076
2205.372000,0.800000,0,IDLE/BETWEEN,Note,62,D4,A,down,0.198958,0.300719,0.793568,0.099727,-1.544020,-2.355025,1.346956,-2.181647,-0.134185,0.375157,-0.918646,-1.573542,-2.588776,-2.039331,1.710423,-2.623494,-0.060490,-0.039576,-0.015392
2205.380000,0.808000,0,IDLE/BETWEEN,Note,62,D4,A,down,0.190958,0.300691,0.793576,0.099723,-1.543956,-2.355037,1.346991,-2.181612,-0.134185,0.375172,-0.918634,-1.573527,-2.588791,-2.060383,1.749268,-2.636938,-0.060318,-0.038656,-0.015849
2205.388000,0.816000,0,IDLE/BETWEEN,Note,62,D4,A,down,0.182958,0.300705,0.793570,0.099710,-1.543982,-2.354971,1.347079,-2.181631,-0.134173,0.375172,-0.918584,-1.573528,-2.588769,-1.900901,1.914950,-2.716656,-0.061204,-0.031330,-0.017432
2205.396000,0.824000,0,IDLE/BETWEEN,Note,62,D4,A,down,0.174958,0.300707,0.793573,0.099729,-1.543995,-2.355001,1.346999,-2.181631,-0.134188,0.375160,-0.918612,-1.573523,-2.588776,-1.743877,1.831240,-2.942971,-0.064413,-0.033254,-0.024031
2205.404000,0.832000,0,IDLE/BETWEEN,Note,62,D4,A,down,0.166958,0.300717,0.793567,0.099711,-1.544030,-2.354996,1.347000,-2.181647,-0.134173,0.375172,-0.918643,-1.573539,-2.588760,-1.842727,1.700768,-2.913084,-0.061318,-0.032777,-0.018250
2205.412000,0.840000,0,IDLE/BETWEEN,Note,62,D4,A,down,0.158958,0.300689,0.793578,0.099726,-1.543951,-2.355033,1.346982,-2.181609,-0.134188,0.375172,-0.918634,-1.573516,-2.588795,-1.804167,1.504902,-2.667885,-0.053180,-0.027376,-0.019598
2205.420000,0.848000,0,IDLE/BETWEEN,Note,62,D4,A,down,0.150958,0.300705,0.793570,0.099702,-1.544006,-2.354996,1.346993,-2.181631,-0.134169,0.375191,-0.918666,-1.573519,-2.588769,-2.122569,1.560168,-2.787542,-0.055237,-0.036465,-0.016745
2205.428000,0.856000,0,IDLE/BETWEEN,Note,62,D4,A,down,0.142958,0.300679,0.793583,0.099730,-1.543971,-2.355044,1.346950,-2.181597,-0.134200,0.375188,-0.918662,-1.573507,-2.588780,-2.040597,1.842699,-2.789366,-0.059042,-0.033204,-0.011857
2205.436000,0.864000,0,IDLE/BETWEEN,Note,62,D4,A,down,0.134958,0.300716,0.793567,0.099726,-1.543983,-2.354988,1.346998,-2.181643,-0.134188,0.375172,-0.918619,-1.573519,-2.588792,-2.165085,1.939741,-2.669670,-0.061362,-0.036335,-0.011706
2205.444000,0.872000,0,IDLE/BETWEEN,Note,62,D4,A,down,0.126958,0.300707,0.793572,0.099721,-1.544011,-2.354998,1.346957,-2.181631,-0.134188,0.375184,-0.918662,-1.573507,-2.588773,-1.937884,1.977914,-2.651438,-0.062492,-0.034948,-0.020813
2205.452000,0.880000,0,IDLE/BETWEEN,Note,62,D4,A,down,0.118958,0.300694,0.793577,0.099725,-1.543979,-2.354999,1.347002,-2.181615,-0.134188,0.375172,-0.918619,-1.573507,-2.588776,-1.645121,1.785168,-2.919534,-0.064481,-0.025919,-0.023192
2205.460000,0.888000,0,IDLE/BETWEEN,Note,62,D4,A,down,0.110958,0.300698,0.793573,0.099712,-1.544011,-2.355013,1.347031,-2.181624,-0.134185,0.375192,-0.918634,-1.573543,-2.588754,-1.817705,1.584075,-2.623733,-0.057775,-0.032684,-0.021570
2205.468000,0.896000,0,IDLE/BETWEEN,Note,62,D4,A,down,0.102958,0.300690,0.793575,0.099698,-1.544008,-2.355009,1.347075,-2.181615,-0.134169,0.375191,-0.918622,-1.573550,-2.588742,-1.783296,1.764442,-2.718957,-0.058330,-0.031335,-0.021030
2205.476000,0.904000,0,IDLE/BETWEEN,Note,62,D4,A,down,0.094958,0.300712,0.793572,0.099732,-1.543994,-2.354997,1.346951,-2.181635,-0.134188,0.375157,-0.918634,-1.573504,-2.588788,-1.864381,1.580874,-2.619636,-0.056231,-0.032831,-0.021739
2205.484000,0.912000,0,IDLE/BETWEEN,Note,62,D4,A,down,0.086958,0.300708,0.793574,0.099730,-1.544022,-2.355061,1.346899,-2.181631,-0.134185,0.375153,-0.918684,-1.573539,-2.588776,-1.905822,1.697779,-2.715370,-0.057173,-0.034550,-0.018390
2205.492000,0.920000,0,IDLE/BETWEEN,Note,62,D4,A,down,0.078958,0.300710,0.793571,0.099721,-1.544012,-2.355017,1.346949,-2.181635,-0.134185,0.375175,-0.918665,-1.573523,-2.588776,-1.911287,1.788803,-2.820449,-0.059933,-0.028075,-0.020987
2205.500000,0.928000,0,IDLE/BETWEEN,Note,62,D4,A,down,0.070958,0.300708,0.793571,0.099712,-1.544017,-2.355006,1.347010,-2.181635,-0.134173,0.375169,-0.918634,-1.573539,-2.588760,-1.977284,1.787768,-2.851219,-0.061078,-0.033544,-0.020829
2205.508000,0.936000,0,IDLE/BETWEEN,Note,62,D4,A,down,0.062958,0.300731,0.793562,0.099716,-1.544024,-2.354948,1.346993,-2.181662,-0.134185,0.375188,-0.918638,-1.573508,-2.588776,-2.024685,1.827093,-2.885101,-0.063281,-0.032568,-0.012509
2205.516000,0.944000,0,IDLE/BETWEEN,Note,62,D4,A,down,0.054958,0.300706,0.793569,0.099721,-1.543985,-2.355033,1.346970,-2.181631,-0.134192,0.375191,-0.918662,-1.573535,-2.588788,-1.824670,1.784948,-2.785948,-0.060681,-0.033317,-0.023660
2205.524000,0.952000,0,IDLE/BETWEEN,Note,62,D4,A,down,0.046958,0.300695,0.793579,0.099722,-1.543999,-2.355050,1.346927,-2.181615,-0.134173,0.375148,-0.918669,-1.573523,-2.588776,-2.240126,2.066885,-2.676121,-0.065359,-0.041462,-0.010570
2205.532000,0.960000,0,IDLE/BETWEEN,Note,62,D4,A,down,0.038958,0.300709,0.793570,0.099710,-1.544008,-2.355040,1.346945,-2.181635,-0.134169,0.375172,-0.918685,-1.573539,-2.588779,-1.842746,1.924857,-2.934786,-0.067122,-0.032111,-0.018306
2205.540000,0.968000,0,IDLE/BETWEEN,Note,62,D4,A,down,0.030958,0.300695,0.793580,0.099724,-1.544010,-2.355064,1.346924,-2.181615,-0.134173,0.375141,-0.918669,-1.573535,-2.588769,-2.040548,1.822221,-2.618060,-0.059808,-0.037304,-0.014814
2205.548000,0.976000,0,IDLE/BETWEEN,Note,62,D4,A,down,0.022958,0.300719,0.793567,0.099712,-1.544010,-2.354981,1.346991,-2.181647,-0.134169,0.375165,-0.918638,-1.573519,-2.588776,-1.967261,1.829749,-2.661521,-0.058927,-0.034022,-0.014407
2205.556000,0.984000,0,IDLE/BETWEEN,Note,62,D4,A,down,0.014958,0.300706,0.793575,0.099728,-1.544014,-2.355020,1.346918,-2.181628,-0.134185,0.375160,-0.918669,-1.573508,-2.588776,-1.955186,1.998021,-2.782610,-0.063342,-0.035564,-0.017601
2205.564000,0.992000,0,IDLE/BETWEEN,Note,62,D4,A,down,0.006958,0.300693,0.793573,0.099717,-1.543943,-2.355028,1.347032,-2.181615,-0.134185,0.375184,-0.918619,-1.573535,-2.588795,-2.124315,1.898229,-2.866724,-0.062984,-0.035905,-0.015624
2205.572000,1.000000,0,IDLE/BETWEEN,Note,57,A3,A,down,0.498958,0.300707,0.793572,0.099725,-1.544004,-2.355040,1.346945,-2.181631,-0.134188,0.375172,-0.918666,-1.573535,-2.588779,-1.981366,1.946999,-2.657984,-0.063389,-0.037122,-0.018019
2205.580000,1.008000,0,IDLE/BETWEEN,Note,57,A3,A,down,0.490958,0.300710,0.793571,0.099720,-1.543997,-2.354981,1.346984,-2.181635,-0.134181,0.375172,-0.918634,-1.573504,-2.588780,-1.912537,1.704709,-2.687933,-0.058037,-0.032955,-0.015292
2205.588000,1.016000,0,IDLE/BETWEEN,Note,57,A3,A,down,0.482958,0.300695,0.793572,0.099704,-1.543957,-2.355032,1.347010,-2.181619,-0.134169,0.375188,-0.918654,-1.573535,-2.588792,-2.179548,2.054075,-2.825339,-0.066618,-0.040182,-0.017249
2205.596000,1.024000,0,IDLE/BETWEEN,Note,57,A3,A,down,0.474958,0.300717,0.793572,0.099728,-1.544046,-2.355020,1.346931,-2.181643,-0.134181,0.375148,-0.918658,-1.573532,-2.588760,-1.822869,1.783168,-2.757114,-0.062534,-0.030744,-0.020445
2205.604000,1.032000,0,IDLE/BETWEEN,Note,57,A3,A,down,0.466958,0.300717,0.793567,0.099702,-1.544023,-2.354985,1.347028,-2.181647,-0.134157,0.375160,-0.918627,-1.573539,-2.588760,-2.086865,1.922908,-2.677885,-0.062179,-0.038118,-0.013576
2205.612000,1.040000,0,IDLE/BETWEEN,Note,57,A3,A,down,0.458958,0.300707,0.793574,0.099707,-1.544023,-2.355005,1.346975,-2.181631,-0.134153,0.375145,-0.918650,-1.573523,-2.588760,-2.045851,2.005946,-2.814947,-0.061994,-0.033720,-0.015087
2205.620000,1.048000,0,IDLE/BETWEEN,Note,57,A3,A,down,0.450958,0.300718,0.793570,0.099722,-1.544020,-2.355038,1.346927,-2.181643,-0.134169,0.375141,-0.918666,-1.573539,-2.588780,-1.969790,1.796175,-2.714343,-0.062382,-0.033315,-0.017368
2205.628000,1.056000,0,IDLE/BETWEEN,Note,57,A3,A,down,0.442958,0.300718,0.793568,0.099711,-1.544045,-2.355018,1.346947,-2.181647,-0.134173,0.375172,-0.918681,-1.573539,-2.588760,-2.067146,1.741117,-2.788370,-0.057933,-0.033133,-0.016504
2205.636000,1.064000,0,IDLE/BETWEEN,Note,57,A3,A,down,0.434958,0.300727,0.793559,0.099702,-1.543967,-2.354969,1.347025,-2.181659,-0.134166,0.375188,-0.918634,-1.573523,-2.588807,-1.920871,1.822592,-2.779819,-0.061307,-0.037462,-0.021661
2205.644000,1.072000,0,IDLE/BETWEEN,Note,57,A3,A,down,0.426958,0.300703,0.793567,0.099708,-1.543982,-2.355015,1.347043,-2.181631,-0.134185,0.375203,-0.918634,-1.573550,-2.588776,-1.898486,1.819183,-2.824431,-0.059087,-0.030934,-0.016583
2205.652000,1.080000,0,IDLE/BETWEEN,Note,57,A3,A,down,0.418958,0.300703,0.793572,0.099711,-1.544000,-2.355033,1.346967,-2.181628,-0.134173,0.375175,-0.918669,-1.573535,-2.588776,-2.104821,1.707224,-2.627791,-0.059217,-0.037479,-0.013090
2205.660000,1.088000,0,IDLE/BETWEEN,Note,57,A3,A,down,0.410958,0.300736,0.793564,0.099735,-1.544037,-2.355002,1.346938,-2.181666,-0.134185,0.375138,-0.918634,-1.573535,-2.588780,-2.023913,1.987919,-2.979111,-0.066919,-0.029571,-0.015915
2205.668000,1.096000,0,IDLE/BETWEEN,Note,57,A3,A,down,0.402958,0.300707,0.793572,0.099723,-1.543991,-2.354987,1.346992,-2.181631,-0.134185,0.375172,-0.918627,-1.573508,-2.588780,-2.021962,1.627139,-2.792693,-0.058706,-0.038195,-0.024706
2205.676000,1.104000,0,IDLE/BETWEEN,Note,57,A3,A,down,0.394958,0.300704,0.793573,0.099715,-1.543991,-2.355004,1.347000,-2.181628,-0.134169,0.375157,-0.918627,-1.573523,-2.588776,-2.273375,1.817067,-2.723327,-0.059429,-0.040099,-0.012146
2205.684000,1.112000,0,IDLE/BETWEEN,Note,57,A3,A,down,0.386958,0.300705,0.793571,0.099726,-1.544014,-2.354996,1.346990,-2.181631,-0.134203,0.375200,-0.918643,-1.573519,-2.588764,-1.949328,1.789993,-2.844929,-0.063317,-0.036766,-0.016152
2205.692000,1.120000,0,IDLE/BETWEEN,Note,57,A3,A,down,0.378958,0.300704,0.793571,0.099725,-1.543975,-2.355043,1.346978,-2.181628,-0.134188,0.375172,-0.918643,-1.573542,-2.588791,-2.169733,1.741412,-2.669462,-0.057384,-0.036416,-0.017081
2205.700000,1.128000,0,IDLE/BETWEEN,Note,57,A3,A,down,0.370958,0.300710,0.793571,0.099716,-1.543996,-2.355013,1.347007,-2.181635,-0.134169,0.375153,-0.918622,-1.573539,-2.588776,-1.909564,1.740971,-2.696128,-0.061164,-0.030644,-0.022874
2205.708000,1.136000,0,IDLE/BETWEEN,Note,57,A3,A,down,0.362958,0.300704,0.793573,0.099730,-1.543992,-2.355021,1.346995,-2.181628,-0.134188,0.375157,-0.918615,-1.573535,-2.588776,-1.969865,1.690716,-2.835271,-0.060995,-0.029553,-0.017194
2205.716000,1.144000,0,IDLE/BETWEEN,Note,57,A3,A,down,0.354958,0.300709,0.793572,0.099731,-1.544035,-2.355014,1.346943,-2.181635,-0.134203,0.375188,-0.918665,-1.573523,-2.588761,-1.949094,1.952665,-2.913089,-0.064439,-0.029272,-0.012880
2205.724000,1.152000,0,IDLE/BETWEEN,Note,57,A3,A,down,0.346958,0.300723,0.793568,0.099717,-1.544035,-2.354999,1.346915,-2.181650,-0.134169,0.375157,-0.918681,-1.573511,-2.588776,-2.327688,1.882007,-2.899041,-0.063695,-0.036724,-0.009666
2205.732000,1.160000,0,IDLE/BETWEEN,Note,57,A3,A,down,0.338958,0.300710,0.793570,0.099721,-1.543995,-2.354997,1.346990,-2.181635,-0.134185,0.375175,-0.918634,-1.573519,-2.588780,-2.202092,1.743697,-2.982427,-0.062880,-0.032612,-0.012130
2205.740000,1.168000,0,IDLE/BETWEEN,Note,57,A3,A,down,0.330958,0.300715,0.793569,0.099721,-1.544039,-2.355018,1.346957,-2.181643,-0.134188,0.375179,-0.918665,-1.573539,-2.588760,-2.050153,1.764692,-2.579144,-0.061303,-0.035813,-0.016475
2205.748000,1.176000,0,IDLE/BETWEEN,Note,57,A3,A,down,0.322958,0.300709,0.793572,0.099711,-1.544018,-2.354961,1.347024,-2.181635,-0.134173,0.375172,-0.918619,-1.573508,-2.588757,-2.216181,1.913474,-3.057669,-0.064342,-0.034704,-0.013554
2205.756000,1.184000,0,IDLE/BETWEEN,Note,57,A3,A,down,0.314958,0.300696,0.793575,0.099719,-1.543997,-2.355040,1.346950,-2.181619,-0.134188,0.375188,-0.918677,-1.573526,-2.588776,-2.047576,1.511811,-2.838383,-0.055900,-0.034296,-0.017052
2205.764000,1.192000,0,IDLE/BETWEEN,Note,57,A3,A,down,0.306958,0.300703,0.793572,0.099709,-1.544003,-2.355033,1.346975,-2.181628,-0.134169,0.375172,-0.918665,-1.573539,-2.588772,-1.974196,1.719928,-2.620734,-0.060966,-0.037089,-0.020822
2205.772000,1.200000,0,IDLE/BETWEEN,Note,57,A3,A,down,0.298958,0.300705,0.793570,0.099714,-1.543985,-2.354996,1.347015,-2.181631,-0.134185,0.375191,-0.918634,-1.573523,-2.588780,-1.902361,1.871081,-2.724024,-0.061198,-0.032519,-0.018615
2205.780000,1.208000,0,IDLE/BETWEEN,Note,57,A3,A,down,0.290958,0.300704,0.793570,0.099715,-1.544010,-2.355009,1.347022,-2.181631,-0.134188,0.375191,-0.918634,-1.573542,-2.588761,-2.020852,1.508318,-2.839199,-0.054480,-0.030543,-0.011334
2205.788000,1.216000,0,IDLE/BETWEEN,Note,57,A3,A,down,0.282958,0.300717,0.793567,0.099706,-1.544041,-2.354989,1.346961,-2.181647,-0.134173,0.375188,-0.918681,-1.573519,-2.588760,-2.107777,1.760082,-2.649257,-0.063115,-0.037030,-0.017576
2205.796000,1.224000,0,IDLE/BETWEEN,Note,57,A3,A,down,0.274958,0.300723,0.793566,0.099727,-1.544004,-2.354986,1.346948,-2.181650,-0.134188,0.375172,-0.918650,-1.573507,-2.588791,-2.073904,1.740148,-2.836264,-0.058491,-0.034066,-0.017023
2205.804000,1.232000,0,IDLE/BETWEEN,Note,57,A3,A,down,0.266958,0.300706,0.793572,0.099712,-1.544011,-2.354987,1.347019,-2.181631,-0.134173,0.375169,-0.918624,-1.573523,-2.588760,-2.039995,1.475561,-2.854160,-0.059225,-0.038059,-0.024422
2205.812000,1.240000,0,IDLE/BETWEEN,Note,57,A3,A,down,0.258958,0.300702,0.793570,0.099715,-1.543985,-2.355024,1.347003,-2.181628,-0.134188,0.375196,-0.918650,-1.573539,-2.588780,-2.230586,1.865948,-2.803515,-0.062521,-0.039198,-0.016231
2205.820000,1.248000,0,IDLE/BETWEEN,Note,57,A3,A,down,0.250958,0.300706,0.793571,0.099715,-1.544000,-2.355052,1.346977,-2.181631,-0.134169,0.375153,-0.918650,-1.573558,-2.588776,-2.023541,1.637278,-3.001301,-0.065065,-0.033311,-0.021411
2205.828000,1.256000,0,IDLE/BETWEEN,Note,57,A3,A,down,0.242958,0.300717,0.793567,0.099706,-1.544024,-2.354958,1.347042,-2.181647,-0.134169,0.375175,-0.918615,-1.573523,-2.588757,-2.052256,1.633759,-2.832178,-0.061013,-0.035126,-0.019264
2205.836000,1.264000,0,IDLE/BETWEEN,Note,57,A3,A,down,0.234958,0.300719,0.793565,0.099712,-1.543969,-2.354993,1.346981,-2.181647,-0.134169,0.375172,-0.918646,-1.573516,-2.588807,-2.194340,1.713052,-2.635816,-0.056348,-0.035216,-0.013377
2205.844000,1.272000,0,IDLE/BETWEEN,Note,57,A3,A,down,0.226958,0.300693,0.793581,0.099734,-1.544011,-2.355046,1.346935,-2.181612,-0.134188,0.375148,-0.918650,-1.573523,-2.588764,-2.081297,1.783141,-2.894219,-0.060788,-0.030485,-0.014329
2205.852000,1.280000,0,IDLE/BETWEEN,Note,57,A3,A,down,0.218958,0.300706,0.793573,0.099720,-1.544026,-2.355021,1.346964,-2.181631,-0.134181,0.375169,-0.918657,-1.573532,-2.588761,-1.946773,1.738063,-2.803938,-0.059891,-0.027453,-0.018690
2205.860000,1.288000,0,IDLE/BETWEEN,Note,57,A3,A,down,0.210958,0.300705,0.793570,0.099701,-1.543981,-2.355019,1.347046,-2.181631,-0.134153,0.375157,-0.918619,-1.573554,-2.588776,-2.040489,1.801685,-2.888156,-0.059623,-0.032720,-0.015668
2205.868000,1.296000,0,IDLE/BETWEEN,Note,57,A3,A,down,0.202958,0.300703,0.793567,0.099705,-1.543929,-2.355018,1.347045,-2.181628,-0.134169,0.375184,-0.918622,-1.573539,-2.588811,-1.890306,1.394834,-2.675347,-0.051734,-0.032569,-0.022237
2205.876000,1.304000,0,IDLE/BETWEEN,Note,57,A3,A,down,0.194958,0.300694,0.793577,0.099714,-1.543991,-2.355027,1.346978,-2.181615,-0.134173,0.375169,-0.918654,-1.573523,-2.588772,-2.131229,1.683962,-2.757550,-0.057125,-0.036051,-0.018170
2205.884000,1.312000,0,IDLE/BETWEEN,Note,57,A3,A,down,0.186958,0.300710,0.793569,0.099712,-1.543970,-2.355021,1.346954,-2.181635,-0.134169,0.375172,-0.918669,-1.573519,-2.588804,-1.845730,1.252030,-2.821777,-0.053006,-0.034298,-0.031050
2205.892000,1.320000,0,IDLE/BETWEEN,Note,57,A3,A,down,0.178958,0.300723,0.793563,0.099711,-1.544002,-2.354964,1.347026,-2.181654,-0.134173,0.375175,-0.918619,-1.573523,-2.588780,-2.181854,1.514730,-2.804753,-0.056890,-0.037298,-0.018935
2205.900000,1.328000,0,IDLE/BETWEEN,Note,57,A3,A,down,0.170958,0.300707,0.793573,0.099741,-1.543969,-2.355056,1.346937,-2.181628,-0.134192,0.375141,-0.918634,-1.573535,-2.588803,-2.087277,1.538083,-2.572896,-0.053896,-0.035433,-0.014271
2205.908000,1.336000,0,IDLE/BETWEEN,Note,57,A3,A,down,0.162958,0.300703,0.793572,0.099727,-1.543989,-2.354988,1.346988,-2.181628,-0.134203,0.375200,-0.918638,-1.573504,-2.588780,-2.262096,1.652826,-2.693681,-0.057906,-0.038450,-0.016039
2205.916000,1.344000,0,IDLE/BETWEEN,Note,57,A3,A,down,0.154958,0.300706,0.793571,0.099711,-1.543993,-2.354994,1.347004,-2.181631,-0.134169,0.375169,-0.918634,-1.573519,-2.588776,-1.853378,1.528540,-2.782102,-0.055208,-0.030603,-0.020575
2205.924000,1.352000,0,IDLE/BETWEEN,Note,57,A3,A,down,0.146958,0.300721,0.793565,0.099723,-1.544004,-2.354982,1.347008,-2.181650,-0.134188,0.375175,-0.918619,-1.573528,-2.588780,-1.980257,1.896615,-2.740095,-0.060915,-0.033213,-0.016353
2205.932000,1.360000,0,IDLE/BETWEEN,Note,57,A3,A,down,0.138958,0.300719,0.793567,0.099710,-1.544015,-2.354975,1.346974,-2.181647,-0.134169,0.375172,-0.918654,-1.573508,-2.588776,-2.134764,2.006829,-2.968554,-0.062733,-0.030781,-0.015503
2205.940000,1.368000,0,IDLE/BETWEEN,Note,57,A3,A,down,0.130958,0.300718,0.793573,0.099755,-1.543996,-2.355051,1.346878,-2.181640,-0.134200,0.375126,-0.918646,-1.573523,-2.588804,-2.232273,1.913192,-2.878644,-0.061413,-0.035441,-0.014601
2205.948000,1.376000,0,IDLE/BETWEEN,Note,57,A3,A,down,0.122958,0.300705,0.793568,0.099704,-1.543966,-2.355009,1.347036,-2.181631,-0.134173,0.375191,-0.918634,-1.573539,-2.588788,-2.053273,1.578569,-2.739512,-0.056338,-0.036591,-0.017901
2205.956000,1.384000,0,IDLE/BETWEEN,Note,57,A3,A,down,0.114958,0.300717,0.793565,0.099700,-1.543991,-2.354994,1.347025,-2.181647,-0.134157,0.375169,-0.918634,-1.573539,-2.588783,-1.866339,1.613550,-2.803528,-0.057793,-0.030071,-0.019795
2205.964000,1.392000,0,IDLE/BETWEEN,Note,57,A3,A,down,0.106958,0.300690,0.793576,0.099709,-1.543970,-2.355071,1.347022,-2.181612,-0.134166,0.375160,-0.918634,-1.573570,-2.588776,-1.998022,1.659038,-2.792256,-0.058903,-0.032083,-0.016252
2205.972000,1.400000,0,IDLE/BETWEEN,Note,57,A3,A,down,0.098958,0.300709,0.793573,0.099727,-1.544030,-2.355007,1.346999,-2.181635,-0.134188,0.375160,-0.918619,-1.573539,-2.588754,-1.955395,1.835302,-2.715730,-0.062874,-0.034981,-0.016811
2205.980000,1.408000,0,IDLE/BETWEEN,Note,57,A3,A,down,0.090958,0.300722,0.793564,0.099722,-1.543986,-2.354983,1.346994,-2.181650,-0.134188,0.375182,-0.918631,-1.573519,-2.588795,-2.003694,1.647483,-2.447009,-0.056480,-0.037388,-0.015026
2205.988000,1.416000,0,IDLE/BETWEEN,Note,57,A3,A,down,0.082958,0.300728,0.793565,0.099722,-1.544043,-2.354950,1.346977,-2.181659,-0.134188,0.375179,-0.918638,-1.573504,-2.588764,-1.998936,1.898615,-2.965568,-0.064930,-0.035668,-0.021249
2205.996000,1.424000,0,IDLE/BETWEEN,Note,57,A3,A,down,0.074958,0.300712,0.793574,0.099734,-1.544012,-2.355017,1.346950,-2.181635,-0.134185,0.375141,-0.918631,-1.573523,-2.588776,-1.977865,1.916660,-2.778265,-0.060238,-0.030954,-0.011936
2206.004000,1.432000,0,IDLE/BETWEEN,Note,57,A3,A,down,0.066958,0.300701,0.793576,0.099715,-1.544012,-2.355002,1.346992,-2.181624,-0.134169,0.375157,-0.918634,-1.573519,-2.588760,-2.165321,1.753438,-2.742792,-0.061256,-0.036513,-0.018493
2206.012000,1.440000,0,IDLE/BETWEEN,Note,57,A3,A,down,0.058958,0.300712,0.793571,0.099716,-1.544028,-2.355019,1.346961,-2.181639,-0.134173,0.375160,-0.918658,-1.573535,-2.588764,-2.191112,1.922042,-2.929483,-0.061681,-0.033315,-0.014780
2206.020000,1.448000,0,IDLE/BETWEEN,Note,57,A3,A,down,0.050958,0.300706,0.793573,0.099716,-1.544013,-2.354989,1.347013,-2.181631,-0.134173,0.375160,-0.918619,-1.573523,-2.588760,-2.075852,1.932032,-2.940830,-0.061041,-0.028197,-0.014817
2206.028000,1.456000,0,IDLE/BETWEEN,Note,57,A3,A,down,0.042958,0.300709,0.793568,0.099712,-1.543973,-2.354999,1.347006,-2.181635,-0.134173,0.375175,-0.918634,-1.573523,-2.588792,-1.934295,1.703387,-2.636211,-0.057235,-0.034942,-0.015653
2206.036000,1.464000,0,IDLE/BETWEEN,Note,57,A3,A,down,0.034958,0.300705,0.793577,0.099740,-1.544034,-2.355025,1.346926,-2.181628,-0.134200,0.375157,-0.918650,-1.573519,-2.588760,-2.047903,2.066877,-3.020505,-0.068978,-0.029431,-0.015732
2206.044000,1.472000,0,IDLE/BETWEEN,Note,57,A3,A,down,0.026958,0.300693,0.793575,0.099724,-1.543958,-2.355046,1.346995,-2.181615,-0.134188,0.375175,-0.918634,-1.573539,-2.588792,-2.008131,1.570459,-2.728410,-0.056666,-0.037153,-0.020114
2206.052000,1.480000,0,IDLE/BETWEEN,Note,57,A3,A,down,0.018958,0.300687,0.793575,0.099688,-1.543986,-2.355028,1.347063,-2.181612,-0.134153,0.375188,-0.918643,-1.573554,-2.588757,-1.997198,1.667640,-2.892459,-0.057367,-0.032437,-0.019107
2206.060000,1.488000,0,IDLE/BETWEEN,Note,57,A3,A,down,0.010958,0.300721,0.793565,0.099707,-1.544018,-2.354975,1.346975,-2.181650,-0.134173,0.375188,-0.918666,-1.573512,-2.588776,-2.014651,1.648900,-2.567031,-0.057232,-0.040187,-0.017536
2206.068000,1.496000,0,IDLE/BETWEEN,Note,57,A3,A,down,0.002958,0.300692,0.793576,0.099717,-1.544003,-2.355016,1.346995,-2.181615,-0.134188,0.375191,-0.918650,-1.573523,-2.588760,-2.081403,1.986701,-2.885980,-0.066612,-0.036265,-0.013749
2206.076000,1.504000,0,IDLE/BETWEEN,Note,57,A3,A,down,0.494958,0.300719,0.793567,0.099716,-1.544011,-2.354986,1.346990,-2.181647,-0.134173,0.375163,-0.918634,-1.573523,-2.588776,-2.239635,1.955589,-2.833192,-0.061036,-0.038884,-0.012142
2206.084000,1.512000,0,IDLE/BETWEEN,Note,57,A3,A,down,0.486958,0.300694,0.793574,0.099710,-1.543947,-2.355032,1.346991,-2.181615,-0.134169,0.375175,-0.918650,-1.573523,-2.588800,-2.282049,1.952003,-2.882334,-0.063260,-0.037879,-0.013061
2206.092000,1.520000,0,IDLE/BETWEEN,Note,57,A3,A,down,0.478958,0.300727,0.793564,0.099702,-1.544037,-2.354976,1.347016,-2.181659,-0.134153,0.375153,-0.918631,-1.573539,-2.588760,-2.005893,1.746846,-2.820374,-0.059180,-0.032772,-0.019065
2206.100000,1.528000,0,IDLE/BETWEEN,Note,57,A3,A,down,0.470958,0.300713,0.793569,0.099722,-1.543997,-2.354978,1.347017,-2.181640,-0.134185,0.375172,-0.918612,-1.573519,-2.588776,-2.032140,1.677760,-2.614629,-0.054024,-0.033568,-0.014835
2206.108000,1.536000,0,IDLE/BETWEEN,Note,57,A3,A,down,0.462958,0.300723,0.793566,0.099728,-1.544006,-2.355009,1.346938,-2.181650,-0.134185,0.375160,-0.918654,-1.573523,-2.588792,-1.817850,1.799577,-2.773089,-0.062228,-0.032122,-0.017611
2206.116000,1.544000,0,IDLE/BETWEEN,Note,57,A3,A,down,0.454958,0.300709,0.793570,0.099726,-1.544000,-2.354999,1.346993,-2.181635,-0.134192,0.375175,-0.918627,-1.573523,-2.588776,-2.091129,1.977295,-2.747955,-0.067582,-0.040833,-0.014637
2206.124000,1.552000,0,IDLE/BETWEEN,Note,57,A3,A,down,0.446958,0.300708,0.793573,0.099715,-1.544013,-2.355021,1.346930,-2.181631,-0.134169,0.375160,-0.918677,-1.573516,-2.588776,-2.122646,1.955033,-2.782432,-0.060954,-0.040524,-0.015969
2206.132000,1.560000,0,IDLE/BETWEEN,Note,57,A3,A,down,0.438958,0.300708,0.793568,0.099705,-1.543984,-2.354976,1.347048,-2.181635,-0.134173,0.375188,-0.918619,-1.573523,-2.588776,-1.995385,1.948776,-2.859727,-0.064442,-0.039550,-0.019555
2206.140000,1.568000,0,IDLE/BETWEEN,Note,57,A3,A,down,0.430958,0.300703,0.793576,0.099721,-1.544046,-2.355009,1.346962,-2.181628,-0.134185,0.375172,-0.918658,-1.573523,-2.588745,-2.139728,1.934811,-2.793122,-0.063016,-0.040181,-0.018441
2206.148000,1.576000,0,IDLE/BETWEEN,Note,57,A3,A,down,0.422958,0.300719,0.793570,0.099727,-1.544039,-2.354984,1.346971,-2.181647,-0.134185,0.375157,-0.918631,-1.573519,-2.588760,-1.885391,1.809539,-2.540958,-0.056750,-0.038065,-0.018530
2206.156000,1.584000,0,IDLE/BETWEEN,Note,57,A3,A,down,0.414958,0.300719,0.793568,0.099725,-1.544017,-2.354983,1.346985,-2.181647,-0.134185,0.375165,-0.918627,-1.573519,-2.588772,-2.127599,2.055567,-2.890321,-0.066973,-0.034647,-0.015958
2206.164000,1.592000,0,IDLE/BETWEEN,Note,57,A3,A,down,0.406958,0.300705,0.793574,0.099725,-1.543995,-2.354987,1.346986,-2.181628,-0.134188,0.375172,-0.918627,-1.573504,-2.588776,-1.950317,1.858951,-2.721447,-0.061771,-0.033729,-0.015685
2206.172000,1.600000,0,IDLE/BETWEEN,Note,57,A3,A,down,0.398958,0.300708,0.793574,0.099732,-1.544002,-2.355012,1.346972,-2.181631,-0.134185,0.375145,-0.918619,-1.573523,-2.588776,-2.020526,1.749692,-2.552302,-0.054572,-0.033621,-0.016448
2206.180000,1.608000,0,IDLE/BETWEEN,Note,57,A3,A,down,0.390958,0.300708,0.793575,0.099731,-1.544034,-2.355006,1.346939,-2.181631,-0.134188,0.375157,-0.918650,-1.573511,-2.588760,-2.025771,2.023937,-2.665278,-0.065401,-0.035453,-0.012222
2206.188000,1.616000,0,IDLE/BETWEEN,Note,57,A3,A,down,0.382958,0.300693,0.793576,0.099716,-1.543972,-2.355028,1.347025,-2.181615,-0.134173,0.375160,-0.918615,-1.573539,-2.588776,-2.138597,2.187107,-2.711416,-0.064074,-0.035758,-0.012006
2206.196000,1.624000,0,IDLE/BETWEEN,Note,57,A3,A,down,0.374958,0.300720,0.793568,0.099728,-1.543996,-2.354991,1.346961,-2.181647,-0.134185,0.375160,-0.918634,-1.573512,-2.588792,-1.888946,1.947062,-2.587655,-0.059030,-0.036491,-0.016620
2206.204000,1.632000,0,IDLE/BETWEEN,Note,57,A3,A,down,0.366958,0.300705,0.793575,0.099730,-1.544023,-2.355051,1.346928,-2.181628,-0.134188,0.375157,-0.918665,-1.573539,-2.588768,-2.194794,2.000806,-2.902827,-0.068143,-0.037380,-0.013277
2206.212000,1.640000,0,IDLE/BETWEEN,Note,57,A3,A,down,0.358958,0.300719,0.793567,0.099726,-1.544007,-2.355009,1.346985,-2.181647,-0.134185,0.375160,-0.918627,-1.573539,-2.588780,-2.116664,1.862755,-2.764156,-0.060286,-0.037241,-0.014945
2206.220000,1.648000,0,IDLE/BETWEEN,Note,57,A3,A,down,0.350958,0.300700,0.793576,0.099716,-1.543986,-2.354988,1.346999,-2.181622,-0.134169,0.375157,-0.918622,-1.573504,-2.588776,-2.033145,1.916635,-2.782793,-0.064568,-0.038661,-0.015891
2206.228000,1.656000,0,IDLE/BETWEEN,Note,57,A3,A,down,0.342958,0.300720,0.793567,0.099727,-1.544004,-2.355008,1.346931,-2.181647,-0.134188,0.375172,-0.918665,-1.573516,-2.588792,-1.992269,1.784413,-2.669779,-0.057046,-0.034285,-0.018930
2206.236000,1.664000,0,IDLE/BETWEEN,Note,57,A3,A,down,0.334958,0.300716,0.793569,0.099735,-1.544026,-2.355012,1.346967,-2.181643,-0.134200,0.375169,-0.918634,-1.573535,-2.588768,-1.758446,1.656580,-2.708665,-0.057696,-0.027645,-0.020015
2206.244000,1.672000,0,IDLE/BETWEEN,Note,57,A3,A,down,0.326958,0.300704,0.793573,0.099713,-1.543990,-2.355011,1.346986,-2.181628,-0.134169,0.375163,-0.918643,-1.573523,-2.588780,-2.008735,1.641902,-2.605136,-0.052795,-0.033610,-0.017144
2206.252000,1.680000,0,IDLE/BETWEEN,Note,57,A3,A,down,0.318958,0.300691,0.793573,0.099698,-1.543961,-2.354988,1.347066,-2.181615,-0.134173,0.375207,-0.918627,-1.573519,-2.588776,-1.995450,1.807171,-3.005581,-0.065815,-0.032359,-0.014841
2206.260000,1.688000,0,IDLE/BETWEEN,Note,57,A3,A,down,0.310958,0.300707,0.793575,0.099728,-1.544024,-2.355001,1.346974,-2.181631,-0.134185,0.375153,-0.918627,-1.573519,-2.588760,-1.975306,1.647984,-2.740587,-0.059944,-0.033807,-0.021331
2206.268000,1.696000,0,IDLE/BETWEEN,Note,57,A3,A,down,0.302958,0.300731,0.793564,0.099714,-1.544043,-2.354951,1.347006,-2.181662,-0.134169,0.375157,-0.918619,-1.573519,-2.588760,-1.895464,1.713170,-2.573965,-0.054679,-0.034378,-0.016063
2206.276000,1.704000,0,IDLE/BETWEEN,Note,57,A3,A,down,0.294958,0.300708,0.793572,0.099728,-1.543978,-2.355015,1.346960,-2.181631,-0.134185,0.375160,-0.918638,-1.573516,-2.588795,-1.904605,1.878068,-2.808874,-0.063758,-0.033352,-0.016205
2206.284000,1.712000,0,IDLE/BETWEEN,Note,57,A3,A,down,0.286958,0.300705,0.793572,0.099718,-1.544013,-2.354985,1.347012,-2.181631,-0.134188,0.375188,-0.918631,-1.573519,-2.588760,-1.936747,1.792021,-2.831690,-0.059111,-0.033786,-0.017299
2206.292000,1.720000,0,IDLE/BETWEEN,Note,57,A3,A,down,0.278958,0.300694,0.793577,0.099704,-1.543972,-2.355002,1.346992,-2.181615,-0.134157,0.375163,-0.918646,-1.573504,-2.588783,-2.132987,1.788722,-2.702693,-0.058180,-0.036673,-0.016503
2206.300000,1.728000,0,IDLE/BETWEEN,Note,57,A3,A,down,0.270958,0.300728,0.793566,0.099716,-1.544053,-2.354968,1.346973,-2.181659,-0.134173,0.375160,-0.918643,-1.573519,-2.588757,-2.077658,1.826791,-2.883903,-0.060307,-0.032326,-0.017362
2206.308000,1.736000,0,IDLE/BETWEEN,Note,57,A3,A,down,0.262958,0.300693,0.793575,0.099715,-1.543973,-2.355044,1.347021,-2.181615,-0.134176,0.375169,-0.918627,-1.573551,-2.588776,-2.090303,1.979851,-2.820513,-0.062573,-0.037050,-0.015716
2206.316000,1.744000,0,IDLE/BETWEEN,Note,57,A3,A,down,0.254958,0.300712,0.793572,0.099735,-1.543990,-2.355024,1.346947,-2.181635,-0.134185,0.375141,-0.918631,-1.573523,-2.588792,-1.888387,1.745350,-2.672731,-0.058591,-0.030775,-0.014341
2206.324000,1.752000,0,IDLE/BETWEEN,Note,57,A3,A,down,0.246958,0.300709,0.793571,0.099712,-1.544024,-2.354996,1.346986,-2.181635,-0.134173,0.375172,-0.918650,-1.573523,-2.588760,-2.218133,1.933541,-2.665770,-0.063858,-0.043348,-0.019407
2206.332000,1.760000,0,IDLE/BETWEEN,Note,57,A3,A,down,0.238958,0.300699,0.793574,0.099707,-1.543999,-2.354986,1.347041,-2.181624,-0.134169,0.375175,-0.918619,-1.573523,-2.588760,-2.091109,1.902395,-2.715586,-0.060768,-0.039032,-0.017802
2206.340000,1.768000,0,IDLE/BETWEEN,Note,57,A3,A,down,0.230958,0.300703,0.793572,0.099708,-1.543990,-2.354980,1.347021,-2.181628,-0.134169,0.375175,-0.918627,-1.573511,-2.588772,-2.317200,2.145385,-2.778086,-0.066829,-0.043897,-0.015078
2206.348000,1.776000,0,IDLE/BETWEEN,Note,57,A3,A,down,0.222958,0.300709,0.793567,0.099722,-1.543952,-2.355005,1.347004,-2.181635,-0.134192,0.375192,-0.918631,-1.573523,-2.588807,-1.935106,1.642716,-2.562654,-0.059393,-0.034503,-0.018543
2206.356000,1.784000,0,IDLE/BETWEEN,Note,57,A3,A,down,0.214958,0.300712,0.793570,0.099720,-1.544025,-2.354982,1.347014,-2.181640,-0.134185,0.375172,-0.918619,-1.573526,-2.588757,-2.139802,1.734133,-2.617264,-0.056831,-0.039328,-0.016428
2206.364000,1.792000,0,IDLE/BETWEEN,Note,57,A3,A,down,0.206958,0.300709,0.793572,0.099711,-1.544030,-2.355001,1.346963,-2.181635,-0.134169,0.375169,-0.918665,-1.573519,-2.588760,-1.608274,1.508876,-2.671081,-0.053644,-0.027718,-0.029447
2206.372000,1.800000,0,IDLE/BETWEEN,Note,57,A3,A,down,0.198958,0.300735,0.793561,0.099725,-1.544017,-2.354999,1.346946,-2.181666,-0.134185,0.375165,-0.918654,-1.573532,-2.588792,-1.900445,1.689538,-2.776007,-0.060249,-0.034803,-0.019752
2206.380000,1.808000,0,IDLE/BETWEEN,Note,57,A3,A,down,0.190958,0.300690,0.793583,0.099732,-1.544023,-2.355078,1.346919,-2.181609,-0.134185,0.375145,-0.918669,-1.573542,-2.588757,-2.257250,1.874144,-2.722558,-0.061333,-0.036527,-0.013970
2206.388000,1.816000,0,IDLE/BETWEEN,Note,57,A3,A,down,0.182958,0.300719,0.793565,0.099711,-1.543990,-2.355004,1.346965,-2.181647,-0.134169,0.375172,-0.918662,-1.573523,-2.588795,-2.022720,1.704415,-2.641913,-0.060611,-0.041995,-0.020176
2206.396000,1.824000,0,IDLE/BETWEEN,Note,57,A3,A,down,0.174958,0.300716,0.793570,0.099716,-1.544032,-2.354994,1.347001,-2.181643,-0.134173,0.375157,-0.918627,-1.573535,-2.588757,-2.078116,1.575898,-2.572483,-0.053070,-0.035815,-0.015504
2206.404000,1.832000,0,IDLE/BETWEEN,Note,57,A3,A,down,0.166958,0.300724,0.793571,0.099730,-1.544055,-2.355034,1.346903,-2.181650,-0.134173,0.375126,-0.918665,-1.573539,-2.588764,-1.903232,1.577001,-2.542616,-0.056793,-0.039547,-0.020440
2206.412000,1.840000,0,IDLE/BETWEEN,Note,57,A3,A,down,0.158958,0.300706,0.793573,0.099722,-1.544029,-2.355014,1.346953,-2.181631,-0.134188,0.375179,-0.918665,-1.573523,-2.588760,-1.869072,1.492447,-2.585231,-0.053443,-0.035918,-0.021143
2206.420000,1.848000,0,IDLE/BETWEEN,Note,57,A3,A,down,0.150958,0.300707,0.793571,0.099706,-1.543988,-2.355014,1.346984,-2.181631,-0.134157,0.375157,-0.918650,-1.573526,-2.588783,-1.845714,1.671817,-2.700248,-0.060043,-0.037211,-0.020281
2206.428000,1.856000,0,IDLE/BETWEEN,Note,57,A3,A,down,0.142958,0.300708,0.793574,0.099721,-1.544013,-2.355034,1.346911,-2.181631,-0.134173,0.375153,-0.918681,-1.573519,-2.588780,-2.312453,1.788800,-2.604715,-0.059354,-0.042614,-0.013810
2206.436000,1.864000,0,IDLE/BETWEEN,Note,57,A3,A,down,0.134958,0.300704,0.793572,0.099722,-1.543976,-2.355017,1.346972,-2.181628,-0.134185,0.375175,-0.918646,-1.573519,-2.588792,-1.672958,1.753005,-2.685607,-0.058899,-0.029946,-0.021381
2206.444000,1.872000,0,IDLE/BETWEEN,Note,57,A3,A,down,0.126958,0.300715,0.793567,0.099719,-1.544001,-2.354981,1.346995,-2.181643,-0.134188,0.375188,-0.918638,-1.573516,-2.588780,-1.893368,1.844147,-2.663203,-0.064820,-0.035589,-0.021138
2206.452000,1.880000,0,IDLE/BETWEEN,Note,57,A3,A,down,0.118958,0.300681,0.793587,0.099727,-1.543997,-2.355057,1.346957,-2.181597,-0.134169,0.375126,-0.918634,-1.573526,-2.588760,-2.129514,1.867096,-2.689150,-0.064248,-0.037788,-0.014810
2206.460000,1.888000,0,IDLE/BETWEEN,Note,57,A3,A,down,0.110958,0.300716,0.793564,0.099715,-1.543950,-2.355015,1.347001,-2.181643,-0.134173,0.375169,-0.918631,-1.573535,-2.588814,-1.809962,1.702081,-2.625407,-0.058894,-0.036079,-0.021644
2206.468000,1.896000,0,IDLE/BETWEEN,Note,57,A3,A,down,0.102958,0.300707,0.793570,0.099709,-1.543986,-2.355020,1.346964,-2.181631,-0.134169,0.375175,-0.918669,-1.573523,-2.588788,-2.054904,1.788527,-2.509079,-0.057270,-0.036214,-0.013661
2206.476000,1.904000,0,IDLE/BETWEEN,Note,57,A3,A,down,0.094958,0.300707,0.793571,0.099722,-1.543989,-2.355010,1.346982,-2.181631,-0.134185,0.375172,-0.918638,-1.573523,-2.588783,-2.066978,1.744402,-2.566327,-0.056703,-0.036713,-0.015944
2206.484000,1.912000,0,IDLE/BETWEEN,Note,57,A3,A,down,0.086958,0.300704,0.793574,0.099725,-1.544018,-2.355025,1.346983,-2.181628,-0.134185,0.375160,-0.918634,-1.573539,-2.588760,-2.011227,1.838666,-2.757792,-0.060609,-0.035389,-0.015545
2206.492000,1.920000,0,IDLE/BETWEEN,Note,57,A3,A,down,0.078958,0.300734,0.793568,0.099748,-1.544089,-2.355027,1.346876,-2.181662,-0.134200,0.375134,-0.918665,-1.573539,-2.588754,-1.912636,1.751246,-2.719438,-0.059596,-0.040184,-0.023539
2206.500000,1.928000,0,IDLE/BETWEEN,Note,57,A3,A,down,0.070958,0.300704,0.793570,0.099708,-1.543955,-2.355023,1.347012,-2.181628,-0.134166,0.375169,-0.918634,-1.573535,-2.588799,-2.124716,1.988789,-2.756409,-0.063902,-0.030797,-0.012563
2206.508000,1.936000,0,IDLE/BETWEEN,Note,57,A3,A,down,0.062958,0.300706,0.793568,0.099708,-1.543952,-2.355010,1.347032,-2.181631,-0.134169,0.375175,-0.918622,-1.573535,-2.588799,-1.952760,1.707664,-2.596642,-0.059632,-0.038618,-0.020467
2206.516000,1.944000,0,IDLE/BETWEEN,Note,57,A3,A,down,0.054958,0.300716,0.793568,0.099702,-1.543995,-2.354944,1.347035,-2.181643,-0.134153,0.375160,-0.918612,-1.573500,-2.588776,-2.029180,1.908127,-2.696710,-0.061898,-0.033860,-0.015426
2206.524000,1.952000,0,IDLE/BETWEEN,Note,57,A3,A,down,0.046958,0.300712,0.793563,0.099694,-1.543982,-2.354967,1.347083,-2.181643,-0.134169,0.375207,-0.918619,-1.573535,-2.588776,-2.054681,1.690517,-2.736592,-0.059093,-0.036033,-0.018793
2206.532000,1.960000,0,IDLE/BETWEEN,Note,57,A3,A,down,0.038958,0.300709,0.793572,0.099724,-1.544020,-2.355000,1.346980,-2.181635,-0.134188,0.375172,-0.918638,-1.573523,-2.588764,-1.922038,1.550708,-2.681517,-0.059208,-0.036577,-0.019264
2206.540000,1.968000,0,IDLE/BETWEEN,Note,57,A3,A,down,0.030958,0.300718,0.793565,0.099718,-1.543994,-2.355012,1.346988,-2.181647,-0.134181,0.375175,-0.918643,-1.573539,-2.588788,-2.103378,1.955363,-2.720861,-0.063363,-0.034783,-0.009301
2206.548000,1.976000,0,IDLE/BETWEEN,Note,57,A3,A,down,0.022958,0.300697,0.793577,0.099738,-1.544008,-2.355029,1.346971,-2.181619,-0.134203,0.375169,-0.918629,-1.573528,-2.588764,-2.074139,1.880108,-2.639778,-0.058946,-0.038823,-0.016082
2206.556000,1.984000,0,IDLE/BETWEEN,Note,57,A3,A,down,0.014958,0.300696,0.793577,0.099724,-1.543972,-2.355072,1.346925,-2.181615,-0.134173,0.375146,-0.918669,-1.573535,-2.588795,-1.856428,1.773576,-2.666091,-0.057052,-0.036184,-0.020437
2206.564000,1.992000,0,IDLE/BETWEEN,Note,57,A3,A,down,0.006958,0.300731,0.793562,0.099720,-1.544030,-2.354966,1.346993,-2.181662,-0.134185,0.375175,-0.918631,-1.573523,-2.588772,-1.842393,1.595390,-2.597436,-0.054910,-0.038201,-0.022942
2206.572000,2.000000,0,IDLE/BETWEEN,Note,59,B3,A,down,0.248958,0.300706,0.793569,0.099718,-1.543965,-2.354992,1.347023,-2.181631,-0.134188,0.375192,-0.918622,-1.573519,-2.588792,-2.019955,1.616355,-2.814301,-0.059451,-0.034902,-0.018126
2206.580000,2.008000,0,IDLE/BETWEEN,Note,59,B3,A,down,0.240958,0.300707,0.793573,0.099717,-1.544017,-2.355033,1.346952,-2.181631,-0.134173,0.375160,-0.918665,-1.573535,-2.588769,-2.220444,1.952616,-2.990419,-0.064610,-0.035194,-0.012858
2206.588000,2.016000,0,IDLE/BETWEEN,Note,59,B3,A,down,0.232958,0.300702,0.793570,0.099707,-1.543978,-2.355009,1.347028,-2.181628,-0.134173,0.375184,-0.918634,-1.573535,-2.588780,-2.041563,1.805921,-2.852738,-0.065497,-0.035762,-0.015730
2206.596000,2.024000,0,IDLE/BETWEEN,Note,59,B3,A,down,0.224958,0.300728,0.793557,0.099702,-1.544003,-2.354997,1.347049,-2.181662,-0.134173,0.375192,-0.918631,-1.573566,-2.588780,-1.884878,1.820006,-2.804710,-0.061468,-0.032723,-0.018515
2206.604000,2.032000,0,IDLE/BETWEEN,Note,59,B3,A,down,0.216958,0.300720,0.793571,0.099723,-1.544043,-2.355005,1.346935,-2.181647,-0.134173,0.375145,-0.918657,-1.573523,-2.588764,-1.877151,1.595313,-2.749270,-0.056639,-0.031140,-0.018130
2206.612000,2.040000,0,IDLE/BETWEEN,Note,59,B3,A,down,0.208958,0.300704,0.793573,0.099714,-1.543996,-2.355003,1.346981,-2.181628,-0.134173,0.375169,-0.918646,-1.573516,-2.588776,-2.122561,1.839015,-2.881179,-0.062488,-0.035057,-0.015307
2206.620000,2.048000,0,IDLE/BETWEEN,Note,59,B3,A,down,0.200958,0.300704,0.793573,0.099722,-1.544002,-2.355036,1.346961,-2.181628,-0.134185,0.375172,-0.918658,-1.573535,-2.588776,-2.214345,1.749632,-2.903832,-0.059808,-0.036620,-0.018556
2206.628000,2.056000,0,IDLE/BETWEEN,Note,59,B3,A,down,0.192958,0.300719,0.793568,0.099732,-1.544027,-2.354997,1.346951,-2.181647,-0.134200,0.375179,-0.918650,-1.573519,-2.588772,-2.136913,1.981388,-2.754401,-0.064439,-0.036848,-0.015344
2206.636000,2.064000,0,IDLE/BETWEEN,Note,59,B3,A,down,0.184958,0.300722,0.793564,0.099710,-1.544023,-2.354989,1.347031,-2.181654,-0.134173,0.375172,-0.918622,-1.573550,-2.588764,-2.065013,1.679108,-2.665536,-0.058137,-0.036408,-0.018811
2206.644000,2.072000,0,IDLE/BETWEEN,Note,59,B3,A,down,0.176958,0.300709,0.793571,0.099721,-1.544031,-2.355027,1.346959,-2.181635,-0.134188,0.375179,-0.918666,-1.573539,-2.588760,-1.979749,1.601791,-2.686614,-0.058570,-0.037191,-0.018732
2206.652000,2.080000,0,IDLE/BETWEEN,Note,59,B3,A,down,0.168958,0.300714,0.793571,0.099740,-1.544019,-2.355007,1.346956,-2.181640,-0.134207,0.375172,-0.918634,-1.573523,-2.588772,-1.955825,1.576803,-2.619835,-0.054639,-0.034703,-0.020261
2206.660000,2.088000,0,IDLE/BETWEEN,Note,59,B3,A,down,0.160958,0.300731,0.793561,0.099710,-1.544014,-2.354993,1.346967,-2.181662,-0.134169,0.375172,-0.918662,-1.573532,-2.588788,-2.141315,1.725870,-2.811311,-0.060885,-0.037561,-0.016984
2206.668000,2.096000,0,IDLE/BETWEEN,Note,59,B3,A,down,0.152958,0.300718,0.793566,0.099718,-1.544005,-2.354989,1.347010,-2.181647,-0.134185,0.375179,-0.918627,-1.573532,-2.588776,-1.992051,1.699441,-2.886595,-0.062920,-0.034067,-0.018778
2206.676000,2.104000,0,IDLE/BETWEEN,Note,59,B3,A,down,0.144958,0.300691,0.793579,0.099716,-1.543994,-2.355015,1.346998,-2.181612,-0.134173,0.375160,-0.918631,-1.573519,-2.588764,-1.829458,1.746072,-2.872917,-0.058422,-0.027903,-0.015390
2206.684000,2.112000,0,IDLE/BETWEEN,Note,59,B3,A,down,0.136958,0.300706,0.793572,0.099712,-1.544005,-2.355027,1.346979,-2.181631,-0.134166,0.375157,-0.918650,-1.573539,-2.588772,-2.020395,1.906586,-2.980571,-0.065447,-0.037259,-0.020927
2206.692000,2.120000,0,IDLE/BETWEEN,Note,59,B3,A,down,0.128958,0.300708,0.793574,0.099731,-1.544009,-2.355014,1.346963,-2.181631,-0.134188,0.375157,-0.918634,-1.573523,-2.588772,-2.097247,1.627816,-2.697076,-0.056998,-0.035467,-0.019333
2206.700000,2.128000,0,IDLE/BETWEEN,Note,59,B3,A,down,0.120958,0.300720,0.793569,0.099730,-1.544006,-2.354951,1.347008,-2.181647,-0.134188,0.375160,-0.918596,-1.573500,-2.588776,-2.224181,1.800145,-2.834227,-0.065395,-0.041571,-0.015027
2206.708000,2.136000,0,IDLE/BETWEEN,Note,59,B3,A,down,0.112958,0.300702,0.793570,0.099687,-1.543995,-2.354997,1.347003,-2.181628,-0.134153,0.375198,-0.918681,-1.573519,-2.588772,-1.790252,1.706175,-2.923638,-0.059753,-0.027727,-0.019623
2206.716000,2.144000,0,IDLE/BETWEEN,Note,59,B3,A,down,0.104958,0.300716,0.793567,0.099717,-1.543987,-2.355027,1.346983,-2.181643,-0.134173,0.375160,-0.918641,-1.573546,-2.588792,-2.064692,1.991263,-2.743753,-0.063276,-0.036854,-0.014036
2206.724000,2.152000,0,IDLE/BETWEEN,Note,59,B3,A,down,0.096958,0.300707,0.793573,0.099739,-1.544007,-2.355031,1.346970,-2.181631,-0.134203,0.375165,-0.918627,-1.573539,-2.588772,-2.209376,1.924876,-2.796697,-0.062527,-0.040303,-0.013168
2206.732000,2.160000,0,IDLE/BETWEEN,Note,59,B3,A,down,0.088958,0.300717,0.793565,0.099722,-1.544003,-2.355007,1.347001,-2.181647,-0.134192,0.375184,-0.918634,-1.573542,-2.588780,-2.169384,1.780326,-2.752131,-0.058773,-0.032318,-0.015781
2206.740000,2.168000,0,IDLE/BETWEEN,Note,59,B3,A,down,0.080958,0.300698,0.793574,0.099729,-1.543972,-2.355062,1.346939,-2.181619,-0.134192,0.375172,-0.918665,-1.573535,-2.588795,-2.136481,1.777463,-2.866325,-0.059803,-0.035953,-0.014638
2206.748000,2.176000,0,IDLE/BETWEEN,Note,59,B3,A,down,0.072958,0.300716,0.793568,0.099723,-1.544005,-2.355004,1.346963,-2.181643,-0.134185,0.375172,-0.918650,-1.573523,-2.588783,-1.867199,1.479355,-2.896137,-0.058004,-0.026571,-0.016878
2206.756000,2.184000,0,IDLE/BETWEEN,Note,59,B3,A,down,0.064958,0.300718,0.793567,0.099723,-1.544022,-2.355015,1.346966,-2.181647,-0.134185,0.375169,-0.918650,-1.573539,-2.588772,-2.009218,1.624630,-2.883574,-0.061607,-0.034721,-0.017425
2206.764000,2.192000,0,IDLE/BETWEEN,Note,59,B3,A,down,0.056958,0.300677,0.793579,0.099702,-1.543944,-2.355029,1.347066,-2.181597,-0.134169,0.375188,-0.918619,-1.573535,-2.588776,-1.955902,1.535742,-2.864341,-0.057729,-0.029753,-0.018603
2206.772000,2.200000,0,IDLE/BETWEEN,Note,59,B3,A,down,0.048958,0.300711,0.793568,0.099706,-1.543993,-2.354995,1.347029,-2.181639,-0.134166,0.375172,-0.918627,-1.573535,-2.588776,-2.348588,2.004199,-3.117659,-0.070363,-0.035517,-0.012662
2206.780000,2.208000,0,IDLE/BETWEEN,Note,59,B3,A,down,0.040958,0.300735,0.793562,0.099730,-1.544015,-2.354975,1.346975,-2.181666,-0.134188,0.375160,-0.918622,-1.573523,-2.588788,-2.237413,1.826989,-2.825664,-0.062166,-0.036536,-0.015912
2206.788000,2.216000,0,IDLE/BETWEEN,Note,59,B3,A,down,0.032958,0.300704,0.793574,0.099729,-1.544019,-2.355041,1.346978,-2.181628,-0.134188,0.375157,-0.918634,-1.573550,-2.588760,-2.135840,1.828867,-2.817772,-0.057346,-0.033534,-0.014582
2206.796000,2.224000,0,IDLE/BETWEEN,Note,59,B3,A,down,0.024958,0.300718,0.793568,0.099721,-1.544029,-2.354983,1.346988,-2.181647,-0.134185,0.375172,-0.918634,-1.573523,-2.588764,-2.098363,1.736387,-2.849640,-0.060988,-0.037086,-0.017235
2206.804000,2.232000,0,IDLE/BETWEEN,Note,59,B3,A,down,0.016958,0.300696,0.793575,0.099700,-1.543978,-2.355014,1.347034,-2.181619,-0.134153,0.375160,-0.918627,-1.573535,-2.588772,-2.171898,1.474841,-2.585053,-0.053337,-0.038713,-0.017526
2206.812000,2.240000,0,IDLE/BETWEEN,Note,59,B3,A,down,0.008958,0.300705,0.793573,0.099718,-1.544033,-2.354980,1.347021,-2.181631,-0.134185,0.375175,-0.918619,-1.573523,-2.588745,-2.346613,1.535994,-2.700123,-0.055379,-0.040591,-0.014830
2206.820000,2.248000,0,IDLE/BETWEEN,Note,59,B3,A,down,0.000958,0.300704,0.793575,0.099730,-1.544023,-2.355013,1.346966,-2.181628,-0.134192,0.375163,-0.918638,-1.573523,-2.588760,-2.080701,1.822743,-2.965136,-0.062376,-0.028838,-0.015742
2206.828000,2.256000,0,IDLE/BETWEEN,Note,61,C#4,A,down,0.242958,0.300722,0.793566,0.099722,-1.544034,-2.355018,1.346937,-2.181650,-0.134185,0.375172,-0.918673,-1.573535,-2.588772,-2.125950,1.824213,-2.916109,-0.064419,-0.038722,-0.021421
2206.836000,2.264000,0,IDLE/BETWEEN,Note,61,C#4,A,down,0.234958,0.300715,0.793569,0.099723,-1.544040,-2.355012,1.346970,-2.181643,-0.134188,0.375172,-0.918650,-1.573539,-2.588757,-1.921418,1.773529,-2.702392,-0.061384,-0.031851,-0.016604
2206.844000,2.272000,0,IDLE/BETWEEN,Note,61,C#4,A,down,0.226958,0.300717,0.793564,0.099702,-1.543985,-2.355008,1.346999,-2.181647,-0.134166,0.375184,-0.918658,-1.573539,-2.588792,-1.629815,1.351950,-2.717306,-0.053778,-0.026933,-0.023937
2206.852000,2.280000,0,IDLE/BETWEEN,Note,61,C#4,A,down,0.218958,0.300705,0.793571,0.099711,-1.544001,-2.355030,1.346994,-2.181631,-0.134173,0.375172,-0.918650,-1.573547,-2.588772,-1.956548,1.670210,-2.846455,-0.060957,-0.033463,-0.019175
2206.860000,2.288000,0,IDLE/BETWEEN,Note,61,C#4,A,down,0.210958,0.300717,0.793569,0.099731,-1.544001,-2.355036,1.346949,-2.181643,-0.134185,0.375150,-0.918643,-1.573542,-2.588788,-2.039709,1.585141,-2.848063,-0.061598,-0.036672,-0.024277
2206.868000,2.296000,0,IDLE/BETWEEN,Note,61,C#4,A,down,0.202958,0.300701,0.793574,0.099717,-1.543996,-2.354998,1.346970,-2.181624,-0.134181,0.375179,-0.918654,-1.573504,-2.588776,-1.754169,1.627259,-2.842547,-0.060616,-0.028639,-0.023060
2206.876000,2.304000,0,IDLE/BETWEEN,Note,61,C#4,A,down,0.194958,0.300703,0.793574,0.099715,-1.544028,-2.354994,1.346965,-2.181628,-0.134185,0.375191,-0.918669,-1.573508,-2.588757,-2.090746,1.671908,-2.730681,-0.055792,-0.037582,-0.014848
2206.884000,2.312000,0,IDLE/BETWEEN,Note,61,C#4,A,down,0.186958,0.300731,0.793567,0.099726,-1.544034,-2.354987,1.346944,-2.181659,-0.134169,0.375130,-0.918634,-1.573519,-2.588776,-2.051346,1.590010,-2.920119,-0.057850,-0.030306,-0.014522
2206.892000,2.320000,0,IDLE/BETWEEN,Note,61,C#4,A,down,0.178958,0.300716,0.793568,0.099709,-1.544020,-2.355004,1.346946,-2.181643,-0.134169,0.375175,-0.918681,-1.573519,-2.588776,-2.075281,1.686420,-2.976277,-0.063825,-0.033480,-0.019386
2206.900000,2.328000,0,IDLE/BETWEEN,Note,61,C#4,A,down,0.170958,0.300706,0.793570,0.099715,-1.543997,-2.355010,1.346970,-2.181631,-0.134185,0.375192,-0.918666,-1.573519,-2.588780,-2.216000,1.429495,-2.584932,-0.053733,-0.038024,-0.018438
2206.908000,2.336000,0,IDLE/BETWEEN,Note,61,C#4,A,down,0.162958,0.300705,0.793572,0.099715,-1.543981,-2.355053,1.346935,-2.181628,-0.134169,0.375160,-0.918677,-1.573535,-2.588795,-2.033662,1.548388,-2.870639,-0.056548,-0.035261,-0.018386
2206.916000,2.344000,0,IDLE/BETWEEN,Note,61,C#4,A,down,0.154958,0.300723,0.793567,0.099730,-1.544022,-2.354993,1.346963,-2.181650,-0.134188,0.375160,-0.918634,-1.573523,-2.588776,-2.087399,1.524673,-2.856588,-0.051672,-0.036016,-0.015583
2206.924000,2.352000,0,IDLE/BETWEEN,Note,61,C#4,A,down,0.146958,0.300705,0.793575,0.099732,-1.544003,-2.355021,1.346959,-2.181628,-0.134188,0.375153,-0.918634,-1.573523,-2.588776,-2.134396,1.758982,-2.694369,-0.060622,-0.034589,-0.014304
2206.932000,2.360000,0,IDLE/BETWEEN,Note,61,C#4,A,down,0.138958,0.300708,0.793573,0.099740,-1.544012,-2.355047,1.346936,-2.181631,-0.134200,0.375157,-0.918646,-1.573539,-2.588776,-2.185663,1.745674,-2.695042,-0.059805,-0.039633,-0.012601
2206.940000,2.368000,0,IDLE/BETWEEN,Note,61,C#4,A,down,0.130958,0.300691,0.793578,0.099712,-1.543985,-2.355027,1.346988,-2.181612,-0.134173,0.375172,-0.918650,-1.573523,-2.588772,-2.048555,1.687600,-2.820196,-0.054508,-0.031089,-0.016340
2206.948000,2.376000,0,IDLE/BETWEEN,Note,61,C#4,A,down,0.122958,0.300703,0.793573,0.099707,-1.544009,-2.354987,1.347017,-2.181628,-0.134169,0.375175,-0.918634,-1.573519,-2.588760,-2.118824,1.923387,-2.802085,-0.064163,-0.033250,-0.012551
2206.956000,2.384000,0,IDLE/BETWEEN,Note,61,C#4,A,down,0.114958,0.300707,0.793572,0.099729,-1.543997,-2.355024,1.346991,-2.181631,-0.134188,0.375160,-0.918622,-1.573539,-2.588776,-2.069550,1.728550,-2.891048,-0.063538,-0.040642,-0.018823
2206.964000,2.392000,0,IDLE/BETWEEN,Note,61,C#4,A,down,0.106958,0.300705,0.793572,0.099718,-1.544023,-2.355020,1.346975,-2.181631,-0.134185,0.375179,-0.918657,-1.573535,-2.588760,-1.916554,1.507997,-2.851332,-0.058906,-0.034818,-0.020352
2206.972000,2.400000,0,IDLE/BETWEEN,Note,61,C#4,A,down,0.098958,0.300689,0.793579,0.099694,-1.544015,-2.355008,1.347001,-2.181612,-0.134153,0.375175,-0.918666,-1.573519,-2.588749,-2.010056,1.409522,-2.768132,-0.054286,-0.031962,-0.019298
2206.980000,2.408000,0,IDLE/BETWEEN,Note,61,C#4,A,down,0.090958,0.300731,0.793564,0.099714,-1.544052,-2.354999,1.346953,-2.181662,-0.134169,0.375157,-0.918662,-1.573539,-2.588764,-1.838513,1.482082,-2.729872,-0.055598,-0.034353,-0.024172
2206.988000,2.416000,0,IDLE/BETWEEN,Note,61,C#4,A,down,0.082958,0.300719,0.793568,0.099732,-1.544013,-2.355005,1.346981,-2.181647,-0.134188,0.375153,-0.918619,-1.573535,-2.588776,-2.119634,1.788257,-2.760424,-0.057873,-0.033243,-0.011973
2206.996000,2.424000,0,IDLE/BETWEEN,Note,61,C#4,A,down,0.074958,0.300707,0.793571,0.099715,-1.543980,-2.355011,1.346986,-2.181631,-0.134169,0.375160,-0.918638,-1.573523,-2.588788,-1.960822,1.831128,-2.677809,-0.057576,-0.030020,-0.017226
2207.004000,2.432000,0,IDLE/BETWEEN,Note,61,C#4,A,down,0.066958,0.300719,0.793569,0.099715,-1.544035,-2.354988,1.346965,-2.181647,-0.134169,0.375157,-0.918650,-1.573519,-2.588764,-1.779680,1.623093,-2.836257,-0.058618,-0.032503,-0.026078
2207.012000,2.440000,0,IDLE/BETWEEN,Note,61,C#4,A,down,0.058958,0.300677,0.793579,0.099715,-1.543932,-2.355041,1.347047,-2.181597,-0.134185,0.375188,-0.918615,-1.573535,-2.588788,-1.899203,1.696990,-2.685639,-0.054273,-0.036037,-0.020254
2207.020000,2.448000,0,IDLE/BETWEEN,Note,61,C#4,A,down,0.050958,0.300715,0.793567,0.099720,-1.544007,-2.355014,1.347009,-2.181643,-0.134188,0.375179,-0.918631,-1.573550,-2.588772,-2.402452,1.990236,-2.540641,-0.062679,-0.045405,-0.011336
2207.028000,2.456000,0,IDLE/BETWEEN,Note,61,C#4,A,down,0.042958,0.300717,0.793571,0.099734,-1.544041,-2.355030,1.346933,-2.181643,-0.134188,0.375146,-0.918650,-1.573539,-2.588764,-2.119421,1.671884,-2.768186,-0.055626,-0.033633,-0.016708
2207.036000,2.464000,0,IDLE/BETWEEN,Note,61,C#4,A,down,0.034958,0.300704,0.793573,0.099716,-1.543989,-2.355010,1.346989,-2.181628,-0.134169,0.375157,-0.918634,-1.573523,-2.588780,-2.015910,1.696433,-2.815177,-0.062586,-0.033938,-0.017623
2207.044000,2.472000,0,IDLE/BETWEEN,Note,61,C#4,A,down,0.026958,0.300719,0.793567,0.099717,-1.543998,-2.354985,1.346999,-2.181647,-0.134173,0.375160,-0.918624,-1.573523,-2.588783,-2.185914,1.672806,-2.960667,-0.061156,-0.037105,-0.017439
2207.052000,2.480000,0,IDLE/BETWEEN,Note,61,C#4,A,down,0.018958,0.300699,0.793568,0.099718,-1.543933,-2.355068,1.347014,-2.181624,-0.134188,0.375188,-0.918638,-1.573566,-2.588811,-2.197592,1.668054,-2.609639,-0.053664,-0.037458,-0.014810
2207.060000,2.488000,0,IDLE/BETWEEN,Note,61,C#4,A,down,0.010958,0.300735,0.793564,0.099733,-1.544059,-2.355000,1.346941,-2.181666,-0.134188,0.375148,-0.918643,-1.573539,-2.588764,-1.922108,1.680028,-2.734305,-0.055944,-0.031066,-0.017827
2207.068000,2.496000,0,IDLE/BETWEEN,Note,61,C#4,A,down,0.002958,0.300709,0.793570,0.099710,-1.544005,-2.355012,1.346972,-2.181635,-0.134169,0.375172,-0.918662,-1.573526,-2.588776,-1.972597,1.618325,-2.720616,-0.058018,-0.032977,-0.019168
2207.076000,2.504000,0,IDLE/BETWEEN,Note,62,D4,A,down,0.244958,0.300720,0.793566,0.099721,-1.543970,-2.355004,1.346975,-2.181647,-0.134173,0.375153,-0.918631,-1.573523,-2.588807,-2.036972,1.960872,-2.646616,-0.060802,-0.036800,-0.012835
2207.084000,2.512000,0,IDLE/BETWEEN,Note,62,D4,A,down,0.236958,0.300692,0.793579,0.099717,-1.543989,-2.355034,1.346971,-2.181612,-0.134169,0.375153,-0.918646,-1.573523,-2.588772,-1.952608,1.739459,-2.737593,-0.055359,-0.034308,-0.011515
2207.092000,2.520000,0,IDLE/BETWEEN,Note,62,D4,A,down,0.228958,0.300709,0.793570,0.099708,-1.543997,-2.354995,1.347002,-2.181635,-0.134169,0.375175,-0.918643,-1.573523,-2.588776,-2.264982,2.155445,-2.850588,-0.067689,-0.036300,-0.011314
2207.100000,2.528000,0,IDLE/BETWEEN,Note,62,D4,A,down,0.220958,0.300690,0.793576,0.099722,-1.543972,-2.355079,1.346996,-2.181612,-0.134185,0.375169,-0.918641,-1.573566,-2.588780,-2.095016,1.915500,-2.694682,-0.062017,-0.034259,-0.016718
2207.108000,2.536000,0,IDLE/BETWEEN,Note,62,D4,A,down,0.212958,0.300723,0.793570,0.099743,-1.544061,-2.355013,1.346902,-2.181650,-0.134203,0.375157,-0.918662,-1.573523,-2.588760,-1.762303,1.739192,-2.715757,-0.060342,-0.027731,-0.021865
2207.116000,2.544000,0,IDLE/BETWEEN,Note,62,D4,A,down,0.204958,0.300708,0.793573,0.099731,-1.543992,-2.355018,1.346973,-2.181631,-0.134188,0.375157,-0.918627,-1.573526,-2.588783,-1.921750,1.682788,-2.666791,-0.058023,-0.035233,-0.020037
2207.124000,2.552000,0,IDLE/BETWEEN,Note,62,D4,A,down,0.196958,0.300706,0.793571,0.099709,-1.543991,-2.354996,1.347010,-2.181631,-0.134169,0.375172,-0.918634,-1.573523,-2.588776,-1.946629,2.070058,-2.812011,-0.063111,-0.030412,-0.016226
2207.132000,2.560000,0,IDLE/BETWEEN,Note,62,D4,A,down,0.188958,0.300700,0.793572,0.099721,-1.543960,-2.355002,1.347020,-2.181624,-0.134188,0.375184,-0.918619,-1.573519,-2.588792,-1.923239,1.724791,-2.687117,-0.056610,-0.034309,-0.018699
2207.140000,2.568000,0,IDLE/BETWEEN,Note,62,D4,A,down,0.180958,0.300717,0.793562,0.099693,-1.543957,-2.355005,1.347020,-2.181647,-0.134153,0.375184,-0.918654,-1.573539,-2.588807,-1.840836,1.846336,-2.706982,-0.064341,-0.037199,-0.023695
2207.148000,2.576000,0,IDLE/BETWEEN,Note,62,D4,A,down,0.172958,0.300693,0.793572,0.099698,-1.543991,-2.354993,1.347071,-2.181619,-0.134173,0.375203,-0.918627,-1.573535,-2.588757,-2.201208,1.956646,-2.568779,-0.056965,-0.037453,-0.014798
2207.156000,2.584000,0,IDLE/BETWEEN,Note,62,D4,A,down,0.164958,0.300702,0.793570,0.099705,-1.543994,-2.355019,1.347008,-2.181628,-0.134173,0.375188,-0.918654,-1.573539,-2.588772,-1.825016,1.548411,-2.467457,-0.052909,-0.033978,-0.016897
2207.164000,2.592000,0,IDLE/BETWEEN,Note,62,D4,A,down,0.156958,0.300707,0.793572,0.099727,-1.544001,-2.355031,1.346974,-2.181631,-0.134185,0.375157,-0.918634,-1.573539,-2.588776,-1.899645,1.794178,-2.675763,-0.058789,-0.034640,-0.017371
2207.172000,2.600000,0,IDLE/BETWEEN,Note,62,D4,A,down,0.148958,0.300694,0.793575,0.099728,-1.543969,-2.355082,1.346953,-2.181615,-0.134188,0.375165,-0.918658,-1.573554,-2.588792,-1.908474,1.604384,-2.705253,-0.058030,-0.035884,-0.021231
2207.180000,2.608000,0,IDLE/BETWEEN,Note,62,D4,A,down,0.140958,0.300707,0.793572,0.099716,-1.544000,-2.355038,1.346961,-2.181631,-0.134173,0.375163,-0.918662,-1.573539,-2.588780,-1.911318,1.722282,-2.540787,-0.057691,-0.037132,-0.020725
2207.188000,2.616000,0,IDLE/BETWEEN,Note,62,D4,A,down,0.132958,0.300712,0.793570,0.099716,-1.544011,-2.355002,1.346964,-2.181639,-0.134176,0.375172,-0.918658,-1.573519,-2.588776,-1.968572,1.669069,-2.795175,-0.059506,-0.034711,-0.018614
2207.196000,2.624000,0,IDLE/BETWEEN,Note,62,D4,A,down,0.124958,0.300726,0.793567,0.099731,-1.544038,-2.355033,1.346897,-2.181654,-0.134188,0.375157,-0.918681,-1.573535,-2.588780,-2.013366,1.837741,-2.814035,-0.057074,-0.030225,-0.013339
2207.204000,2.632000,0,IDLE/BETWEEN,Note,62,D4,A,down,0.116958,0.300701,0.793569,0.099701,-1.543965,-2.354985,1.347093,-2.181628,-0.134169,0.375188,-0.918596,-1.573539,-2.588776,-1.997159,1.896483,-2.916015,-0.061180,-0.030579,-0.015168
2207.212000,2.640000,0,IDLE/BETWEEN,Note,62,D4,A,down,0.108958,0.300704,0.793575,0.099730,-1.544017,-2.355003,1.346988,-2.181628,-0.134188,0.375157,-0.918619,-1.573523,-2.588760,-1.820611,1.577158,-2.737061,-0.055850,-0.032291,-0.023380
2207.220000,2.648000,0,IDLE/BETWEEN,Note,62,D4,A,down,0.100958,0.300703,0.793569,0.099708,-1.543945,-2.355012,1.347050,-2.181628,-0.134169,0.375175,-0.918612,-1.573539,-2.588799,-2.039609,1.796865,-2.807722,-0.057064,-0.033735,-0.012912
2207.228000,2.656000,0,IDLE/BETWEEN,Note,62,D4,A,down,0.092958,0.300722,0.793562,0.099719,-1.543971,-2.354992,1.346982,-2.181650,-0.134188,0.375191,-0.918646,-1.573519,-2.588807,-1.996797,1.695849,-2.672847,-0.056415,-0.036556,-0.018396
2207.236000,2.664000,0,IDLE/BETWEEN,Note,62,D4,A,down,0.084958,0.300731,0.793561,0.099724,-1.544008,-2.354969,1.346988,-2.181662,-0.134188,0.375175,-0.918627,-1.573519,-2.588788,-1.949616,2.137155,-2.672043,-0.062602,-0.031664,-0.011675
2207.244000,2.672000,0,IDLE/BETWEEN,Note,62,D4,A,down,0.076958,0.300705,0.793569,0.099703,-1.543996,-2.355024,1.346990,-2.181631,-0.134169,0.375188,-0.918669,-1.573539,-2.588776,-2.115898,1.891076,-2.773832,-0.059327,-0.036096,-0.014633
2207.252000,2.680000,0,IDLE/BETWEEN,Note,62,D4,A,down,0.068958,0.300721,0.793570,0.099741,-1.544042,-2.355025,1.346895,-2.181647,-0.134200,0.375157,-0.918669,-1.573523,-2.588772,-1.819057,1.456704,-2.718334,-0.054712,-0.030135,-0.025643
2207.260000,2.688000,0,IDLE/BETWEEN,Note,62,D4,A,down,0.060958,0.300696,0.793579,0.099721,-1.544034,-2.355060,1.346975,-2.181619,-0.134173,0.375141,-0.918643,-1.573561,-2.588745,-2.036953,1.883287,-2.660105,-0.062574,-0.035163,-0.017023
2207.268000,2.696000,0,IDLE/BETWEEN,Note,62,D4,A,down,0.052958,0.300693,0.793578,0.099722,-1.544007,-2.355022,1.346999,-2.181615,-0.134188,0.375175,-0.918634,-1.573530,-2.588757,-1.909616,1.716016,-2.919075,-0.062519,-0.030920,-0.016444
2207.276000,2.704000,0,IDLE/BETWEEN,Note,62,D4,A,down,0.044958,0.300681,0.793580,0.099712,-1.543958,-2.355026,1.347027,-2.181600,-0.134173,0.375172,-0.918624,-1.573523,-2.588776,-1.944768,1.691706,-2.851128,-0.060488,-0.032004,-0.020764
2207.284000,2.712000,0,IDLE/BETWEEN,Note,62,D4,A,down,0.036958,0.300693,0.793579,0.099713,-1.544021,-2.355023,1.347010,-2.181615,-0.134169,0.375157,-0.918631,-1.573539,-2.588745,-1.850854,1.389341,-2.619676,-0.050994,-0.032648,-0.020716
2207.292000,2.720000,0,IDLE/BETWEEN,Note,62,D4,A,down,0.028958,0.300704,0.793570,0.099728,-1.543961,-2.355017,1.346991,-2.181628,-0.134196,0.375184,-0.918631,-1.573523,-2.588799,-1.869521,1.698002,-2.695629,-0.059578,-0.032835,-0.015604
2207.300000,2.728000,0,IDLE/BETWEEN,Note,62,D4,A,down,0.020958,0.300716,0.793569,0.099731,-1.544027,-2.354994,1.346983,-2.181643,-0.134200,0.375179,-0.918631,-1.573527,-2.588764,-2.015229,1.853623,-2.721665,-0.062621,-0.037364,-0.014355
2207.308000,2.736000,0,IDLE/BETWEEN,Note,62,D4,A,down,0.012958,0.300701,0.793575,0.099730,-1.544005,-2.355076,1.346934,-2.181624,-0.134188,0.375157,-0.918665,-1.573555,-2.588776,-2.077989,1.788684,-2.716482,-0.058615,-0.032797,-0.014692
2207.316000,2.744000,0,IDLE/BETWEEN,Note,62,D4,A,down,0.004958,0.300717,0.793566,0.099694,-1.544015,-2.354968,1.347038,-2.181647,-0.134153,0.375175,-0.918634,-1.573528,-2.588764,-1.976375,1.818862,-2.788362,-0.062819,-0.032018,-0.016951
2207.324000,2.752000,0,IDLE/BETWEEN,Note,59,B3,A,down,0.246958,0.300707,0.793573,0.099722,-1.544018,-2.355009,1.346951,-2.181631,-0.134181,0.375167,-0.918658,-1.573516,-2.588769,-1.923311,1.727505,-2.883050,-0.060996,-0.028929,-0.018293
2207.332000,2.760000,0,IDLE/BETWEEN,Note,59,B3,A,down,0.238958,0.300709,0.793568,0.099708,-1.543975,-2.354980,1.347044,-2.181635,-0.134169,0.375175,-0.918612,-1.573523,-2.588783,-1.855152,1.995670,-2.910097,-0.062548,-0.027677,-0.016256
2207.340000,2.768000,0,IDLE/BETWEEN,Note,59,B3,A,down,0.230958,0.300715,0.793571,0.099731,-1.544016,-2.355011,1.346949,-2.181640,-0.134188,0.375157,-0.918643,-1.573523,-2.588776,-2.117663,1.978669,-2.879382,-0.063922,-0.034417,-0.015900
2207.348000,2.776000,0,IDLE/BETWEEN,Note,59,B3,A,down,0.222958,0.300710,0.793566,0.099703,-1.543986,-2.354994,1.347035,-2.181639,-0.134169,0.375188,-0.918634,-1.573535,-2.588780,-1.857474,1.697858,-2.826283,-0.061521,-0.033058,-0.020120
2207.356000,2.784000,0,IDLE/BETWEEN,Note,59,B3,A,down,0.214958,0.300711,0.793573,0.099728,-1.544001,-2.354977,1.346990,-2.181635,-0.134185,0.375157,-0.918612,-1.573504,-2.588776,-2.067055,1.783811,-2.821239,-0.063017,-0.038994,-0.019980
2207.364000,2.792000,0,IDLE/BETWEEN,Note,59,B3,A,down,0.206958,0.300705,0.793570,0.099717,-1.543989,-2.355003,1.347019,-2.181631,-0.134188,0.375191,-0.918631,-1.573531,-2.588776,-2.114472,1.686709,-2.574635,-0.056047,-0.040038,-0.014859
2207.372000,2.800000,0,IDLE/BETWEEN,Note,59,B3,A,down,0.198958,0.300719,0.793565,0.099711,-1.543992,-2.355016,1.346958,-2.181647,-0.134169,0.375172,-0.918669,-1.573530,-2.588795,-2.048149,1.766439,-2.858112,-0.061562,-0.036466,-0.014973
2207.380000,2.808000,0,IDLE/BETWEEN,Note,59,B3,A,down,0.190958,0.300735,0.793561,0.099718,-1.544005,-2.354978,1.346974,-2.181666,-0.134169,0.375153,-0.918634,-1.573523,-2.588795,-1.966643,1.573421,-2.679817,-0.056870,-0.035955,-0.023356
2207.388000,2.816000,0,IDLE/BETWEEN,Note,59,B3,A,down,0.182958,0.300701,0.793569,0.099702,-1.543979,-2.354997,1.347044,-2.181628,-0.134173,0.375196,-0.918634,-1.573531,-2.588776,-2.064542,1.742633,-2.797763,-0.059187,-0.033803,-0.017082
2207.396000,2.824000,0,IDLE/BETWEEN,Note,59,B3,A,down,0.174958,0.300715,0.793565,0.099727,-1.543982,-2.355012,1.347000,-2.181643,-0.134200,0.375191,-0.918631,-1.573539,-2.588792,-2.003925,1.410182,-2.699463,-0.054108,-0.034639,-0.021776
2207.404000,2.832000,0,IDLE/BETWEEN,Note,59,B3,A,down,0.166958,0.300716,0.793564,0.099738,-1.543971,-2.355067,1.346960,-2.181643,-0.134207,0.375179,-0.918646,-1.573566,-2.588807,-1.948160,1.674433,-2.647736,-0.058510,-0.037422,-0.018987
2207.412000,2.840000,0,IDLE/BETWEEN,Note,59,B3,A,down,0.158958,0.300718,0.793564,0.099709,-1.543978,-2.354992,1.347026,-2.181647,-0.134169,0.375172,-0.918622,-1.573535,-2.588792,-1.898200,1.886330,-2.728087,-0.061524,-0.035198,-0.021167
2207.420000,2.848000,0,IDLE/BETWEEN,Note,59,B3,A,down,0.150958,0.300714,0.793567,0.099706,-1.544024,-2.355000,1.347010,-2.181643,-0.134173,0.375184,-0.918650,-1.573542,-2.588760,-1.992419,1.739482,-2.740147,-0.055981,-0.036337,-0.014861
2207.428000,2.856000,0,IDLE/BETWEEN,Note,59,B3,A,down,0.142958,0.300707,0.793573,0.099712,-1.544011,-2.354975,1.346978,-2.181631,-0.134173,0.375175,-0.918650,-1.573497,-2.588769,-1.910018,1.639514,-2.688057,-0.058140,-0.036282,-0.021850
2207.436000,2.864000,0,IDLE/BETWEEN,Note,59,B3,A,down,0.134958,0.300703,0.793578,0.099731,-1.544023,-2.355008,1.346936,-2.181624,-0.134188,0.375157,-0.918650,-1.573504,-2.588764,-1.999644,1.822041,-2.792091,-0.057897,-0.031661,-0.016861
2207.444000,2.872000,0,IDLE/BETWEEN,Note,59,B3,A,down,0.126958,0.300736,0.793564,0.099742,-1.544040,-2.354966,1.346951,-2.181666,-0.134200,0.375153,-0.918619,-1.573512,-2.588776,-1.948765,1.742461,-2.702774,-0.056555,-0.031729,-0.014920
2207.452000,2.880000,0,IDLE/BETWEEN,Note,59,B3,A,down,0.118958,0.300712,0.793569,0.099721,-1.544011,-2.354999,1.346981,-2.181639,-0.134188,0.375182,-0.918646,-1.573523,-2.588772,-2.006632,1.543831,-2.618813,-0.055937,-0.035114,-0.013411
2207.460000,2.888000,0,IDLE/BETWEEN,Note,59,B3,A,down,0.110958,0.300733,0.793564,0.099723,-1.544018,-2.354973,1.346953,-2.181662,-0.134173,0.375148,-0.918638,-1.573511,-2.588788,-2.005581,1.965968,-2.720065,-0.063682,-0.036211,-0.016770
2207.468000,2.896000,0,IDLE/BETWEEN,Note,59,B3,A,down,0.102958,0.300712,0.793565,0.099699,-1.544016,-2.355021,1.347040,-2.181643,-0.134169,0.375191,-0.918646,-1.573570,-2.588760,-2.224619,1.814231,-2.626242,-0.056707,-0.042700,-0.016415
2207.476000,2.904000,0,IDLE/BETWEEN,Note,59,B3,A,down,0.094958,0.300719,0.793565,0.099726,-1.543973,-2.355016,1.346981,-2.181647,-0.134188,0.375172,-0.918634,-1.573535,-2.588804,-2.166547,1.679131,-2.486932,-0.055334,-0.039702,-0.017028
2207.484000,2.912000,0,IDLE/BETWEEN,Note,59,B3,A,down,0.086958,0.300706,0.793576,0.099735,-1.544012,-2.355027,1.346942,-2.181628,-0.134185,0.375138,-0.918634,-1.573523,-2.588772,-2.170427,1.997221,-3.044104,-0.068175,-0.034021,-0.015395
2207.492000,2.920000,0,IDLE/BETWEEN,Note,59,B3,A,down,0.078958,0.300703,0.793570,0.099710,-1.543980,-2.355012,1.347020,-2.181628,-0.134176,0.375182,-0.918634,-1.573535,-2.588780,-2.119205,1.757772,-2.788380,-0.058358,-0.038713,-0.016892
2207.500000,2.928000,0,IDLE/BETWEEN,Note,59,B3,A,down,0.070958,0.300695,0.793579,0.099731,-1.543988,-2.355029,1.346988,-2.181615,-0.134185,0.375148,-0.918615,-1.573528,-2.588772,-2.024235,1.792712,-2.974988,-0.064688,-0.032989,-0.016718
2207.508000,2.936000,0,IDLE/BETWEEN,Note,59,B3,A,down,0.062958,0.300716,0.793569,0.099716,-1.544010,-2.354979,1.347002,-2.181643,-0.134169,0.375153,-0.918619,-1.573519,-2.588772,-2.294918,2.015320,-2.775902,-0.065291,-0.038580,-0.012869
2207.516000,2.944000,0,IDLE/BETWEEN,Note,59,B3,A,down,0.054958,0.300704,0.793573,0.099716,-1.543994,-2.355023,1.346990,-2.181628,-0.134169,0.375153,-0.918634,-1.573535,-2.588776,-2.278396,2.022625,-2.789957,-0.062474,-0.040385,-0.012087
2207.524000,2.952000,0,IDLE/BETWEEN,Note,59,B3,A,down,0.046958,0.300703,0.793572,0.099708,-1.543985,-2.355000,1.347003,-2.181628,-0.134169,0.375175,-0.918641,-1.573519,-2.588780,-2.179445,1.545012,-2.696340,-0.054685,-0.037806,-0.015725
2207.532000,2.960000,0,IDLE/BETWEEN,Note,59,B3,A,down,0.038958,0.300710,0.793573,0.099730,-1.544026,-2.355004,1.346977,-2.181635,-0.134188,0.375157,-0.918627,-1.573527,-2.588760,-1.848765,1.360979,-2.645535,-0.047529,-0.032473,-0.017978
2207.540000,2.968000,0,IDLE/BETWEEN,Note,59,B3,A,down,0.030958,0.300720,0.793569,0.099732,-1.544021,-2.355006,1.346935,-2.181647,-0.134188,0.375157,-0.918650,-1.573519,-2.588780,-1.982663,1.837820,-2.826634,-0.062046,-0.031430,-0.020057
2207.548000,2.976000,0,IDLE/BETWEEN,Note,59,B3,A,down,0.022958,0.300721,0.793564,0.099721,-1.543995,-2.355022,1.346996,-2.181650,-0.134185,0.375172,-0.918634,-1.573554,-2.588788,-1.884422,1.559887,-2.626729,-0.055336,-0.039138,-0.022191
2207.556000,2.984000,0,IDLE/BETWEEN,Note,59,B3,A,down,0.014958,0.300714,0.793566,0.099714,-1.543993,-2.354945,1.347044,-2.181643,-0.134192,0.375207,-0.918615,-1.573504,-2.588776,-1.901061,1.591473,-2.937901,-0.062283,-0.034577,-0.020945
2207.564000,2.992000,0,IDLE/BETWEEN,Note,59,B3,A,down,0.006958,0.300708,0.793573,0.099732,-1.543983,-2.355039,1.346958,-2.181631,-0.134181,0.375141,-0.918631,-1.573535,-2.588792,-1.968627,1.855471,-2.798502,-0.061479,-0.032500,-0.018714
2207.572000,3.000000,0,IDLE/BETWEEN,Note,57,A3,A,down,0.498958,0.300716,0.793568,0.099725,-1.544006,-2.354987,1.346998,-2.181643,-0.134188,0.375172,-0.918622,-1.573523,-2.588776,-1.717089,1.586370,-2.794249,-0.056500,-0.028698,-0.020089
2207.580000,3.008000,0,IDLE/BETWEEN,Note,57,A3,A,down,0.490958,0.300715,0.793568,0.099699,-1.544019,-2.354959,1.347030,-2.181643,-0.134157,0.375172,-0.918631,-1.573516,-2.588760,-2.040602,1.834602,-2.840211,-0.062431,-0.035991,-0.015442
2207.588000,3.016000,0,IDLE/BETWEEN,Note,57,A3,A,down,0.482958,0.300704,0.793570,0.099714,-1.544000,-2.354994,1.347040,-2.181631,-0.134185,0.375188,-0.918619,-1.573535,-2.588764,-2.131194,1.648426,-2.734681,-0.059839,-0.040053,-0.015756
2207.596000,3.024000,0,IDLE/BETWEEN,Note,57,A3,A,down,0.474958,0.300719,0.793568,0.099717,-1.544014,-2.354986,1.346980,-2.181647,-0.134169,0.375153,-0.918634,-1.573519,-2.588776,-2.212923,1.813015,-2.870901,-0.057831,-0.035659,-0.012536
2207.604000,3.032000,0,IDLE/BETWEEN,Note,57,A3,A,down,0.466958,0.300706,0.793571,0.099729,-1.544000,-2.355014,1.346960,-2.181631,-0.134200,0.375188,-0.918654,-1.573519,-2.588780,-2.148496,1.697489,-2.910321,-0.059026,-0.035640,-0.017350
2207.612000,3.040000,0,IDLE/BETWEEN,Note,57,A3,A,down,0.458958,0.300702,0.793572,0.099716,-1.544000,-2.354999,1.347028,-2.181628,-0.134185,0.375184,-0.918623,-1.573532,-2.588764,-2.323064,1.877674,-2.837096,-0.063677,-0.043696,-0.015248
2207.620000,3.048000,0,IDLE/BETWEEN,Note,57,A3,A,down,0.450958,0.300696,0.793577,0.099715,-1.544003,-2.355026,1.347007,-2.181619,-0.134169,0.375153,-0.918627,-1.573539,-2.588760,-1.838386,1.534639,-2.735919,-0.055976,-0.033872,-0.019387
2207.628000,3.056000,0,IDLE/BETWEEN,Note,57,A3,A,down,0.442958,0.300708,0.793577,0.099741,-1.544064,-2.355023,1.346907,-2.181631,-0.134200,0.375153,-0.918662,-1.573519,-2.588745,-2.010167,1.711029,-3.019698,-0.065161,-0.032478,-0.017851
2207.636000,3.064000,0,IDLE/BETWEEN,Note,57,A3,A,down,0.434958,0.300719,0.793567,0.099715,-1.544049,-2.354956,1.347025,-2.181650,-0.134188,0.375191,-0.918626,-1.573523,-2.588745,-2.327136,1.739825,-2.643079,-0.056170,-0.041997,-0.013039
2207.644000,3.072000,0,IDLE/BETWEEN,Note,57,A3,A,down,0.426958,0.300681,0.793579,0.099709,-1.543936,-2.355034,1.347023,-2.181600,-0.134169,0.375175,-0.918631,-1.573523,-2.588792,-2.028997,1.696485,-2.762720,-0.061416,-0.041283,-0.019193
2207.652000,3.080000,0,IDLE/BETWEEN,Note,57,A3,A,down,0.418958,0.300690,0.793577,0.099720,-1.543981,-2.355030,1.346983,-2.181612,-0.134188,0.375184,-0.918650,-1.573523,-2.588776,-2.235088,1.683784,-3.103418,-0.058809,-0.031133,-0.014443
2207.660000,3.088000,0,IDLE/BETWEEN,Note,57,A3,A,down,0.410958,0.300706,0.793571,0.099691,-1.543986,-2.355004,1.347028,-2.181631,-0.134138,0.375153,-0.918638,-1.573535,-2.588776,-1.907663,1.483362,-3.084625,-0.057467,-0.030492,-0.023182
2207.668000,3.096000,0,IDLE/BETWEEN,Note,57,A3,A,down,0.402958,0.300704,0.793573,0.099716,-1.543988,-2.354985,1.347032,-2.181628,-0.134173,0.375160,-0.918603,-1.573519,-2.588772,-1.923585,1.567779,-2.768969,-0.056429,-0.035096,-0.017818
2207.676000,3.104000,0,IDLE/BETWEEN,Note,57,A3,A,down,0.394958,0.300717,0.793566,0.099719,-1.544023,-2.355025,1.346983,-2.181647,-0.134185,0.375175,-0.918650,-1.573554,-2.588769,-1.785559,1.641882,-2.865820,-0.056351,-0.029580,-0.024715
2207.684000,3.112000,0,IDLE/BETWEEN,Note,57,A3,A,down,0.386958,0.300702,0.793570,0.099703,-1.543985,-2.355002,1.347039,-2.181628,-0.134169,0.375184,-0.918631,-1.573535,-2.588772,-2.098009,1.760497,-2.901962,-0.060864,-0.034267,-0.013339
2207.692000,3.120000,0,IDLE/BETWEEN,Note,57,A3,A,down,0.378958,0.300715,0.793568,0.099708,-1.544029,-2.354998,1.346994,-2.181643,-0.134169,0.375172,-0.918650,-1.573535,-2.588760,-2.109724,1.937445,-2.900823,-0.065721,-0.038292,-0.017307
2207.700000,3.128000,0,IDLE/BETWEEN,Note,57,A3,A,down,0.370958,0.300705,0.793570,0.099715,-1.544002,-2.355037,1.346971,-2.181631,-0.134185,0.375188,-0.918669,-1.573543,-2.588776,-2.113151,1.552839,-2.446504,-0.055630,-0.039419,-0.015668
2207.708000,3.136000,0,IDLE/BETWEEN,Note,57,A3,A,down,0.362958,0.300707,0.793576,0.099731,-1.543996,-2.355048,1.346898,-2.181628,-0.134173,0.375130,-0.918666,-1.573519,-2.588792,-1.918325,1.651801,-2.715369,-0.058981,-0.034501,-0.023005
2207.716000,3.144000,0,IDLE/BETWEEN,Note,57,A3,A,down,0.354958,0.300715,0.793568,0.099704,-1.544008,-2.354950,1.347007,-2.181643,-0.134169,0.375188,-0.918643,-1.573497,-2.588772,-2.177666,1.732699,-2.734199,-0.065375,-0.040763,-0.018430
2207.724000,3.152000,0,IDLE/BETWEEN,Note,57,A3,A,down,0.346958,0.300709,0.793573,0.099730,-1.543985,-2.355003,1.346951,-2.181631,-0.134185,0.375157,-0.918638,-1.573504,-2.588792,-2.185976,1.845147,-3.092600,-0.063676,-0.037028,-0.016244
2207.732000,3.160000,0,IDLE/BETWEEN,Note,57,A3,A,down,0.338958,0.300704,0.793573,0.099723,-1.543990,-2.354998,1.347004,-2.181628,-0.134188,0.375175,-0.918622,-1.573519,-2.588776,-1.900743,1.608661,-2.869045,-0.058080,-0.030174,-0.019427
2207.740000,3.168000,0,IDLE/BETWEEN,Note,57,A3,A,down,0.330958,0.300693,0.793580,0.099732,-1.543991,-2.355055,1.346927,-2.181612,-0.134188,0.375157,-0.918662,-1.573523,-2.588780,-1.851558,1.728777,-2.673499,-0.060300,-0.035034,-0.023294
2207.748000,3.176000,0,IDLE/BETWEEN,Note,57,A3,A,down,0.322958,0.300718,0.793563,0.099696,-1.544018,-2.354948,1.347058,-2.181650,-0.134173,0.375210,-0.918634,-1.573523,-2.588760,-2.110023,1.862645,-2.757009,-0.060611,-0.036906,-0.020763
2207.756000,3.184000,0,IDLE/BETWEEN,Note,57,A3,A,down,0.314958,0.300720,0.793564,0.099716,-1.544008,-2.354992,1.347014,-2.181650,-0.134188,0.375191,-0.918634,-1.573539,-2.588776,-1.970693,1.756986,-2.701434,-0.057693,-0.037882,-0.020183
2207.764000,3.192000,0,IDLE/BETWEEN,Note,57,A3,A,down,0.306958,0.300729,0.793567,0.099732,-1.544062,-2.355018,1.346906,-2.181659,-0.134188,0.375153,-0.918673,-1.573535,-2.588764,-2.179559,1.799363,-2.752302,-0.058910,-0.039360,-0.018069
2207.772000,3.200000,0,IDLE/BETWEEN,Note,57,A3,A,down,0.298958,0.300716,0.793566,0.099712,-1.543976,-2.354988,1.347003,-2.181643,-0.134169,0.375169,-0.918631,-1.573519,-2.588795,-1.975218,1.788802,-2.942252,-0.064371,-0.033245,-0.020626
2207.780000,3.208000,0,IDLE/BETWEEN,Note,57,A3,A,down,0.290958,0.300691,0.793576,0.099721,-1.543961,-2.355036,1.346992,-2.181612,-0.134185,0.375175,-0.918638,-1.573527,-2.588788,-1.853256,1.774845,-2.816159,-0.061499,-0.033138,-0.022070
2207.788000,3.216000,0,IDLE/BETWEEN,Note,57,A3,A,down,0.282958,0.300718,0.793567,0.099716,-1.544007,-2.354986,1.347023,-2.181647,-0.134173,0.375160,-0.918612,-1.573535,-2.588772,-2.046026,1.872196,-2.836742,-0.063208,-0.036991,-0.014615
2207.796000,3.224000,0,IDLE/BETWEEN,Note,57,A3,A,down,0.274958,0.300716,0.793569,0.099726,-1.544004,-2.354991,1.347004,-2.181643,-0.134185,0.375160,-0.918612,-1.573528,-2.588776,-1.828052,1.764251,-2.876704,-0.059588,-0.029112,-0.018974
2207.804000,3.232000,0,IDLE/BETWEEN,Note,57,A3,A,down,0.266958,0.300720,0.793568,0.099722,-1.544005,-2.355043,1.346926,-2.181647,-0.134169,0.375141,-0.918666,-1.573542,-2.588792,-1.944025,1.831552,-2.762880,-0.062023,-0.034664,-0.017742
2207.812000,3.240000,0,IDLE/BETWEEN,Note,57,A3,A,down,0.258958,0.300730,0.793561,0.099708,-1.544021,-2.354962,1.347004,-2.181662,-0.134169,0.375175,-0.918638,-1.573523,-2.588776,-2.195496,2.042237,-2.777148,-0.062564,-0.038905,-0.014047
2207.820000,3.248000,0,IDLE/BETWEEN,Note,57,A3,A,down,0.250958,0.300701,0.793574,0.099727,-1.543989,-2.355035,1.346994,-2.181624,-0.134185,0.375157,-0.918622,-1.573542,-2.588776,-2.150372,1.945611,-2.922996,-0.064123,-0.036297,-0.016869
2207.828000,3.256000,0,IDLE/BETWEEN,Note,57,A3,A,down,0.242958,0.300707,0.793573,0.099727,-1.543999,-2.354993,1.347003,-2.181631,-0.134185,0.375157,-0.918608,-1.573519,-2.588772,-2.051985,1.737459,-2.803167,-0.056949,-0.030868,-0.015786
2207.836000,3.264000,0,IDLE/BETWEEN,Note,57,A3,A,down,0.234958,0.300722,0.793570,0.099737,-1.544012,-2.355015,1.346922,-2.181647,-0.134185,0.375138,-0.918643,-1.573519,-2.588788,-1.986172,1.645531,-2.762116,-0.056046,-0.035850,-0.023789
2207.844000,3.272000,0,IDLE/BETWEEN,Note,57,A3,A,down,0.226958,0.300705,0.793572,0.099710,-1.544011,-2.354987,1.347018,-2.181631,-0.134173,0.375175,-0.918631,-1.573523,-2.588760,-2.049128,1.595045,-2.722279,-0.057867,-0.036166,-0.016324
2207.852000,3.280000,0,IDLE/BETWEEN,Note,57,A3,A,down,0.218958,0.300702,0.793572,0.099708,-1.543995,-2.354989,1.347048,-2.181628,-0.134169,0.375172,-0.918612,-1.573530,-2.588764,-1.940267,1.577231,-2.779316,-0.060454,-0.033893,-0.015942
2207.860000,3.288000,0,IDLE/BETWEEN,Note,57,A3,A,down,0.210958,0.300723,0.793561,0.099711,-1.544015,-2.355011,1.346963,-2.181654,-0.134188,0.375207,-0.918685,-1.573539,-2.588783,-1.989767,1.882097,-2.701938,-0.060486,-0.033752,-0.021473
2207.868000,3.296000,0,IDLE/BETWEEN,Note,57,A3,A,down,0.202958,0.300691,0.793577,0.099725,-1.543987,-2.355073,1.346942,-2.181612,-0.134188,0.375172,-0.918673,-1.573542,-2.588780,-2.162806,1.475395,-2.637959,-0.054144,-0.040120,-0.020389
2207.876000,3.304000,0,IDLE/BETWEEN,Note,57,A3,A,down,0.194958,0.300719,0.793568,0.099718,-1.544020,-2.355047,1.346938,-2.181647,-0.134169,0.375148,-0.918669,-1.573554,-2.588780,-2.003875,1.313669,-2.512604,-0.054904,-0.037058,-0.018658
2207.884000,3.312000,0,IDLE/BETWEEN,Note,57,A3,A,down,0.186958,0.300690,0.793577,0.099720,-1.543977,-2.355039,1.346997,-2.181612,-0.134185,0.375175,-0.918638,-1.573535,-2.588776,-2.104950,1.639983,-2.629647,-0.057308,-0.040272,-0.017595
2207.892000,3.320000,0,IDLE/BETWEEN,Note,57,A3,A,down,0.178958,0.300723,0.793565,0.099727,-1.543984,-2.354991,1.346998,-2.181650,-0.134185,0.375160,-0.918612,-1.573527,-2.588795,-2.098252,1.640693,-2.822230,-0.055079,-0.031524,-0.016360
2207.900000,3.328000,0,IDLE/BETWEEN,Note,57,A3,A,down,0.170958,0.300710,0.793571,0.099720,-1.544012,-2.355013,1.346947,-2.181635,-0.134181,0.375172,-0.918666,-1.573519,-2.588776,-2.245120,1.809959,-2.896466,-0.061886,-0.037124,-0.012512
2207.908000,3.336000,0,IDLE/BETWEEN,Note,57,A3,A,down,0.162958,0.300681,0.793583,0.099728,-1.543991,-2.355032,1.346989,-2.181600,-0.134196,0.375179,-0.918634,-1.573519,-2.588760,-2.129590,1.695984,-2.645372,-0.061138,-0.044477,-0.020895
2207.916000,3.344000,0,IDLE/BETWEEN,Note,57,A3,A,down,0.154958,0.300708,0.793569,0.099715,-1.543988,-2.354985,1.347017,-2.181635,-0.134185,0.375191,-0.918631,-1.573519,-2.588780,-2.192301,1.717937,-2.744962,-0.060896,-0.039334,-0.019478
2207.924000,3.352000,0,IDLE/BETWEEN,Note,57,A3,A,down,0.146958,0.300717,0.793569,0.099715,-1.544009,-2.354997,1.346967,-2.181643,-0.134169,0.375160,-0.918650,-1.573519,-2.588780,-2.134776,1.776741,-2.813701,-0.062038,-0.036135,-0.014874
