Praneshv25/Robot-Cello-RL/RL-code/long-log-detailed-test.csv
timestamp_robot,time_elapsed_sec,event_flag,event_label,current_event_type,current_note_number,current_note_name,current_string,remaining_duration_sec,TCP_pose_x,TCP_pose_y,TCP_pose_z,TCP_pose_rx,TCP_pose_ry,TCP_pose_rz,q_base,q_shoulder,q_elbow,q_wrist1,q_wrist2,q_wrist3,TCP_force_x,TCP_force_y,TCP_force_z,TCP_force_rx,TCP_force_ry,TCP_force_rz
6188.076000,0.000000,5,START g_bow,Note,43,G2,G,0.498958,0.279467,0.674676,0.104012,-1.813710,-1.939873,0.494892,1.245233,-2.658795,-1.327188,-0.890418,2.121450,4.273199,0.000000,0.000000,0.000000,0.000000,0.000000,0.000000
6188.084000,0.008000,5,START g_bow,Note,43,G2,G,0.490958,0.279309,0.674040,0.103952,-1.813865,-1.939862,0.494973,1.245153,-2.657824,-1.329725,-0.888968,2.121361,4.273185,0.000000,0.000000,0.000000,0.000000,0.000000,0.000000
6188.092000,0.016000,5,START g_bow,Note,43,G2,G,0.482958,0.279141,0.673361,0.103888,-1.814031,-1.939849,0.495060,1.245067,-2.656790,-1.332427,-0.887422,2.121266,4.273171,0.000000,0.000000,0.000000,0.000000,0.000000,0.000000
6188.100000,0.024000,5,START g_bow,Note,43,G2,G,0.474958,0.278961,0.672637,0.103820,-1.814209,-1.939836,0.495152,1.244976,-2.655693,-1.335300,-0.885777,2.121164,4.273155,0.000000,0.000000,0.000000,0.000000,0.000000,0.000000
6188.108000,0.032000,5,START g_bow,Note,43,G2,G,0.466958,0.278770,0.671868,0.103747,-1.814397,-1.939822,0.495250,1.244878,-2.654529,-1.338351,-0.884030,2.121056,4.273139,0.000000,0.000000,0.000000,0.000000,0.000000,0.000000
6188.116000,0.040000,5,START g_bow,Note,43,G2,G,0.458958,0.278568,0.671051,0.103670,-1.814597,-1.939807,0.495354,1.244775,-2.653297,-1.341582,-0.882178,2.120941,4.273121,0.000000,0.000000,0.000000,0.000000,0.000000,0.000000
6188.124000,0.048000,5,START g_bow,Note,43,G2,G,0.450958,0.278356,0.670199,0.103590,-1.814805,-1.939792,0.495463,1.244666,-2.652016,-1.344948,-0.880248,2.120821,4.273101,0.000000,0.000000,0.000000,0.000000,0.000000,0.000000
6188.132000,0.056000,5,START g_bow,Note,43,G2,G,0.442958,0.278136,0.669313,0.103507,-1.815022,-1.939776,0.495576,1.244553,-2.650691,-1.348436,-0.878247,2.120697,4.273081,0.000000,0.000000,0.000000,0.000000,0.000000,0.000000
6188.140000,0.064000,5,START g_bow,Note,43,G2,G,0.434958,0.277908,0.668394,0.103420,-1.815247,-1.939759,0.495693,1.244435,-2.649320,-1.352045,-0.876174,2.120568,4.273060,0.000000,0.000000,0.000000,0.000000,0.000000,0.000000
6188.148000,0.072000,5,START g_bow,Note,43,G2,G,0.426958,0.277672,0.667443,0.103330,-1.815480,-1.939741,0.495815,1.244313,-2.647907,-1.355775,-0.874031,2.120434,4.273038,0.000000,0.000000,0.000000,0.000000,0.000000,0.000000
6188.156000,0.080000,5,START g_bow,Note,43,G2,G,0.418958,0.277428,0.666459,0.103238,-1.815721,-1.939723,0.495940,1.244187,-2.646450,-1.359625,-0.871818,2.120295,4.273014,0.000000,0.000000,0.000000,0.000000,0.000000,0.000000
6188.164000,0.088000,5,START g_bow,Note,43,G2,G,0.410958,0.277176,0.665442,0.103142,-1.815970,-1.939705,0.496070,1.244055,-2.644952,-1.363589,-0.869537,2.120152,4.272990,0.000000,0.000000,0.000000,0.000000,0.000000,0.000000
6188.172000,0.096000,5,START g_bow,Note,43,G2,G,0.402958,0.276927,0.664437,0.103047,-1.816216,-1.939686,0.496198,1.243925,-2.643478,-1.367499,-0.867286,2.120010,4.272965,0.000000,0.000000,0.000000,0.000000,0.000000,0.000000
6188.180000,0.104000,5,START g_bow,Note,43,G2,G,0.394958,0.276685,0.663465,0.102956,-1.816454,-1.939668,0.496322,1.243799,-2.642057,-1.371271,-0.865112,2.119873,4.272941,0.000000,0.000000,0.000000,0.000000,0.000000,0.000000
6188.188000,0.112000,5,START g_bow,Note,43,G2,G,0.386958,0.276452,0.662526,0.102867,-1.816684,-1.939651,0.496442,1.243677,-2.640689,-1.374907,-0.863015,2.119740,4.272917,0.000000,0.000000,0.000000,0.000000,0.000000,0.000000
6188.196000,0.120000,5,START g_bow,Note,43,G2,G,0.378958,0.276227,0.661620,0.102782,-1.816905,-1.939634,0.496558,1.243559,-2.639375,-1.378407,-0.860995,2.119612,4.272894,0.000000,0.000000,0.000000,0.000000,0.000000,0.000000
6188.204000,0.128000,5,START g_bow,Note,43,G2,G,0.370958,0.276011,0.660747,0.102700,-1.817119,-1.939618,0.496669,1.243445,-2.638113,-1.381773,-0.859051,2.119489,4.272871,0.000000,0.000000,0.000000,0.000000,0.000000,0.000000
6188.212000,0.136000,5,START g_bow,Note,43,G2,G,0.362958,0.275802,0.659906,0.102620,-1.817325,-1.939602,0.496777,1.243334,-2.636903,-1.385004,-0.857184,2.119370,4.272849,0.000000,0.000000,0.000000,0.000000,0.000000,0.000000
6188.220000,0.144000,5,START g_bow,Note,43,G2,G,0.354958,0.275602,0.659099,0.102544,-1.817522,-1.939587,0.496880,1.243228,-2.635745,-1.388103,-0.855392,2.119256,4.272827,0.000000,0.000000,0.000000,0.000000,0.000000,0.000000
6188.228000,0.152000,5,START g_bow,Note,43,G2,G,0.346958,0.275410,0.658325,0.102471,-1.817712,-1.939573,0.496979,1.243126,-2.634637,-1.391070,-0.853675,2.119146,4.272806,0.000000,0.000000,0.000000,0.000000,0.000000,0.000000
6188.236000,0.160000,5,START g_bow,Note,43,G2,G,0.338958,0.275226,0.657583,0.102401,-1.817894,-1.939559,0.497073,1.243029,-2.633579,-1.393905,-0.852034,2.119041,4.272786,0.000000,0.000000,0.000000,0.000000,0.000000,0.000000
6188.260000,0.184000,5,START g_bow,Note,43,G2,G,0.314958,0.274723,0.655557,0.102211,-1.818390,-1.939522,0.497332,1.242760,-2.630706,-1.401628,-0.847558,2.118753,4.272730,0.000000,0.000000,0.000000,0.000000,0.000000,0.000000
6188.284000,0.208000,5,START g_bow,Note,43,G2,G,0.290958,0.274294,0.653827,0.102048,-1.818813,-1.939489,0.497553,1.242530,-2.628271,-1.408191,-0.843748,2.118508,4.272680,0.000000,0.000000,0.000000,0.000000,0.000000,0.000000
6188.300000,0.224000,5,START g_bow,Note,43,G2,G,0.274958,0.274048,0.652838,0.101954,-1.819055,-1.939471,0.497679,1.242397,-2.626888,-1.411929,-0.841576,2.118367,4.272651,0.000000,0.000000,0.000000,0.000000,0.000000,0.000000
6188.308000,0.232000,5,START g_bow,Note,43,G2,G,0.266958,0.273938,0.652393,0.101912,-1.819164,-1.939463,0.497736,1.242338,-2.626267,-1.413609,-0.840600,2.118304,4.272638,0.000000,0.000000,0.000000,0.000000,0.000000,0.000000
6188.316000,0.240000,5,START g_bow,Note,43,G2,G,0.258958,0.273836,0.651981,0.101874,-1.819265,-1.939455,0.497789,1.242282,-2.625693,-1.415162,-0.839696,2.118246,4.272626,0.000000,0.000000,0.000000,0.000000,0.000000,0.000000
6188.324000,0.248000,5,START g_bow,Note,43,G2,G,0.250958,0.273742,0.651602,0.101838,-1.819358,-1.939448,0.497837,1.242231,-2.625166,-1.416590,-0.838866,2.118192,4.272615,0.000000,0.000000,0.000000,0.000000,0.000000,0.000000
6188.332000,0.256000,5,START g_bow,Note,43,G2,G,0.242958,0.273656,0.651256,0.101805,-1.819442,-1.939441,0.497881,1.242185,-2.624685,-1.417892,-0.838108,2.118143,4.272604,0.000000,0.000000,0.000000,0.000000,0.000000,0.000000
6188.348000,0.272000,5,START g_bow,Note,43,G2,G,0.226958,0.273509,0.650663,0.101749,-1.819588,-1.939430,0.497957,1.242105,-2.623863,-1.420123,-0.836809,2.118058,4.272587,0.000000,0.000000,0.000000,0.000000,0.000000,0.000000
6188.372000,0.296000,5,START g_bow,Note,43,G2,G,0.202958,0.273349,0.650021,0.101689,-1.819745,-1.939418,0.498039,1.242018,-2.622975,-1.422536,-0.835404,2.117967,4.272567,0.000000,0.000000,0.000000,0.000000,0.000000,0.000000
6188.388000,0.312000,5,START g_bow,Note,43,G2,G,0.186958,0.273284,0.649757,0.101664,-1.819809,-1.939413,0.498073,1.241983,-2.622611,-1.423525,-0.834827,2.117929,4.272559,0.000000,0.000000,0.000000,0.000000,0.000000,0.000000
6188.396000,0.320000,5,START g_bow,Note,43,G2,G,0.178958,0.273264,0.649675,0.101656,-1.819830,-1.939412,0.498083,1.241972,-2.622497,-1.423834,-0.834647,2.117917,4.272556,0.000000,0.000000,0.000000,0.000000,0.000000,0.000000
6188.404000,0.328000,5,START g_bow,Note,43,G2,G,0.170958,0.273251,0.649625,0.101652,-1.819842,-1.939411,0.498090,1.241965,-2.622429,-1.424019,-0.834539,2.117910,4.272555,0.000000,0.000000,0.000000,0.000000,0.000000,0.000000
6188.412000,0.336000,5,START g_bow,Note,43,G2,G,0.162958,0.273247,0.649609,0.101650,-1.819846,-1.939410,0.498092,1.241963,-2.622407,-1.424081,-0.834503,2.117908,4.272554,0.000000,0.000000,0.000000,0.000000,0.000000,0.000000
6188.420000,0.344000,6,END g_bow,Note,43,G2,G,0.154958,0.273247,0.649609,0.101650,-1.819846,-1.939410,0.498092,1.241963,-2.622407,-1.424081,-0.834503,2.117908,4.272554,0.000000,0.000000,0.000000,0.000000,0.000000,0.000000
6188.428000,0.352000,6,END g_bow,Note,43,G2,G,0.146958,0.273247,0.649609,0.101650,-1.819846,-1.939410,0.498092,1.241963,-2.622407,-1.424081,-0.834503,2.117908,4.272554,0.000000,0.000000,0.000000,0.000000,0.000000,0.000000
6188.436000,0.360000,6,END g_bow,Note,43,G2,G,0.138958,0.273247,0.649609,0.101650,-1.819846,-1.939410,0.498092,1.241963,-2.622407,-1.424081,-0.834503,2.117908,4.272554,0.000000,0.000000,0.000000,0.000000,0.000000,0.000000
6188.444000,0.368000,5,START g_bow,Note,43,G2,G,0.380958,0.273249,0.649615,0.101651,-1.819844,-1.939411,0.498091,1.241964,-2.622416,-1.424056,-0.834518,2.117909,4.272555,0.000000,0.000000,0.000000,0.000000,0.000000,0.000000
6188.452000,0.376000,5,START g_bow,Note,43,G2,G,0.372958,0.273258,0.649653,0.101654,-1.819835,-1.939411,0.498086,1.241969,-2.622468,-1.423915,-0.834600,2.117914,4.272556,0.000000,0.000000,0.000000,0.000000,0.000000,0.000000
6188.460000,0.384000,5,START g_bow,Note,43,G2,G,0.364958,0.273276,0.649724,0.101661,-1.819817,-1.939413,0.498077,1.241978,-2.622566,-1.423648,-0.834756,2.117924,4.272558,0.000000,0.000000,0.000000,0.000000,0.000000,0.000000
6188.468000,0.392000,5,START g_bow,Note,43,G2,G,0.356958,0.273302,0.649829,0.101671,-1.819792,-1.939415,0.498064,1.241993,-2.622710,-1.423255,-0.834985,2.117939,4.272561,0.000000,0.000000,0.000000,0.000000,0.000000,0.000000
6188.476000,0.400000,5,START g_bow,Note,43,G2,G,0.348958,0.273336,0.649967,0.101684,-1.819758,-1.939417,0.498046,1.242011,-2.622901,-1.422736,-0.835287,2.117959,4.272565,0.000000,0.000000,0.000000,0.000000,0.000000,0.000000
6188.484000,0.408000,5,START g_bow,Note,43,G2,G,0.340958,0.273379,0.650139,0.101700,-1.819716,-1.939420,0.498024,1.242034,-2.623138,-1.422092,-0.835662,2.117984,4.272571,0.000000,0.000000,0.000000,0.000000,0.000000,0.000000
6188.492000,0.416000,5,START g_bow,Note,43,G2,G,0.332958,0.273430,0.650345,0.101719,-1.819666,-1.939424,0.497998,1.242062,-2.623422,-1.421321,-0.836111,2.118013,4.272577,0.000000,0.000000,0.000000,0.000000,0.000000,0.000000
6188.500000,0.424000,5,START g_bow,Note,43,G2,G,0.324958,0.273489,0.650583,0.101742,-1.819607,-1.939428,0.497967,1.242094,-2.623753,-1.420424,-0.836634,2.118047,4.272584,0.000000,0.000000,0.000000,0.000000,0.000000,0.000000
6188.508000,0.432000,5,START g_bow,Note,43,G2,G,0.316958,0.273557,0.650856,0.101768,-1.819540,-1.939433,0.497933,1.242131,-2.624130,-1.419400,-0.837230,2.118086,4.272593,0.000000,0.000000,0.000000,0.000000,0.000000,0.000000
6188.516000,0.440000,5,START g_bow,Note,43,G2,G,0.308958,0.273632,0.651162,0.101796,-1.819466,-1.939439,0.497893,1.242172,-2.624554,-1.418250,-0.837900,2.118129,4.272602,0.000000,0.000000,0.000000,0.000000,0.000000,0.000000
6188.524000,0.448000,5,START g_bow,Note,43,G2,G,0.300958,0.273717,0.651501,0.101828,-1.819383,-1.939445,0.497850,1.242218,-2.625025,-1.416972,-0.838643,2.118178,4.272612,0.000000,0.000000,0.000000,0.000000,0.000000,0.000000
6188.532000,0.456000,5,START g_bow,Note,43,G2,G,0.292958,0.273809,0.651874,0.101864,-1.819291,-1.939452,0.497803,1.242268,-2.625543,-1.415567,-0.839460,2.118231,4.272623,0.000000,0.000000,0.000000,0.000000,0.000000,0.000000
6188.540000,0.464000,5,START g_bow,Note,43,G2,G,0.284958,0.273910,0.652280,0.101902,-1.819192,-1.939460,0.497751,1.242323,-2.626109,-1.414035,-0.840352,2.118289,4.272635,0.000000,0.000000,0.000000,0.000000,0.000000,0.000000
6188.548000,0.472000,5,START g_bow,Note,43,G2,G,0.276958,0.274019,0.652720,0.101943,-1.819084,-1.939468,0.497694,1.242382,-2.626723,-1.412374,-0.841317,2.118351,4.272648,0.000000,0.000000,0.000000,0.000000,0.000000,0.000000
6188.556000,0.480000,5,START g_bow,Note,43,G2,G,0.268958,0.274137,0.653194,0.101988,-1.818968,-1.939477,0.497634,1.242445,-2.627385,-1.410585,-0.842357,2.118419,4.272662,0.000000,0.000000,0.000000,0.000000,0.000000,0.000000
6188.564000,0.488000,5,START g_bow,Note,43,G2,G,0.260958,0.274262,0.653701,0.102036,-1.818844,-1.939486,0.497569,1.242513,-2.628094,-1.408668,-0.843471,2.118491,4.272677,0.000000,0.000000,0.000000,0.000000,0.000000,0.000000
6188.572000,0.496000,5,START g_bow,Note,43,G2,G,0.252958,0.274387,0.654204,0.102083,-1.818721,-1.939495,0.497505,1.242580,-2.628800,-1.406764,-0.844577,2.118562,4.272692,0.000000,0.000000,0.000000,0.000000,0.000000,0.000000
6188.580000,0.504000,5,START g_bow,Note,43,G2,G,0.244958,0.274504,0.654673,0.102127,-1.818606,-1.939504,0.497445,1.242642,-2.629460,-1.404985,-0.845610,2.118629,4.272705,0.000000,0.000000,0.000000,0.000000,0.000000,0.000000
6188.588000,0.512000,5,START g_bow,Note,43,G2,G,0.236958,0.274612,0.655109,0.102168,-1.818499,-1.939512,0.497390,1.242700,-2.630073,-1.403331,-0.846570,2.118691,4.272718,0.000000,0.000000,0.000000,0.000000,0.000000,0.000000
6188.596000,0.520000,5,START g_bow,Note,43,G2,G,0.228958,0.274712,0.655511,0.102206,-1.818401,-1.939519,0.497338,1.242754,-2.630641,-1.401802,-0.847456,2.118748,4.272729,0.000000,0.000000,0.000000,0.000000,0.000000,0.000000
6188.604000,0.528000,5,START g_bow,Note,43,G2,G,0.220958,0.274803,0.655880,0.102241,-1.818311,-1.939526,0.497291,1.242803,-2.631162,-1.400400,-0.848269,2.118801,4.272740,0.000000,0.000000,0.000000,0.000000,0.000000,0.000000
6188.612000,0.536000,5,START g_bow,Note,43,G2,G,0.212958,0.274886,0.656215,0.102273,-1.818229,-1.939532,0.497248,1.242847,-2.631636,-1.399124,-0.849009,2.118848,4.272749,0.000000,0.000000,0.000000,0.000000,0.000000,0.000000
6188.620000,0.544000,5,START g_bow,Note,43,G2,G,0.204958,0.274961,0.656517,0.102301,-1.818155,-1.939538,0.497210,1.242887,-2.632064,-1.397975,-0.849675,2.118891,4.272758,0.000000,0.000000,0.000000,0.000000,0.000000,0.000000
6188.644000,0.568000,5,START g_bow,Note,43,G2,G,0.180958,0.275136,0.657220,0.102367,-1.817982,-1.939550,0.497120,1.242981,-2.633063,-1.395290,-0.851231,2.118991,4.272777,0.000000,0.000000,0.000000,0.000000,0.000000,0.000000
6188.668000,0.592000,5,START g_bow,Note,43,G2,G,0.156958,0.275236,0.657623,0.102405,-1.817884,-1.939558,0.497069,1.243034,-2.633636,-1.393754,-0.852120,2.119048,4.272789,0.000000,0.000000,0.000000,0.000000,0.000000,0.000000
6188.676000,0.600000,5,START g_bow,Note,43,G2,G,0.148958,0.275252,0.657690,0.102412,-1.817868,-1.939559,0.497060,1.243043,-2.633731,-1.393498,-0.852269,2.119058,4.272790,0.000000,0.000000,0.000000,0.000000,0.000000,0.000000
6188.684000,0.608000,5,START g_bow,Note,43,G2,G,0.140958,0.275261,0.657723,0.102415,-1.817859,-1.939560,0.497056,1.243047,-2.633779,-1.393370,-0.852343,2.119062,4.272791,0.000000,0.000000,0.000000,0.000000,0.000000,0.000000
6188.692000,0.616000,6,END g_bow,Note,43,G2,G,0.132958,0.275262,0.657727,0.102415,-1.817858,-1.939560,0.497055,1.243048,-2.633785,-1.393354,-0.852352,2.119063,4.272791,0.000000,0.000000,0.000000,0.000000,0.000000,0.000000
6188.700000,0.624000,6,END g_bow,Note,43,G2,G,0.124958,0.275262,0.657727,0.102415,-1.817858,-1.939560,0.497055,1.243048,-2.633785,-1.393354,-0.852352,2.119063,4.272791,0.000000,0.000000,0.000000,0.000000,0.000000,0.000000
6188.708000,0.632000,6,END g_bow,Note,43,G2,G,0.116958,0.275262,0.657727,0.102415,-1.817858,-1.939560,0.497055,1.243048,-2.633785,-1.393354,-0.852352,2.119063,4.272791,0.000000,0.000000,0.000000,0.000000,0.000000,0.000000
6188.716000,0.640000,5,START g_bow,Note,45,A2,G,0.358958,0.275262,0.657727,0.102415,-1.817858,-1.939560,0.497055,1.243048,-2.633785,-1.393355,-0.852352,2.119063,4.272791,0.000000,0.000000,0.000000,0.000000,0.000000,0.000000
6188.732000,0.656000,5,START g_bow,Note,45,A2,G,0.342958,0.275243,0.657652,0.102408,-1.817877,-1.939558,0.497065,1.243038,-2.633677,-1.393643,-0.852185,2.119052,4.272789,0.000000,0.000000,0.000000,0.000000,0.000000,0.000000
6188.740000,0.664000,5,START g_bow,Note,45,A2,G,0.334958,0.275221,0.657564,0.102400,-1.817898,-1.939557,0.497076,1.243026,-2.633552,-1.393979,-0.851990,2.119040,4.272787,0.000000,0.000000,0.000000,0.000000,0.000000,0.000000
6188.772000,0.696000,5,START g_bow,Note,45,A2,G,0.302958,0.275051,0.656877,0.102335,-1.818067,-1.939544,0.497164,1.242935,-2.632575,-1.396602,-0.850471,2.118942,4.272768,0.000000,0.000000,0.000000,0.000000,0.000000,0.000000
6188.780000,0.704000,5,START g_bow,Note,45,A2,G,0.294958,0.274987,0.656621,0.102311,-1.818129,-1.939539,0.497197,1.242901,-2.632212,-1.397577,-0.849906,2.118906,4.272761,0.000000,0.000000,0.000000,0.000000,0.000000,0.000000
6188.788000,0.712000,5,START g_bow,Note,45,A2,G,0.286958,0.274915,0.656332,0.102284,-1.818200,-1.939534,0.497234,1.242863,-2.631802,-1.398678,-0.849268,2.118865,4.272753,0.000000,0.000000,0.000000,0.000000,0.000000,0.000000
6188.796000,0.720000,5,START g_bow,Note,45,A2,G,0.278958,0.274835,0.656009,0.102253,-1.818279,-1.939528,0.497275,1.242820,-2.631345,-1.399907,-0.848555,2.118819,4.272744,0.000000,0.000000,0.000000,0.000000,0.000000,0.000000
6188.804000,0.728000,5,START g_bow,Note,45,A2,G,0.270958,0.274747,0.655653,0.102220,-1.818366,-1.939522,0.497320,1.242773,-2.630842,-1.401262,-0.847770,2.118768,4.272733,0.000000,0.000000,0.000000,0.000000,0.000000,0.000000
6188.812000,0.736000,5,START g_bow,Note,45,A2,G,0.262958,0.274650,0.655263,0.102183,-1.818462,-1.939515,0.497370,1.242721,-2.630292,-1.402743,-0.846911,2.118713,4.272722,0.000000,0.000000,0.000000,0.000000,0.000000,0.000000
6188.820000,0.744000,5,START g_bow,Note,45,A2,G,0.254958,0.274545,0.654840,0.102143,-1.818565,-1.939507,0.497424,1.242665,-2.629695,-1.404350,-0.845978,2.118653,4.272710,0.000000,0.000000,0.000000,0.000000,0.000000,0.000000
6188.828000,0.752000,5,START g_bow,Note,45,A2,G,0.246958,0.274432,0.654383,0.102100,-1.818677,-1.939498,0.497482,1.242604,-2.629053,-1.406082,-0.844973,2.118588,4.272697,0.000000,0.000000,0.000000,0.000000,0.000000,0.000000
6188.836000,0.760000,5,START g_bow,Note,45,A2,G,0.238958,0.274310,0.653893,0.102054,-1.818797,-1.939489,0.497545,1.242538,-2.628364,-1.407939,-0.843894,2.118518,4.272683,0.000000,0.000000,0.000000,0.000000,0.000000,0.000000
6188.844000,0.768000,5,START g_bow,Note,45,A2,G,0.230958,0.274183,0.653380,0.102005,-1.818923,-1.939480,0.497610,1.242470,-2.627645,-1.409881,-0.842766,2.118445,4.272668,0.000000,0.000000,0.000000,0.000000,0.000000,0.000000
6188.852000,0.776000,5,START g_bow,Note,45,A2,G,0.222958,0.274062,0.652894,0.101960,-1.819042,-1.939471,0.497672,1.242405,-2.626966,-1.411719,-0.841698,2.118376,4.272654,0.000000,0.000000,0.000000,0.000000,0.000000,0.000000
6188.860000,0.784000,5,START g_bow,Note,45,A2,G,0.214958,0.273950,0.652441,0.101917,-1.819152,-1.939463,0.497730,1.242344,-2.626334,-1.413427,-0.840705,2.118312,4.272640,0.000000,0.000000,0.000000,0.000000,0.000000,0.000000
6188.868000,0.792000,5,START g_bow,Note,45,A2,G,0.206958,0.273846,0.652022,0.101878,-1.819255,-1.939455,0.497784,1.242288,-2.625750,-1.415008,-0.839786,2.118252,4.272628,0.000000,0.000000,0.000000,0.000000,0.000000,0.000000
6188.876000,0.800000,5,START g_bow,Note,45,A2,G,0.198958,0.273750,0.651637,0.101841,-1.819349,-1.939448,0.497833,1.242236,-2.625214,-1.416460,-0.838941,2.118197,4.272616,0.000000,0.000000,0.000000,0.000000,0.000000,0.000000
6188.884000,0.808000,5,START g_bow,Note,45,A2,G,0.190958,0.273663,0.651285,0.101808,-1.819435,-1.939441,0.497878,1.242189,-2.624725,-1.417785,-0.838170,2.118147,4.272606,0.000000,0.000000,0.000000,0.000000,0.000000,0.000000
6188.892000,0.816000,5,START g_bow,Note,45,A2,G,0.182958,0.273584,0.650967,0.101778,-1.819513,-1.939436,0.497918,1.242146,-2.624283,-1.418983,-0.837472,2.118102,4.272596,0.000000,0.000000,0.000000,0.000000,0.000000,0.000000
6188.900000,0.824000,5,START g_bow,Note,45,A2,G,0.174958,0.273513,0.650682,0.101751,-1.819583,-1.939430,0.497955,1.242108,-2.623889,-1.420055,-0.836849,2.118061,4.272587,0.000000,0.000000,0.000000,0.000000,0.000000,0.000000
6188.908000,0.832000,5,START g_bow,Note,45,A2,G,0.166958,0.273451,0.650430,0.101728,-1.819645,-1.939426,0.497987,1.242074,-2.623541,-1.420999,-0.836299,2.118025,4.272580,0.000000,0.000000,0.000000,0.000000,0.000000,0.000000
6188.916000,0.840000,5,START g_bow,Note,45,A2,G,0.158958,0.273397,0.650212,0.101707,-1.819698,-1.939422,0.498015,1.242044,-2.623239,-1.421817,-0.835822,2.117994,4.272573,0.000000,0.000000,0.000000,0.000000,0.000000,0.000000
6188.924000,0.848000,5,START g_bow,Note,45,A2,G,0.150958,0.273351,0.650028,0.101690,-1.819743,-1.939418,0.498038,1.242019,-2.622985,-1.422509,-0.835419,2.117968,4.272567,0.000000,0.000000,0.000000,0.000000,0.000000,0.000000
6188.932000,0.856000,5,START g_bow,Note,45,A2,G,0.142958,0.273314,0.649877,0.101675,-1.819780,-1.939415,0.498057,1.241999,-2.622776,-1.423075,-0.835089,2.117946,4.272563,0.000000,0.000000,0.000000,0.000000,0.000000,0.000000
6188.940000,0.864000,5,START g_bow,Note,45,A2,G,0.134958,0.273285,0.649760,0.101664,-1.819809,-1.939413,0.498072,1.241983,-2.622615,-1.423515,-0.834833,2.117929,4.272559,0.000000,0.000000,0.000000,0.000000,0.000000,0.000000
6188.948000,0.872000,5,START g_bow,Note,45,A2,G,0.126958,0.273264,0.649676,0.101656,-1.819829,-1.939412,0.498083,1.241972,-2.622499,-1.423829,-0.834650,2.117918,4.272557,0.000000,0.000000,0.000000,0.000000,0.000000,0.000000
6188.956000,0.880000,5,START g_bow,Note,45,A2,G,0.118958,0.273251,0.649626,0.101652,-1.819842,-1.939411,0.498090,1.241965,-2.622430,-1.424018,-0.834540,2.117910,4.272555,0.000000,0.000000,0.000000,0.000000,0.000000,0.000000
6188.964000,0.888000,5,START g_bow,Note,45,A2,G,0.110958,0.273247,0.649609,0.101650,-1.819846,-1.939410,0.498092,1.241963,-2.622407,-1.424081,-0.834503,2.117908,4.272554,0.000000,0.000000,0.000000,0.000000,0.000000,0.000000
6188.972000,0.896000,6,END g_bow,Note,45,A2,G,0.102958,0.273247,0.649609,0.101650,-1.819846,-1.939410,0.498092,1.241963,-2.622407,-1.424081,-0.834503,2.117908,4.272554,0.000000,0.000000,0.000000,0.000000,0.000000,0.000000
6188.980000,0.904000,6,END g_bow,Note,45,A2,G,0.094958,0.273247,0.649609,0.101650,-1.819846,-1.939410,0.498092,1.241963,-2.622407,-1.424081,-0.834503,2.117908,4.272554,0.000000,0.000000,0.000000,0.000000,0.000000,0.000000
6188.988000,0.912000,6,END g_bow,Note,45,A2,G,0.086958,0.273247,0.649609,0.101650,-1.819846,-1.939410,0.498092,1.241963,-2.622407,-1.424081,-0.834503,2.117908,4.272554,0.000000,0.000000,0.000000,0.000000,0.000000,0.000000
6188.996000,0.920000,5,START g_bow,Note,47,B2,G,0.578958,0.273249,0.649615,0.101651,-1.819844,-1.939411,0.498091,1.241964,-2.622415,-1.424057,-0.834517,2.117909,4.272555,0.000000,0.000000,0.000000,0.000000,0.000000,0.000000
6189.004000,0.928000,5,START g_bow,Note,47,B2,G,0.570958,0.273258,0.649652,0.101654,-1.819835,-1.939411,0.498086,1.241969,-2.622467,-1.423918,-0.834598,2.117914,4.272556,0.000000,0.000000,0.000000,0.000000,0.000000,0.000000
6189.012000,0.936000,5,START g_bow,Note,47,B2,G,0.562958,0.273275,0.649722,0.101661,-1.819819,-1.939413,0.498076,1.241978,-2.622563,-1.423655,-0.834751,2.117923,4.272558,0.000000,0.000000,0.000000,0.000000,0.000000,0.000000
6189.020000,0.944000,5,START g_bow,Note,47,B2,G,0.554958,0.273301,0.649825,0.101671,-1.819794,-1.939416,0.498062,1.241992,-2.622705,-1.423269,-0.834976,2.117937,4.272562,0.000000,0.000000,0.000000,0.000000,0.000000,0.000000
6189.028000,0.952000,5,START g_bow,Note,47,B2,G,0.546958,0.273335,0.649961,0.101683,-1.819762,-1.939419,0.498044,1.242010,-2.622893,-1.422759,-0.835272,2.117955,4.272566,0.000000,0.000000,0.000000,0.000000,0.000000,0.000000
6189.036000,0.960000,5,START g_bow,Note,47,B2,G,0.538958,0.273377,0.650130,0.101699,-1.819721,-1.939423,0.498021,1.242033,-2.623126,-1.422125,-0.835641,2.117978,4.272571,0.000000,0.000000,0.000000,0.000000,0.000000,0.000000
6189.044000,0.968000,5,START g_bow,Note,47,B2,G,0.530958,0.273427,0.650332,0.101718,-1.819673,-1.939427,0.497994,1.242060,-2.623405,-1.421367,-0.836082,2.118005,4.272578,0.000000,0.000000,0.000000,0.000000,0.000000,0.000000
6189.052000,0.976000,5,START g_bow,Note,47,B2,G,0.522958,0.273485,0.650567,0.101740,-1.819617,-1.939433,0.497962,1.242091,-2.623729,-1.420485,-0.836595,2.118036,4.272586,0.000000,0.000000,0.000000,0.000000,0.000000,0.000000
6189.060000,0.984000,5,START g_bow,Note,47,B2,G,0.514958,0.273551,0.650835,0.101766,-1.819553,-1.939439,0.497925,1.242127,-2.624100,-1.419479,-0.837180,2.118072,4.272594,0.000000,0.000000,0.000000,0.000000,0.000000,0.000000
6189.068000,0.992000,5,START g_bow,Note,47,B2,G,0.506958,0.273626,0.651135,0.101794,-1.819481,-1.939446,0.497885,1.242167,-2.624517,-1.418348,-0.837837,2.118113,4.272604,0.000000,0.000000,0.000000,0.000000,0.000000,0.000000
6189.076000,1.000000,5,START g_bow,Note,47,B2,G,0.498958,0.273709,0.651469,0.101826,-1.819402,-1.939454,0.497839,1.242212,-2.624980,-1.417092,-0.838567,2.118157,4.272615,0.000000,0.000000,0.000000,0.000000,0.000000,0.000000
6189.084000,1.008000,5,START g_bow,Note,47,B2,G,0.490958,0.273800,0.651836,0.101860,-1.819314,-1.939463,0.497790,1.242261,-2.625489,-1.415711,-0.839369,2.118207,4.272626,0.000000,0.000000,0.000000,0.000000,0.000000,0.000000
6189.092000,1.016000,5,START g_bow,Note,47,B2,G,0.482958,0.273899,0.652235,0.101898,-1.819219,-1.939472,0.497735,1.242314,-2.626045,-1.414204,-0.840244,2.118260,4.272639,0.000000,0.000000,0.000000,0.000000,0.000000,0.000000
6189.100000,1.024000,5,START g_bow,Note,47,B2,G,0.474958,0.274006,0.652668,0.101939,-1.819115,-1.939482,0.497677,1.242372,-2.626648,-1.412572,-0.841192,2.118318,4.272653,0.000000,0.000000,0.000000,0.000000,0.000000,0.000000
6189.108000,1.032000,5,START g_bow,Note,47,B2,G,0.466958,0.274122,0.653133,0.101982,-1.819004,-1.939493,0.497614,1.242434,-2.627298,-1.410814,-0.842212,2.118380,4.272667,0.000000,0.000000,0.000000,0.000000,0.000000,0.000000
6189.132000,1.056000,5,START g_bow,Note,47,B2,G,0.442958,0.274518,0.654727,0.102133,-1.818624,-1.939531,0.497398,1.242646,-2.629534,-1.404776,-0.845713,2.118594,4.272717,0.000000,0.000000,0.000000,0.000000,0.000000,0.000000
6189.156000,1.080000,5,START g_bow,Note,47,B2,G,0.418958,0.274987,0.656618,0.102311,-1.818172,-1.939575,0.497141,1.242896,-2.632204,-1.397585,-0.849877,2.118846,4.272774,0.000000,0.000000,0.000000,0.000000,0.000000,0.000000
6189.172000,1.096000,5,START g_bow,Note,47,B2,G,0.402958,0.275341,0.658043,0.102445,-1.817832,-1.939608,0.496948,1.243083,-2.634231,-1.392143,-0.853024,2.119037,4.272816,0.000000,0.000000,0.000000,0.000000,0.000000,0.000000
6189.180000,1.104000,5,START g_bow,Note,47,B2,G,0.394958,0.275530,0.658806,0.102517,-1.817650,-1.939626,0.496845,1.243183,-2.635319,-1.389226,-0.854710,2.119138,4.272838,0.000000,0.000000,0.000000,0.000000,0.000000,0.000000
6189.188000,1.112000,5,START g_bow,Note,47,B2,G,0.386958,0.275727,0.659601,0.102592,-1.817460,-1.939645,0.496737,1.243287,-2.636459,-1.386176,-0.856471,2.119244,4.272861,0.000000,0.000000,0.000000,0.000000,0.000000,0.000000
6189.196000,1.120000,5,START g_bow,Note,47,B2,G,0.378958,0.275933,0.660429,0.102670,-1.817263,-1.939664,0.496625,1.243395,-2.637649,-1.382994,-0.858308,2.119355,4.272885,0.000000,0.000000,0.000000,0.000000,0.000000,0.000000
6189.204000,1.128000,5,START g_bow,Note,47,B2,G,0.370958,0.276146,0.661290,0.102752,-1.817057,-1.939684,0.496508,1.243507,-2.638891,-1.379678,-0.860220,2.119469,4.272909,0.000000,0.000000,0.000000,0.000000,0.000000,0.000000
6189.212000,1.136000,5,START g_bow,Note,47,B2,G,0.362958,0.276368,0.662183,0.102836,-1.816844,-1.939705,0.496387,1.243623,-2.640185,-1.376228,-0.862208,2.119588,4.272934,0.000000,0.000000,0.000000,0.000000,0.000000,0.000000
6189.220000,1.144000,5,START g_bow,Note,47,B2,G,0.354958,0.276598,0.663110,0.102923,-1.816623,-1.939726,0.496261,1.243743,-2.641532,-1.372643,-0.864273,2.119711,4.272959,0.000000,0.000000,0.000000,0.000000,0.000000,0.000000
6189.228000,1.152000,5,START g_bow,Note,47,B2,G,0.346958,0.276837,0.664070,0.103014,-1.816393,-1.939749,0.496131,1.243867,-2.642933,-1.368921,-0.866415,2.119839,4.272985,0.000000,0.000000,0.000000,0.000000,0.000000,0.000000
6189.236000,1.160000,5,START g_bow,Note,47,B2,G,0.338958,0.277083,0.665063,0.103107,-1.816156,-1.939772,0.495996,1.243995,-2.644387,-1.365062,-0.868635,2.119971,4.273012,0.000000,0.000000,0.000000,0.000000,0.000000,0.000000
6189.244000,1.168000,5,START g_bow,Note,47,B2,G,0.330958,0.277336,0.666082,0.103203,-1.815913,-1.939795,0.495858,1.244126,-2.645886,-1.361090,-0.870917,2.120106,4.273039,0.000000,0.000000,0.000000,0.000000,0.000000,0.000000
6189.252000,1.176000,5,START g_bow,Note,47,B2,G,0.322958,0.277584,0.667079,0.103297,-1.815675,-1.939818,0.495723,1.244254,-2.647359,-1.357195,-0.873154,2.120239,4.273065,0.000000,0.000000,0.000000,0.000000,0.000000,0.000000
6189.260000,1.184000,5,START g_bow,Note,47,B2,G,0.314958,0.277823,0.668043,0.103388,-1.815445,-1.939841,0.495593,1.244377,-2.648788,-1.353419,-0.875320,2.120366,4.273090,0.000000,0.000000,0.000000,0.000000,0.000000,0.000000
6189.268000,1.192000,5,START g_bow,Note,47,B2,G,0.306958,0.278054,0.668974,0.103476,-1.815223,-1.939862,0.495466,1.244495,-2.650174,-1.349764,-0.877416,2.120490,4.273113,0.000000,0.000000,0.000000,0.000000,0.000000,0.000000
6189.276000,1.200000,5,START g_bow,Note,47,B2,G,0.298958,0.278277,0.669872,0.103561,-1.815008,-1.939883,0.495345,1.244609,-2.651516,-1.346230,-0.879442,2.120609,4.273135,0.000000,0.000000,0.000000,0.000000,0.000000,0.000000
6189.284000,1.208000,5,START g_bow,Note,47,B2,G,0.290958,0.278491,0.670737,0.103642,-1.814802,-1.939903,0.495228,1.244719,-2.652814,-1.342817,-0.881396,2.120723,4.273157,0.000000,0.000000,0.000000,0.000000,0.000000,0.000000
6189.292000,1.216000,5,START g_bow,Note,47,B2,G,0.282958,0.278698,0.671569,0.103721,-1.814603,-1.939922,0.495115,1.244824,-2.654067,-1.339527,-0.883278,2.120833,4.273177,0.000000,0.000000,0.000000,0.000000,0.000000,0.000000
6189.300000,1.224000,5,START g_bow,Note,47,B2,G,0.274958,0.278896,0.672368,0.103796,-1.814413,-1.939941,0.495007,1.244925,-2.655274,-1.336361,-0.885089,2.120939,4.273196,0.000000,0.000000,0.000000,0.000000,0.000000,0.000000
6189.308000,1.232000,5,START g_bow,Note,47,B2,G,0.266958,0.279087,0.673134,0.103868,-1.814230,-1.939958,0.494903,1.245021,-2.656435,-1.333319,-0.886828,2.121040,4.273214,0.000000,0.000000,0.000000,0.000000,0.000000,0.000000
6189.316000,1.240000,5,START g_bow,Note,47,B2,G,0.258958,0.279269,0.673868,0.103938,-1.814055,-1.939975,0.494803,1.245114,-2.657550,-1.330402,-0.888495,2.121137,4.273231,0.000000,0.000000,0.000000,0.000000,0.000000,0.000000
6189.324000,1.248000,5,START g_bow,Note,47,B2,G,0.250958,0.279442,0.674568,0.104004,-1.813888,-1.939991,0.494709,1.245201,-2.658617,-1.327611,-0.890089,2.121229,4.273247,0.000000,0.000000,0.000000,0.000000,0.000000,0.000000
6189.332000,1.256000,5,START g_bow,Note,47,B2,G,0.242958,0.279608,0.675235,0.104066,-1.813728,-1.940007,0.494618,1.245285,-2.659638,-1.324946,-0.891609,2.121318,4.273263,0.000000,0.000000,0.000000,0.000000,0.000000,0.000000
6189.340000,1.264000,5,START g_bow,Note,47,B2,G,0.234958,0.279766,0.675870,0.104126,-1.813577,-1.940021,0.494532,1.245364,-2.660611,-1.322409,-0.893057,2.121401,4.273277,0.000000,0.000000,0.000000,0.000000,0.000000,0.000000
6189.348000,1.272000,5,START g_bow,Note,47,B2,G,0.226958,0.279915,0.676471,0.104183,-1.813433,-1.940035,0.494451,1.245439,-2.661535,-1.319999,-0.894431,2.121481,4.273291,0.000000,0.000000,0.000000,0.000000,0.000000,0.000000
6189.356000,1.280000,5,START g_bow,Note,47,B2,G,0.218958,0.280056,0.677040,0.104237,-1.813298,-1.940048,0.494374,1.245510,-2.662411,-1.317718,-0.895731,2.121555,4.273303,0.000000,0.000000,0.000000,0.000000,0.000000,0.000000
6189.364000,1.288000,5,START g_bow,Note,47,B2,G,0.210958,0.280189,0.677575,0.104287,-1.813170,-1.940060,0.494301,1.245576,-2.663238,-1.315565,-0.896958,2.121626,4.273315,0.000000,0.000000,0.000000,0.000000,0.000000,0.000000
6189.372000,1.296000,5,START g_bow,Note,47,B2,G,0.202958,0.280314,0.678078,0.104335,-1.813050,-1.940072,0.494233,1.245639,-2.664017,-1.313543,-0.898110,2.121692,4.273326,0.000000,0.000000,0.000000,0.000000,0.000000,0.000000
6189.380000,1.304000,5,START g_bow,Note,47,B2,G,0.194958,0.280430,0.678547,0.104379,-1.812938,-1.940082,0.494170,1.245697,-2.664745,-1.311650,-0.899187,2.121754,4.273336,0.000000,0.000000,0.000000,0.000000,0.000000,0.000000
6189.388000,1.312000,5,START g_bow,Note,47,B2,G,0.186958,0.280539,0.678984,0.104420,-1.812833,-1.940092,0.494110,1.245751,-2.665424,-1.309888,-0.900190,2.121812,4.273345,0.000000,0.000000,0.000000,0.000000,0.000000,0.000000
6189.396000,1.320000,5,START g_bow,Note,47,B2,G,0.178958,0.280639,0.679388,0.104458,-1.812737,-1.940102,0.494056,1.245801,-2.666052,-1.308257,-0.901118,2.121865,4.273354,0.000000,0.000000,0.000000,0.000000,0.000000,0.000000
6189.412000,1.336000,5,START g_bow,Note,47,B2,G,0.162958,0.280815,0.680096,0.104525,-1.812568,-1.940118,0.493960,1.245888,-2.667158,-1.305390,-0.902749,2.121958,4.273369,0.000000,0.000000,0.000000,0.000000,0.000000,0.000000
6189.420000,1.344000,5,START g_bow,Note,47,B2,G,0.154958,0.280890,0.680401,0.104554,-1.812495,-1.940125,0.493918,1.245926,-2.667635,-1.304155,-0.903451,2.121998,4.273375,0.000000,0.000000,0.000000,0.000000,0.000000,0.000000
6189.436000,1.360000,5,START g_bow,Note,47,B2,G,0.138958,0.281017,0.680912,0.104602,-1.812373,-1.940137,0.493849,1.245989,-2.668435,-1.302083,-0.904629,2.122065,4.273386,0.000000,0.000000,0.000000,0.000000,0.000000,0.000000
6189.452000,1.376000,5,START g_bow,Note,47,B2,G,0.122958,0.281111,0.681291,0.104637,-1.812283,-1.940145,0.493798,1.246036,-2.669030,-1.300544,-0.905503,2.122115,4.273394,0.000000,0.000000,0.000000,0.000000,0.000000,0.000000
6189.460000,1.384000,5,START g_bow,Note,47,B2,G,0.114958,0.281146,0.681431,0.104651,-1.812249,-1.940148,0.493779,1.246053,-2.669250,-1.299974,-0.905827,2.122133,4.273397,0.000000,0.000000,0.000000,0.000000,0.000000,0.000000
6189.468000,1.392000,5,START g_bow,Note,47,B2,G,0.106958,0.281172,0.681538,0.104661,-1.812224,-1.940151,0.493764,1.246066,-2.669419,-1.299539,-0.906074,2.122148,4.273399,0.000000,0.000000,0.000000,0.000000,0.000000,0.000000
6189.476000,1.400000,5,START g_bow,Note,47,B2,G,0.098958,0.281191,0.681612,0.104668,-1.812206,-1.940153,0.493754,1.246075,-2.669535,-1.299237,-0.906245,2.122157,4.273400,0.000000,0.000000,0.000000,0.000000,0.000000,0.000000
6189.484000,1.408000,5,START g_bow,Note,47,B2,G,0.090958,0.281201,0.681653,0.104672,-1.812196,-1.940153,0.493749,1.246080,-2.669600,-1.299070,-0.906340,2.122163,4.273401,0.000000,0.000000,0.000000,0.000000,0.000000,0.000000
6189.492000,1.416000,6,END g_bow,Note,47,B2,G,0.082958,0.281203,0.681663,0.104673,-1.812194,-1.940154,0.493748,1.246081,-2.669615,-1.299032,-0.906362,2.122164,4.273401,0.000000,0.000000,0.000000,0.000000,0.000000,0.000000
6189.500000,1.424000,6,END g_bow,Note,47,B2,G,0.074958,0.281203,0.681663,0.104673,-1.812194,-1.940154,0.493748,1.246081,-2.669615,-1.299032,-0.906362,2.122164,4.273401,0.000000,0.000000,0.000000,0.000000,0.000000,0.000000
6189.508000,1.432000,6,END g_bow,Note,47,B2,G,0.066958,0.281203,0.681663,0.104673,-1.812194,-1.940154,0.493748,1.246081,-2.669615,-1.299032,-0.906362,2.122164,4.273401,0.000000,0.000000,0.000000,0.000000,0.000000,0.000000
6189.516000,1.440000,6,END g_bow,Note,47,B2,G,0.058958,0.281203,0.681663,0.104673,-1.812194,-1.940154,0.493748,1.246081,-2.669615,-1.299032,-0.906362,2.122164,4.273401,0.000000,0.000000,0.000000,0.000000,0.000000,0.000000
6189.540000,1.464000,5,START g_bow,Note,47,B2,G,0.284958,0.281169,0.681524,0.104659,-1.812228,-1.940151,0.493765,1.246064,-2.669397,-1.299596,-0.906041,2.122145,4.273399,0.000000,0.000000,0.000000,0.000000,0.000000,0.000000
6189.548000,1.472000,5,START g_bow,Note,47,B2,G,0.276958,0.281141,0.681411,0.104649,-1.812256,-1.940149,0.493780,1.246050,-2.669219,-1.300056,-0.905780,2.122129,4.273397,0.000000,0.000000,0.000000,0.000000,0.000000,0.000000
6189.556000,1.480000,5,START g_bow,Note,47,B2,G,0.268958,0.281105,0.681264,0.104635,-1.812292,-1.940146,0.493798,1.246032,-2.668988,-1.300652,-0.905440,2.122108,4.273394,0.000000,0.000000,0.000000,0.000000,0.000000,0.000000
6189.564000,1.488000,5,START g_bow,Note,47,B2,G,0.260958,0.281060,0.681084,0.104618,-1.812336,-1.940143,0.493821,1.246010,-2.668705,-1.301383,-0.905024,2.122083,4.273391,0.000000,0.000000,0.000000,0.000000,0.000000,0.000000
6189.572000,1.496000,5,START g_bow,Note,47,B2,G,0.252958,0.281007,0.680870,0.104598,-1.812388,-1.940139,0.493849,1.245983,-2.668370,-1.302251,-0.904530,2.122053,4.273387,0.000000,0.000000,0.000000,0.000000,0.000000,0.000000
6189.580000,1.504000,5,START g_bow,Note,47,B2,G,0.244958,0.280945,0.680623,0.104575,-1.812448,-1.940135,0.493880,1.245953,-2.667982,-1.303254,-0.903959,2.122019,4.273382,0.000000,0.000000,0.000000,0.000000,0.000000,0.000000
6189.588000,1.512000,5,START g_bow,Note,47,B2,G,0.236958,0.280876,0.680342,0.104548,-1.812517,-1.940130,0.493916,1.245918,-2.667543,-1.304392,-0.903311,2.121980,4.273377,0.000000,0.000000,0.000000,0.000000,0.000000,0.000000
6189.596000,1.520000,5,START g_bow,Note,47,B2,G,0.228958,0.280798,0.680028,0.104519,-1.812594,-1.940124,0.493956,1.245879,-2.667051,-1.305665,-0.902586,2.121936,4.273371,0.000000,0.000000,0.000000,0.000000,0.000000,0.000000
6189.604000,1.528000,5,START g_bow,Note,47,B2,G,0.220958,0.280712,0.679680,0.104486,-1.812679,-1.940117,0.494001,1.245836,-2.666508,-1.307073,-0.901784,2.121887,4.273365,0.000000,0.000000,0.000000,0.000000,0.000000,0.000000
6189.612000,1.536000,5,START g_bow,Note,47,B2,G,0.212958,0.280617,0.679299,0.104450,-1.812773,-1.940110,0.494049,1.245788,-2.665913,-1.308615,-0.900906,2.121834,4.273357,0.000000,0.000000,0.000000,0.000000,0.000000,0.000000
6189.620000,1.544000,5,START g_bow,Note,47,B2,G,0.204958,0.280514,0.678884,0.104411,-1.812874,-1.940103,0.494102,1.245737,-2.665267,-1.310290,-0.899951,2.121776,4.273349,0.000000,0.000000,0.000000,0.000000,0.000000,0.000000
6189.628000,1.552000,5,START g_bow,Note,47,B2,G,0.196958,0.280403,0.678436,0.104369,-1.812984,-1.940095,0.494159,1.245681,-2.664570,-1.312099,-0.898920,2.121714,4.273341,0.000000,0.000000,0.000000,0.000000,0.000000,0.000000
6189.636000,1.560000,5,START g_bow,Note,47,B2,G,0.188958,0.280283,0.677954,0.104323,-1.813102,-1.940086,0.494221,1.245621,-2.663823,-1.314040,-0.897813,2.121646,4.273331,0.000000,0.000000,0.000000,0.000000,0.000000,0.000000
6189.644000,1.568000,5,START g_bow,Note,47,B2,G,0.180958,0.280156,0.677442,0.104275,-1.813227,-1.940076,0.494286,1.245557,-2.663030,-1.316100,-0.896638,2.121575,4.273321,0.000000,0.000000,0.000000,0.000000,0.000000,0.000000
6189.652000,1.576000,5,START g_bow,Note,47,B2,G,0.172958,0.280033,0.676947,0.104228,-1.813348,-1.940067,0.494349,1.245495,-2.662267,-1.318087,-0.895504,2.121505,4.273311,0.000000,0.000000,0.000000,0.000000,0.000000,0.000000
6189.660000,1.584000,5,START g_bow,Note,47,B2,G,0.164958,0.279919,0.676487,0.104185,-1.813461,-1.940059,0.494408,1.245437,-2.661556,-1.319936,-0.894448,2.121441,4.273302,0.000000,0.000000,0.000000,0.000000,0.000000,0.000000
6189.668000,1.592000,5,START g_bow,Note,47,B2,G,0.156958,0.279813,0.676059,0.104145,-1.813566,-1.940051,0.494463,1.245384,-2.660899,-1.321649,-0.893470,2.121381,4.273294,0.000000,0.000000,0.000000,0.000000,0.000000,0.000000
6189.676000,1.600000,5,START g_bow,Note,47,B2,G,0.148958,0.279715,0.675665,0.104107,-1.813662,-1.940044,0.494513,1.245334,-2.660294,-1.323226,-0.892569,2.121326,4.273286,0.000000,0.000000,0.000000,0.000000,0.000000,0.000000
6189.684000,1.608000,5,START g_bow,Note,47,B2,G,0.140958,0.279626,0.675305,0.104074,-1.813750,-1.940037,0.494559,1.245289,-2.659741,-1.324667,-0.891746,2.121276,4.273278,0.000000,0.000000,0.000000,0.000000,0.000000,0.000000
6189.692000,1.616000,5,START g_bow,Note,47,B2,G,0.132958,0.279545,0.674978,0.104043,-1.813830,-1.940031,0.494601,1.245248,-2.659241,-1.325973,-0.891000,2.121230,4.273272,0.000000,0.000000,0.000000,0.000000,0.000000,0.000000
6189.700000,1.624000,5,START g_bow,Note,47,B2,G,0.124958,0.279472,0.674685,0.104015,-1.813902,-1.940025,0.494638,1.245211,-2.658792,-1.327144,-0.890330,2.121189,4.273265,0.000000,0.000000,0.000000,0.000000,0.000000,0.000000
6189.708000,1.632000,5,START g_bow,Note,47,B2,G,0.116958,0.279408,0.674425,0.103991,-1.813966,-1.940021,0.494671,1.245178,-2.658395,-1.328180,-0.889738,2.121152,4.273260,0.000000,0.000000,0.000000,0.000000,0.000000,0.000000
6189.716000,1.640000,5,START g_bow,Note,47,B2,G,0.108958,0.279351,0.674199,0.103969,-1.814021,-1.940017,0.494700,1.245150,-2.658050,-1.329082,-0.889222,2.121121,4.273255,0.000000,0.000000,0.000000,0.000000,0.000000,0.000000
6189.724000,1.648000,5,START g_bow,Note,47,B2,G,0.100958,0.279304,0.674006,0.103951,-1.814068,-1.940013,0.494725,1.245125,-2.657756,-1.329850,-0.888783,2.121094,4.273251,0.000000,0.000000,0.000000,0.000000,0.000000,0.000000
6189.732000,1.656000,5,START g_bow,Note,47,B2,G,0.092958,0.279264,0.673847,0.103936,-1.814107,-1.940010,0.494745,1.245105,-2.657514,-1.330484,-0.888420,2.121071,4.273248,0.000000,0.000000,0.000000,0.000000,0.000000,0.000000
6189.740000,1.664000,5,START g_bow,Note,47,B2,G,0.084958,0.279233,0.673721,0.103924,-1.814138,-1.940008,0.494761,1.245089,-2.657322,-1.330985,-0.888134,2.121054,4.273245,0.000000,0.000000,0.000000,0.000000,0.000000,0.000000
6189.748000,1.672000,5,START g_bow,Note,47,B2,G,0.076958,0.279210,0.673629,0.103916,-1.814161,-1.940006,0.494773,1.245078,-2.657182,-1.331352,-0.887924,2.121041,4.273243,0.000000,0.000000,0.000000,0.000000,0.000000,0.000000
6189.756000,1.680000,5,START g_bow,Note,47,B2,G,0.068958,0.279195,0.673570,0.103910,-1.814175,-1.940005,0.494780,1.245070,-2.657093,-1.331585,-0.887790,2.121033,4.273242,0.000000,0.000000,0.000000,0.000000,0.000000,0.000000
6189.764000,1.688000,5,START g_bow,Note,47,B2,G,0.060958,0.279189,0.673545,0.103908,-1.814181,-1.940004,0.494784,1.245067,-2.657054,-1.331685,-0.887733,2.121029,4.273242,0.000000,0.000000,0.000000,0.000000,0.000000,0.000000
6189.772000,1.696000,6,END g_bow,Note,47,B2,G,0.052958,0.279189,0.673544,0.103908,-1.814181,-1.940004,0.494784,1.245067,-2.657053,-1.331689,-0.887730,2.121029,4.273242,0.000000,0.000000,0.000000,0.000000,0.000000,0.000000
6189.780000,1.704000,6,END g_bow,Note,47,B2,G,0.044958,0.279189,0.673544,0.103908,-1.814181,-1.940004,0.494784,1.245067,-2.657053,-1.331689,-0.887730,2.121029,4.273242,0.000000,0.000000,0.000000,0.000000,0.000000,0.000000
6189.788000,1.712000,6,END g_bow,Note,47,B2,G,0.036958,0.279189,0.673544,0.103908,-1.814181,-1.940004,0.494784,1.245067,-2.657053,-1.331689,-0.887730,2.121029,4.273242,0.000000,0.000000,0.000000,0.000000,0.000000,0.000000
6189.796000,1.720000,5,START g_bow,Note,48,C3,G,0.278958,0.279189,0.673546,0.103908,-1.814181,-1.940004,0.494784,1.245067,-2.657056,-1.331680,-0.887736,2.121029,4.273242,0.000000,0.000000,0.000000,0.000000,0.000000,0.000000
6189.804000,1.728000,5,START g_bow,Note,48,C3,G,0.270958,0.279197,0.673576,0.103911,-1.814174,-1.940005,0.494780,1.245071,-2.657101,-1.331563,-0.887803,2.121033,4.273242,0.000000,0.000000,0.000000,0.000000,0.000000,0.000000
6189.812000,1.736000,5,START g_bow,Note,48,C3,G,0.262958,0.279212,0.673638,0.103916,-1.814158,-1.940006,0.494772,1.245079,-2.657197,-1.331313,-0.887946,2.121042,4.273244,0.000000,0.000000,0.000000,0.000000,0.000000,0.000000
6189.820000,1.744000,5,START g_bow,Note,48,C3,G,0.254958,0.279236,0.673735,0.103926,-1.814135,-1.940008,0.494759,1.245091,-2.657343,-1.330930,-0.888165,2.121056,4.273246,0.000000,0.000000,0.000000,0.000000,0.000000,0.000000
6189.828000,1.752000,5,START g_bow,Note,48,C3,G,0.246958,0.279269,0.673865,0.103938,-1.814103,-1.940010,0.494743,1.245108,-2.657541,-1.330412,-0.888461,2.121074,4.273248,0.000000,0.000000,0.000000,0.000000,0.000000,0.000000
6189.836000,1.760000,5,START g_bow,Note,48,C3,G,0.238958,0.279309,0.674028,0.103953,-1.814063,-1.940013,0.494722,1.245128,-2.657790,-1.329762,-0.888833,2.121097,4.273252,0.000000,0.000000,0.000000,0.000000,0.000000,0.000000
6189.844000,1.768000,5,START g_bow,Note,48,C3,G,0.230958,0.279358,0.674225,0.103972,-1.814015,-1.940017,0.494697,1.245153,-2.658090,-1.328977,-0.889282,2.121124,4.273256,0.000000,0.000000,0.000000,0.000000,0.000000,0.000000
6189.852000,1.776000,5,START g_bow,Note,48,C3,G,0.222958,0.279415,0.674456,0.103993,-1.813958,-1.940021,0.494667,1.245182,-2.658442,-1.328058,-0.889808,2.121157,4.273261,0.000000,0.000000,0.000000,0.000000,0.000000,0.000000
6189.860000,1.784000,5,START g_bow,Note,48,C3,G,0.214958,0.279481,0.674720,0.104018,-1.813894,-1.940026,0.494634,1.245215,-2.658845,-1.327005,-0.890410,2.121194,4.273266,0.000000,0.000000,0.000000,0.000000,0.000000,0.000000
6189.868000,1.792000,5,START g_bow,Note,48,C3,G,0.206958,0.279554,0.675017,0.104046,-1.813821,-1.940032,0.494596,1.245253,-2.659300,-1.325817,-0.891089,2.121235,4.273272,0.000000,0.000000,0.000000,0.000000,0.000000,0.000000
6189.900000,1.824000,5,START g_bow,Note,48,C3,G,0.174958,0.279933,0.676542,0.104190,-1.813447,-1.940060,0.494401,1.245444,-2.661642,-1.319713,-0.894576,2.121449,4.273303,0.000000,0.000000,0.000000,0.000000,0.000000,0.000000
6189.908000,1.832000,5,START g_bow,Note,48,C3,G,0.166958,0.280048,0.677007,0.104234,-1.813334,-1.940068,0.494342,1.245503,-2.662359,-1.317846,-0.895641,2.121514,4.273313,0.000000,0.000000,0.000000,0.000000,0.000000,0.000000
6189.916000,1.840000,5,START g_bow,Note,48,C3,G,0.158958,0.280172,0.677506,0.104281,-1.813211,-1.940077,0.494278,1.245565,-2.663130,-1.315842,-0.896785,2.121584,4.273323,0.000000,0.000000,0.000000,0.000000,0.000000,0.000000
6189.932000,1.856000,5,START g_bow,Note,48,C3,G,0.142958,0.280417,0.678494,0.104374,-1.812970,-1.940096,0.494152,1.245688,-2.664660,-1.311865,-0.899053,2.121722,4.273342,0.000000,0.000000,0.000000,0.000000,0.000000,0.000000
6189.940000,1.864000,5,START g_bow,Note,48,C3,G,0.134958,0.280527,0.678938,0.104416,-1.812861,-1.940104,0.494095,1.245743,-2.665351,-1.310073,-0.900075,2.121784,4.273350,0.000000,0.000000,0.000000,0.000000,0.000000,0.000000
6189.948000,1.872000,5,START g_bow,Note,48,C3,G,0.126958,0.280629,0.679349,0.104454,-1.812760,-1.940111,0.494043,1.245795,-2.665990,-1.308415,-0.901020,2.121841,4.273358,0.000000,0.000000,0.000000,0.000000,0.000000,0.000000
6189.956000,1.880000,5,START g_bow,Note,48,C3,G,0.118958,0.280723,0.679726,0.104490,-1.812668,-1.940118,0.493995,1.245841,-2.666578,-1.306890,-0.901889,2.121894,4.273365,0.000000,0.000000,0.000000,0.000000,0.000000,0.000000
6189.964000,1.888000,5,START g_bow,Note,48,C3,G,0.110958,0.280808,0.680069,0.104522,-1.812584,-1.940125,0.493951,1.245884,-2.667115,-1.305499,-0.902681,2.121942,4.273372,0.000000,0.000000,0.000000,0.000000,0.000000,0.000000
6189.972000,1.896000,5,START g_bow,Note,48,C3,G,0.102958,0.280885,0.680379,0.104552,-1.812508,-1.940130,0.493911,1.245922,-2.667600,-1.304243,-0.903396,2.121985,4.273378,0.000000,0.000000,0.000000,0.000000,0.000000,0.000000
6189.980000,1.904000,5,START g_bow,Note,48,C3,G,0.094958,0.280954,0.680656,0.104578,-1.812440,-1.940135,0.493876,1.245957,-2.668034,-1.303121,-0.904035,2.122023,4.273383,0.000000,0.000000,0.000000,0.000000,0.000000,0.000000
6189.988000,1.912000,5,START g_bow,Note,48,C3,G,0.086958,0.281014,0.680899,0.104601,-1.812381,-1.940140,0.493845,1.245987,-2.668415,-1.302135,-0.904596,2.122057,4.273387,0.000000,0.000000,0.000000,0.000000,0.000000,0.000000
6189.996000,1.920000,5,START g_bow,Note,48,C3,G,0.078958,0.281066,0.681108,0.104620,-1.812330,-1.940144,0.493818,1.246013,-2.668744,-1.301285,-0.905080,2.122087,4.273391,0.000000,0.000000,0.000000,0.000000,0.000000,0.000000
6190.004000,1.928000,5,START g_bow,Note,48,C3,G,0.070958,0.281110,0.681284,0.104637,-1.812287,-1.940147,0.493796,1.246035,-2.669020,-1.300570,-0.905487,2.122111,4.273394,0.000000,0.000000,0.000000,0.000000,0.000000,0.000000
6190.012000,1.936000,5,START g_bow,Note,48,C3,G,0.062958,0.281145,0.681427,0.104650,-1.812252,-1.940149,0.493778,1.246052,-2.669244,-1.299991,-0.905817,2.122131,4.273397,0.000000,0.000000,0.000000,0.000000,0.000000,0.000000
6190.020000,1.944000,5,START g_bow,Note,48,C3,G,0.054958,0.281172,0.681536,0.104661,-1.812225,-1.940151,0.493764,1.246066,-2.669415,-1.299548,-0.906069,2.122146,4.273399,0.000000,0.000000,0.000000,0.000000,0.000000,0.000000
6190.028000,1.952000,5,START g_bow,Note,48,C3,G,0.046958,0.281191,0.681611,0.104668,-1.812207,-1.940153,0.493754,1.246075,-2.669534,-1.299241,-0.906243,2.122157,4.273400,0.000000,0.000000,0.000000,0.000000,0.000000,0.000000
6190.036000,1.960000,5,START g_bow,Note,48,C3,G,0.038958,0.281201,0.681653,0.104672,-1.812196,-1.940154,0.493749,1.246080,-2.669600,-1.299071,-0.906340,2.122163,4.273401,0.000000,0.000000,0.000000,0.000000,0.000000,0.000000
6190.044000,1.968000,6,END g_bow,Note,48,C3,G,0.030958,0.281203,0.681663,0.104673,-1.812194,-1.940154,0.493748,1.246081,-2.669615,-1.299032,-0.906362,2.122164,4.273401,0.000000,0.000000,0.000000,0.000000,0.000000,0.000000
6190.052000,1.976000,6,END g_bow,Note,48,C3,G,0.022958,0.281203,0.681663,0.104673,-1.812194,-1.940154,0.493748,1.246081,-2.669615,-1.299032,-0.906362,2.122164,4.273401,0.000000,0.000000,0.000000,0.000000,0.000000,0.000000
6190.060000,1.984000,6,END g_bow,Note,48,C3,G,0.014958,0.281203,0.681663,0.104673,-1.812194,-1.940154,0.493748,1.246081,-2.669615,-1.299032,-0.906362,2.122164,4.273401,0.000000,0.000000,0.000000,0.000000,0.000000,0.000000
6190.068000,1.992000,6,END g_bow,Note,48,C3,G,0.006958,0.281203,0.681663,0.104673,-1.812194,-1.940154,0.493748,1.246081,-2.669615,-1.299032,-0.906362,2.122164,4.273401,0.000000,0.000000,0.000000,0.000000,0.000000,0.000000
6190.076000,2.000000,107,START g_to_d,Transition,transition,transition G->D,G-D,0.198958,0.281230,0.681664,0.104686,-1.812194,-1.940154,0.493748,1.246048,-2.669611,-1.298984,-0.906434,2.122159,4.273363,0.000000,0.000000,0.000000,0.000000,0.000000,0.000000
6190.084000,2.008000,107,START g_to_d,Transition,transition,transition G->D,G-D,0.190958,0.281324,0.681668,0.104732,-1.812194,-1.940154,0.493748,1.245929,-2.669600,-1.298810,-0.906692,2.122139,4.273225,0.000000,0.000000,0.000000,0.000000,0.000000,0.000000
6190.092000,2.016000,107,START g_to_d,Transition,transition,transition G->D,G-D,0.182958,0.281488,0.681676,0.104813,-1.812194,-1.940154,0.493748,1.245724,-2.669579,-1.298509,-0.907137,2.122106,4.272988,0.000000,0.000000,0.000000,0.000000,0.000000,0.000000
6190.100000,2.024000,107,START g_to_d,Transition,transition,transition G->D,G-D,0.174958,0.281720,0.681687,0.104928,-1.812194,-1.940154,0.493748,1.245432,-2.669551,-1.298081,-0.907771,2.122059,4.272650,0.000000,0.000000,0.000000,0.000000,0.000000,0.000000
6190.108000,2.032000,107,START g_to_d,Transition,transition,transition G->D,G-D,0.166958,0.282021,0.681701,0.105076,-1.812194,-1.940154,0.493748,1.245054,-2.669514,-1.297525,-0.908592,2.121997,4.272212,0.000000,0.000000,0.000000,0.000000,0.000000,0.000000
6190.116000,2.040000,107,START g_to_d,Transition,transition,transition G->D,G-D,0.158958,0.282391,0.681718,0.105259,-1.812194,-1.940154,0.493748,1.244590,-2.669470,-1.296842,-0.909601,2.121922,4.271674,0.000000,0.000000,0.000000,0.000000,0.000000,0.000000
6190.124000,2.048000,107,START g_to_d,Transition,transition,transition G->D,G-D,0.150958,0.282829,0.681738,0.105476,-1.812194,-1.940154,0.493748,1.244040,-2.669419,-1.296030,-0.910798,2.121832,4.271037,0.000000,0.000000,0.000000,0.000000,0.000000,0.000000
6190.132000,2.056000,107,START g_to_d,Transition,transition,transition G->D,G-D,0.142958,0.283337,0.681762,0.105726,-1.812194,-1.940154,0.493748,1.243404,-2.669361,-1.295088,-0.912184,2.121728,4.270301,0.000000,0.000000,0.000000,0.000000,0.000000,0.000000
6190.140000,2.064000,107,START g_to_d,Transition,transition,transition G->D,G-D,0.134958,0.283913,0.681788,0.106011,-1.812194,-1.940154,0.493748,1.242682,-2.669297,-1.294016,-0.913758,2.121610,4.269465,0.000000,0.000000,0.000000,0.000000,0.000000,0.000000
6190.148000,2.072000,107,START g_to_d,Transition,transition,transition G->D,G-D,0.126958,0.284558,0.681818,0.106329,-1.812194,-1.940154,0.493748,1.241875,-2.669227,-1.292812,-0.915520,2.121478,4.268530,0.000000,0.000000,0.000000,0.000000,0.000000,0.000000
6190.180000,2.104000,107,START g_to_d,Transition,transition,transition G->D,G-D,0.094958,0.287826,0.681970,0.107943,-1.812194,-1.940154,0.493748,1.237793,-2.668911,-1.286654,-0.924463,2.120801,4.263807,0.000000,0.000000,0.000000,0.000000,0.000000,0.000000
6190.204000,2.128000,107,START g_to_d,Transition,transition,transition G->D,G-D,0.070958,0.290999,0.682117,0.109511,-1.812194,-1.940154,0.493748,1.233845,-2.668663,-1.280583,-0.933168,2.120138,4.259243,0.000000,0.000000,0.000000,0.000000,0.000000,0.000000
6190.212000,2.136000,107,START g_to_d,Transition,transition,transition G->D,G-D,0.062958,0.292195,0.682173,0.110101,-1.812194,-1.940154,0.493748,1.232362,-2.668584,-1.278272,-0.936452,2.119886,4.257529,0.000000,0.000000,0.000000,0.000000,0.000000,0.000000
6190.220000,2.144000,107,START g_to_d,Transition,transition,transition G->D,G-D,0.054958,0.293459,0.682231,0.110725,-1.812194,-1.940154,0.493748,1.230795,-2.668510,-1.275814,-0.939928,2.119619,4.255720,0.000000,0.000000,0.000000,0.000000,0.000000,0.000000
6190.228000,2.152000,107,START g_to_d,Transition,transition,transition G->D,G-D,0.046958,0.294790,0.682293,0.111383,-1.812194,-1.940154,0.493748,1.229149,-2.668442,-1.273210,-0.943592,2.119337,4.253819,0.000000,0.000000,0.000000,0.000000,0.000000,0.000000
6190.236000,2.160000,107,START g_to_d,Transition,transition,transition G->D,G-D,0.038958,0.296108,0.682354,0.112033,-1.812194,-1.940154,0.493748,1.227521,-2.668385,-1.270616,-0.947222,2.119056,4.251941,0.000000,0.000000,0.000000,0.000000,0.000000,0.000000
6190.252000,2.176000,107,START g_to_d,Transition,transition,transition G->D,G-D,0.022958,0.298537,0.682467,0.113233,-1.812194,-1.940154,0.493748,1.224529,-2.668306,-1.265792,-0.953923,2.118536,4.248488,0.000000,0.000000,0.000000,0.000000,0.000000,0.000000
6190.276000,2.200000,107,START g_to_d,Note,50,D3,D,0.298958,0.301665,0.682612,0.114778,-1.812194,-1.940154,0.493748,1.220688,-2.668256,-1.259501,-0.962570,2.117861,4.244060,0.000000,0.000000,0.000000,0.000000,0.000000,0.000000
6190.292000,2.216000,107,START g_to_d,Note,50,D3,D,0.282958,0.303406,0.682693,0.115638,-1.812194,-1.940154,0.493748,1.218557,-2.668253,-1.255959,-0.967392,2.117482,4.241605,0.000000,0.000000,0.000000,0.000000,0.000000,0.000000
6190.300000,2.224000,107,START g_to_d,Note,50,D3,D,0.274958,0.304173,0.682729,0.116017,-1.812194,-1.940154,0.493748,1.217619,-2.668257,-1.254389,-0.969519,2.117315,4.240524,0.000000,0.000000,0.000000,0.000000,0.000000,0.000000
6190.308000,2.232000,107,START g_to_d,Note,50,D3,D,0.266958,0.304872,0.682761,0.116362,-1.812194,-1.940154,0.493748,1.216766,-2.668265,-1.252954,-0.971456,2.117162,4.239542,0.000000,0.000000,0.000000,0.000000,0.000000,0.000000
6190.316000,2.240000,107,START g_to_d,Note,50,D3,D,0.258958,0.305501,0.682790,0.116673,-1.812194,-1.940154,0.493748,1.215997,-2.668273,-1.251657,-0.973204,2.117024,4.238657,0.000000,0.000000,0.000000,0.000000,0.000000,0.000000
6190.324000,2.248000,107,START g_to_d,Note,50,D3,D,0.250958,0.306062,0.682816,0.116950,-1.812194,-1.940154,0.493748,1.215314,-2.668283,-1.250499,-0.974761,2.116901,4.237870,0.000000,0.000000,0.000000,0.000000,0.000000,0.000000
6190.332000,2.256000,107,START g_to_d,Note,50,D3,D,0.242958,0.306555,0.682839,0.117193,-1.812194,-1.940154,0.493748,1.214714,-2.668294,-1.249480,-0.976128,2.116793,4.237180,0.000000,0.000000,0.000000,0.000000,0.000000,0.000000
6190.340000,2.264000,107,START g_to_d,Note,50,D3,D,0.234958,0.306978,0.682859,0.117402,-1.812194,-1.940154,0.493748,1.214198,-2.668304,-1.248602,-0.977304,2.116699,4.236587,0.000000,0.000000,0.000000,0.000000,0.000000,0.000000
6190.348000,2.272000,107,START g_to_d,Note,50,D3,D,0.226958,0.307332,0.682875,0.117577,-1.812194,-1.940154,0.493748,1.213767,-2.668313,-1.247865,-0.978290,2.116621,4.236090,0.000000,0.000000,0.000000,0.000000,0.000000,0.000000
6190.356000,2.280000,107,START g_to_d,Note,50,D3,D,0.218958,0.307618,0.682889,0.117718,-1.812194,-1.940154,0.493748,1.213419,-2.668321,-1.247271,-0.979084,2.116558,4.235690,0.000000,0.000000,0.000000,0.000000,0.000000,0.000000
6190.364000,2.288000,107,START g_to_d,Note,50,D3,D,0.210958,0.307835,0.682899,0.117825,-1.812194,-1.940154,0.493748,1.213155,-2.668327,-1.246819,-0.979687,2.116511,4.235386,0.000000,0.000000,0.000000,0.000000,0.000000,0.000000
6190.372000,2.296000,107,START g_to_d,Note,50,D3,D,0.202958,0.307983,0.682906,0.117899,-1.812194,-1.940154,0.493748,1.212975,-2.668332,-1.246510,-0.980099,2.116478,4.235179,0.000000,0.000000,0.000000,0.000000,0.000000,0.000000
6190.380000,2.304000,107,START g_to_d,Note,50,D3,D,0.194958,0.308063,0.682909,0.117938,-1.812194,-1.940154,0.493748,1.212879,-2.668334,-1.246344,-0.980320,2.116460,4.235068,0.000000,0.000000,0.000000,0.000000,0.000000,0.000000
6190.388000,2.312000,107,START g_to_d,Note,50,D3,D,0.186958,0.308077,0.682912,0.117945,-1.812189,-1.940161,0.493771,1.212862,-2.668336,-1.246304,-0.980389,2.116456,4.235037,0.000000,0.000000,0.000000,0.000000,0.000000,0.000000
6190.396000,2.320000,107,START g_to_d,Note,50,D3,D,0.178958,0.308073,0.682970,0.117944,-1.812078,-1.940346,0.494327,1.212900,-2.668366,-1.246083,-0.981078,2.116442,4.234779,0.000000,0.000000,0.000000,0.000000,0.000000,0.000000
6190.404000,2.328000,107,START g_to_d,Note,50,D3,D,0.170958,0.308062,0.683104,0.117943,-1.811814,-1.940785,0.495650,1.212987,-2.668434,-1.245564,-0.982710,2.116408,4.234165,0.000000,0.000000,0.000000,0.000000,0.000000,0.000000
6190.412000,2.336000,107,START g_to_d,Note,50,D3,D,0.162958,0.308045,0.683314,0.117941,-1.811390,-1.941486,0.497764,1.213124,-2.668537,-1.244747,-0.985314,2.116352,4.233182,0.000000,0.000000,0.000000,0.000000,0.000000,0.000000
6190.420000,2.344000,107,START g_to_d,Note,50,D3,D,0.154958,0.308023,0.683601,0.117938,-1.810800,-1.942456,0.500695,1.213311,-2.668675,-1.243626,-0.988917,2.116271,4.231815,0.000000,0.000000,0.000000,0.000000,0.000000,0.000000
6190.428000,2.352000,107,START g_to_d,Note,50,D3,D,0.146958,0.307994,0.683965,0.117934,-1.810038,-1.943700,0.504467,1.213549,-2.668847,-1.242199,-0.993544,2.116162,4.230055,0.000000,0.000000,0.000000,0.000000,0.000000,0.000000
6190.436000,2.360000,107,START g_to_d,Note,50,D3,D,0.138958,0.307959,0.684405,0.117930,-1.809097,-1.945224,0.509099,1.213837,-2.669055,-1.240459,-0.999219,2.116022,4.227889,0.000000,0.000000,0.000000,0.000000,0.000000,0.000000
6190.444000,2.368000,107,START g_to_d,Note,50,D3,D,0.130958,0.307918,0.684922,0.117924,-1.807970,-1.947030,0.514610,1.214176,-2.669298,-1.238401,-1.005961,2.115845,4.225309,0.000000,0.000000,0.000000,0.000000,0.000000,0.000000
6190.452000,2.376000,107,START g_to_d,Note,50,D3,D,0.122958,0.307871,0.685515,0.117918,-1.806650,-1.949119,0.521015,1.214565,-2.669580,-1.236018,-1.013788,2.115627,4.222310,0.000000,0.000000,0.000000,0.000000,0.000000,0.000000
6190.460000,2.384000,107,START g_to_d,Note,50,D3,D,0.114958,0.307818,0.686185,0.117911,-1.805131,-1.951491,0.528324,1.215005,-2.669905,-1.233300,-1.022713,2.115361,4.218885,0.000000,0.000000,0.000000,0.000000,0.000000,0.000000
6190.468000,2.392000,107,START g_to_d,Note,50,D3,D,0.106958,0.307759,0.686932,0.117904,-1.803405,-1.954144,0.536545,1.215494,-2.670277,-1.230239,-1.032744,2.115041,4.215033,0.000000,0.000000,0.000000,0.000000,0.000000,0.000000
6190.476000,2.400000,107,START g_to_d,Note,50,D3,D,0.098958,0.307694,0.687755,0.117895,-1.801465,-1.957072,0.545682,1.216034,-2.670703,-1.226824,-1.043887,2.114660,4.210753,0.000000,0.000000,0.000000,0.000000,0.000000,0.000000
6190.484000,2.408000,107,START g_to_d,Note,50,D3,D,0.090958,0.307623,0.688654,0.117886,-1.799306,-1.960269,0.555733,1.216624,-2.671189,-1.223044,-1.056141,2.114208,4.206049,0.000000,0.000000,0.000000,0.000000,0.000000,0.000000
6190.492000,2.416000,107,START g_to_d,Note,50,D3,D,0.082958,0.307546,0.689630,0.117876,-1.796922,-1.963726,0.566691,1.217263,-2.671744,-1.218888,-1.069500,2.113679,4.200926,0.000000,0.000000,0.000000,0.000000,0.000000,0.000000
6190.500000,2.424000,107,START g_to_d,Note,50,D3,D,0.074958,0.307463,0.690683,0.117865,-1.794307,-1.967433,0.578544,1.217951,-2.672378,-1.214342,-1.083954,2.113063,4.195394,0.000000,0.000000,0.000000,0.000000,0.000000,0.000000
6190.508000,2.432000,107,START g_to_d,Note,50,D3,D,0.066958,0.307374,0.691812,0.117853,-1.791469,-1.971358,0.591217,1.218687,-2.673106,-1.209397,-1.099421,2.112356,4.189496,0.000000,0.000000,0.000000,0.000000,0.000000,0.000000
6190.516000,2.440000,107,START g_to_d,Note,50,D3,D,0.058958,0.307278,0.693018,0.117841,-1.788544,-1.975304,0.604091,1.219465,-2.673989,-1.204088,-1.115239,2.111595,4.183554,0.000000,0.000000,0.000000,0.000000,0.000000,0.000000
6190.524000,2.448000,107,START g_to_d,Note,50,D3,D,0.050958,0.307177,0.694300,0.117828,-1.785571,-1.979213,0.616976,1.220283,-2.675045,-1.198424,-1.131205,2.110794,4.177669,0.000000,0.000000,0.000000,0.000000,0.000000,0.000000
6190.532000,2.456000,107,START g_to_d,Note,50,D3,D,0.042958,0.307069,0.695659,0.117813,-1.782552,-1.983084,0.629873,1.221140,-2.676277,-1.192400,-1.147321,2.109954,4.171838,0.000000,0.000000,0.000000,0.000000,0.000000,0.000000
6190.540000,2.464000,107,START g_to_d,Note,50,D3,D,0.034958,0.306956,0.697095,0.117799,-1.779486,-1.986917,0.642781,1.222037,-2.677689,-1.186012,-1.163590,2.109076,4.166063,0.000000,0.000000,0.000000,0.000000,0.000000,0.000000
6190.548000,2.472000,107,START g_to_d,Note,50,D3,D,0.026958,0.306836,0.698607,0.117783,-1.776373,-1.990713,0.655700,1.222972,-2.679283,-1.179254,-1.180012,2.108162,4.160343,0.000000,0.000000,0.000000,0.000000,0.000000,0.000000
6190.556000,2.480000,107,START g_to_d,Note,50,D3,D,0.018958,0.306711,0.700195,0.117767,-1.773213,-1.994471,0.668630,1.223945,-2.681062,-1.172121,-1.196590,2.107212,4.154677,0.000000,0.000000,0.000000,0.000000,0.000000,0.000000
6190.564000,2.488000,107,START g_to_d,Note,50,D3,D,0.010958,0.306579,0.701860,0.117750,-1.770007,-1.998190,0.681570,1.224956,-2.683032,-1.164607,-1.213327,2.106229,4.149066,0.000000,0.000000,0.000000,0.000000,0.000000,0.000000
6190.572000,2.496000,107,START g_to_d,Note,50,D3,D,0.002958,0.306441,0.703602,0.117732,-1.766752,-2.001871,0.694521,1.226004,-2.685194,-1.156705,-1.230227,2.105212,4.143508,0.000000,0.000000,0.000000,0.000000,0.000000,0.000000
6190.580000,2.504000,107,START g_to_d,Note,52,E3,D,0.244958,0.306298,0.705420,0.117713,-1.763451,-2.005514,0.707483,1.227089,-2.687554,-1.148408,-1.247291,2.104164,4.138002,0.000000,0.000000,0.000000,0.000000,0.000000,0.000000
6190.588000,2.512000,107,START g_to_d,Note,52,E3,D,0.236958,0.306148,0.707315,0.117693,-1.760103,-2.009118,0.720454,1.228210,-2.690116,-1.139707,-1.264524,2.103085,4.132550,0.000000,0.000000,0.000000,0.000000,0.000000,0.000000
6190.596000,2.520000,107,START g_to_d,Note,52,E3,D,0.228958,0.305992,0.709284,0.117673,-1.756707,-2.012683,0.733436,1.229365,-2.692880,-1.130603,-1.281926,2.101976,4.127148,0.000000,0.000000,0.000000,0.000000,0.000000,0.000000
6190.604000,2.528000,107,START g_to_d,Note,52,E3,D,0.220958,0.305835,0.711278,0.117652,-1.753263,-2.016209,0.746427,1.230529,-2.695764,-1.121280,-1.299411,2.100827,4.121768,0.000000,0.000000,0.000000,0.000000,0.000000,0.000000
6190.620000,2.544000,107,START g_to_d,Note,52,E3,D,0.204958,0.305519,0.715265,0.117611,-1.746234,-2.023143,0.772439,1.232840,-2.701769,-1.102242,-1.334502,2.098397,4.111036,0.000000,0.000000,0.000000,0.000000,0.000000,0.000000
6190.636000,2.560000,107,START g_to_d,Note,52,E3,D,0.188958,0.305204,0.719253,0.117570,-1.739013,-2.029918,0.798487,1.235132,-2.708099,-1.082666,-1.369759,2.095789,4.100345,0.000000,0.000000,0.000000,0.000000,0.000000,0.000000
6190.652000,2.576000,107,START g_to_d,Note,52,E3,D,0.172958,0.304889,0.723240,0.117529,-1.731601,-2.036534,0.824570,1.237405,-2.714766,-1.062528,-1.405188,2.093005,4.089699,0.000000,0.000000,0.000000,0.000000,0.000000,0.000000
6190.660000,2.584000,107,START g_to_d,Note,52,E3,D,0.164958,0.304733,0.725216,0.117509,-1.727823,-2.039782,0.837625,1.238525,-2.718197,-1.052314,-1.422935,2.091542,4.084386,0.000000,0.000000,0.000000,0.000000,0.000000,0.000000
6190.668000,2.592000,107,START g_to_d,Note,52,E3,D,0.156958,0.304582,0.727119,0.117489,-1.723997,-2.042989,0.850688,1.239604,-2.721578,-1.042250,-1.440585,2.090017,4.079049,0.000000,0.000000,0.000000,0.000000,0.000000,0.000000
6190.676000,2.600000,107,START g_to_d,Note,52,E3,D,0.148958,0.304438,0.728947,0.117470,-1.720123,-2.046156,0.863759,1.240640,-2.724899,-1.032360,-1.458125,2.088430,4.073688,0.000000,0.000000,0.000000,0.000000,0.000000,0.000000
6190.684000,2.608000,107,START g_to_d,Note,52,E3,D,0.140958,0.304299,0.730697,0.117452,-1.716201,-2.049282,0.876838,1.241634,-2.728157,-1.022649,-1.475552,2.086778,4.068306,0.000000,0.000000,0.000000,0.000000,0.000000,0.000000
6190.692000,2.616000,107,START g_to_d,Note,52,E3,D,0.132958,0.304167,0.732371,0.117435,-1.712230,-2.052367,0.889924,1.242586,-2.731347,-1.013125,-1.492861,2.085061,4.062904,0.000000,0.000000,0.000000,0.000000,0.000000,0.000000
6190.700000,2.624000,107,START g_to_d,Note,52,E3,D,0.124958,0.304041,0.733969,0.117418,-1.708211,-2.055411,0.903018,1.243497,-2.734468,-1.003792,-1.510047,2.083278,4.057483,0.000000,0.000000,0.000000,0.000000,0.000000,0.000000
6190.708000,2.632000,107,START g_to_d,Note,52,E3,D,0.116958,0.303920,0.735490,0.117403,-1.704189,-2.058380,0.915972,1.244365,-2.737515,-0.994687,-1.526951,2.081454,4.052116,0.000000,0.000000,0.000000,0.000000,0.000000,0.000000
6190.716000,2.640000,107,START g_to_d,Note,52,E3,D,0.108958,0.303806,0.736934,0.117388,-1.700311,-2.061172,0.928325,1.245188,-2.740482,-0.985912,-1.543080,2.079672,4.047017,0.000000,0.000000,0.000000,0.000000,0.000000,0.000000
6190.724000,2.648000,107,START g_to_d,Note,52,E3,D,0.100958,0.303698,0.738302,0.117374,-1.696598,-2.063783,0.940035,1.245965,-2.743358,-0.977492,-1.558385,2.077944,4.042205,0.000000,0.000000,0.000000,0.000000,0.000000,0.000000
6190.732000,2.656000,107,START g_to_d,Note,52,E3,D,0.092958,0.303596,0.739594,0.117360,-1.693055,-2.066219,0.951100,1.246696,-2.746133,-0.969442,-1.572864,2.076279,4.037677,0.000000,0.000000,0.000000,0.000000,0.000000,0.000000
6190.740000,2.664000,107,START g_to_d,Note,52,E3,D,0.084958,0.303500,0.740808,0.117348,-1.689688,-2.068484,0.961518,1.247382,-2.748798,-0.961778,-1.586512,2.074680,4.033429,0.000000,0.000000,0.000000,0.000000,0.000000,0.000000
6190.748000,2.672000,107,START g_to_d,Note,52,E3,D,0.076958,0.303410,0.741947,0.117336,-1.686504,-2.070584,0.971291,1.248024,-2.751343,-0.954515,-1.599327,2.073154,4.029461,0.000000,0.000000,0.000000,0.000000,0.000000,0.000000
6190.756000,2.680000,107,START g_to_d,Note,52,E3,D,0.068958,0.303326,0.743008,0.117325,-1.683507,-2.072523,0.980415,1.248621,-2.753761,-0.947668,-1.611304,2.071707,4.025768,0.000000,0.000000,0.000000,0.000000,0.000000,0.000000
6190.764000,2.688000,107,START g_to_d,Note,52,E3,D,0.060958,0.303248,0.743993,0.117315,-1.680703,-2.074305,0.988892,1.249174,-2.756042,-0.941249,-1.622440,2.070343,4.022349,0.000000,0.000000,0.000000,0.000000,0.000000,0.000000
6190.772000,2.696000,107,START g_to_d,Note,52,E3,D,0.052958,0.303176,0.744902,0.117305,-1.678096,-2.075935,0.996720,1.249683,-2.758178,-0.935274,-1.632733,2.069066,4.019201,0.000000,0.000000,0.000000,0.000000,0.000000,0.000000
6190.780000,2.704000,107,START g_to_d,Note,52,E3,D,0.044958,0.303110,0.745734,0.117297,-1.675690,-2.077416,1.003898,1.250148,-2.760163,-0.929753,-1.642180,2.067881,4.016323,0.000000,0.000000,0.000000,0.000000,0.000000,0.000000
6190.788000,2.712000,107,START g_to_d,Note,52,E3,D,0.036958,0.303051,0.746489,0.117289,-1.673490,-2.078751,1.010427,1.250570,-2.761988,-0.924699,-1.650776,2.066791,4.013712,0.000000,0.000000,0.000000,0.000000,0.000000,0.000000
6190.796000,2.720000,107,START g_to_d,Note,52,E3,D,0.028958,0.302997,0.747168,0.117282,-1.671499,-2.079945,1.016305,1.250948,-2.763648,-0.920122,-1.658521,2.065799,4.011367,0.000000,0.000000,0.000000,0.000000,0.000000,0.000000
6190.804000,2.728000,107,START g_to_d,Note,52,E3,D,0.020958,0.302949,0.747771,0.117276,-1.669721,-2.080998,1.021533,1.251284,-2.765136,-0.916033,-1.665411,2.064910,4.009285,0.000000,0.000000,0.000000,0.000000,0.000000,0.000000
6190.812000,2.736000,107,START g_to_d,Note,52,E3,D,0.012958,0.302908,0.748296,0.117270,-1.668158,-2.081915,1.026110,1.251576,-2.766448,-0.912440,-1.671443,2.064125,4.007466,0.000000,0.000000,0.000000,0.000000,0.000000,0.000000
6190.820000,2.744000,107,START g_to_d,Note,52,E3,D,0.004958,0.302872,0.748745,0.117266,-1.666813,-2.082697,1.030036,1.251826,-2.767578,-0.909352,-1.676617,2.063447,4.005907,0.000000,0.000000,0.000000,0.000000,0.000000,0.000000
6190.828000,2.752000,107,START g_to_d,Note,50,D3,D,0.246958,0.302843,0.749118,0.117262,-1.665687,-2.083347,1.033310,1.252033,-2.768522,-0.906775,-1.680929,2.062878,4.004609,0.000000,0.000000,0.000000,0.000000,0.000000,0.000000
6190.836000,2.760000,107,START g_to_d,Note,50,D3,D,0.238958,0.302819,0.749414,0.117259,-1.664784,-2.083865,1.035932,1.252198,-2.769277,-0.904716,-1.684380,2.062420,4.003569,0.000000,0.000000,0.000000,0.000000,0.000000,0.000000
6190.844000,2.768000,107,START g_to_d,Note,50,D3,D,0.230958,0.302802,0.749634,0.117257,-1.664104,-2.084253,1.037902,1.252320,-2.769840,-0.903178,-1.686966,2.062073,4.002787,0.000000,0.000000,0.000000,0.000000,0.000000,0.000000
6190.852000,2.776000,107,START g_to_d,Note,50,D3,D,0.222958,0.302791,0.749777,0.117255,-1.663649,-2.084512,1.039221,1.252400,-2.770210,-0.902166,-1.688688,2.061840,4.002263,0.000000,0.000000,0.000000,0.000000,0.000000,0.000000
6190.860000,2.784000,107,START g_to_d,Note,50,D3,D,0.214958,0.302786,0.749843,0.117254,-1.663418,-2.084643,1.039887,1.252438,-2.770383,-0.901682,-1.689545,2.061720,4.001995,0.000000,0.000000,0.000000,0.000000,0.000000,0.000000
6190.868000,2.792000,3,START d_bow,Note,50,D3,D,0.206958,0.302785,0.749844,0.117255,-1.663385,-2.084661,1.039981,1.252439,-2.770389,-0.901653,-1.689646,2.061701,4.001954,0.000000,0.000000,0.000000,0.000000,0.000000,0.000000
6190.876000,2.800000,3,START d_bow,Note,50,D3,D,0.198958,0.302788,0.749812,0.117259,-1.663382,-2.084658,1.039981,1.252424,-2.770312,-0.901808,-1.689576,2.061696,4.001938,0.000000,0.000000,0.000000,0.000000,0.000000,0.000000
6190.892000,2.816000,3,START d_bow,Note,50,D3,D,0.182958,0.302801,0.749651,0.117279,-1.663365,-2.084645,1.039982,1.252349,-2.769925,-0.902584,-1.689223,2.061668,4.001859,0.000000,0.000000,0.000000,0.000000,0.000000,0.000000
6190.908000,2.832000,3,START d_bow,Note,50,D3,D,0.166958,0.302824,0.749361,0.117316,-1.663334,-2.084620,1.039985,1.252212,-2.769230,-0.903979,-1.688588,2.061618,4.001716,0.000000,0.000000,0.000000,0.000000,0.000000,0.000000
6190.916000,2.840000,3,START d_bow,Note,50,D3,D,0.158958,0.302840,0.749168,0.117340,-1.663314,-2.084604,1.039986,1.252122,-2.768767,-0.904907,-1.688165,2.061585,4.001621,0.000000,0.000000,0.000000,0.000000,0.000000,0.000000
6190.924000,2.848000,3,START d_bow,Note,50,D3,D,0.150958,0.302858,0.748942,0.117368,-1.663290,-2.084585,1.039988,1.252016,-2.768227,-0.905990,-1.687673,2.061546,4.001510,0.000000,0.000000,0.000000,0.000000,0.000000,0.000000
6190.940000,2.864000,3,START d_bow,Note,50,D3,D,0.134958,0.302902,0.748394,0.117437,-1.663233,-2.084539,1.039993,1.251758,-2.766920,-0.908612,-1.686480,2.061451,4.001240,0.000000,0.000000,0.000000,0.000000,0.000000,0.000000
6190.948000,2.872000,3,START d_bow,Note,50,D3,D,0.126958,0.302927,0.748072,0.117478,-1.663199,-2.084512,1.039995,1.251606,-2.766152,-0.910151,-1.685781,2.061395,4.001081,0.000000,0.000000,0.000000,0.000000,0.000000,0.000000
6190.956000,2.880000,3,START d_bow,Note,50,D3,D,0.118958,0.302956,0.747718,0.117522,-1.663162,-2.084482,1.039998,1.251439,-2.765310,-0.911841,-1.685013,2.061334,4.000906,0.000000,0.000000,0.000000,0.000000,0.000000,0.000000
6190.964000,2.888000,3,START d_bow,Note,50,D3,D,0.110958,0.302987,0.747331,0.117571,-1.663121,-2.084449,1.040001,1.251257,-2.764392,-0.913682,-1.684177,2.061266,4.000715,0.000000,0.000000,0.000000,0.000000,0.000000,0.000000
6190.972000,2.896000,3,START d_bow,Note,50,D3,D,0.102958,0.303020,0.746912,0.117624,-1.663077,-2.084414,1.040005,1.251059,-2.763400,-0.915671,-1.683274,2.061193,4.000508,0.000000,0.000000,0.000000,0.000000,0.000000,0.000000
6190.980000,2.904000,3,START d_bow,Note,50,D3,D,0.094958,0.303056,0.746461,0.117681,-1.663030,-2.084376,1.040009,1.250846,-2.762333,-0.917808,-1.682304,2.061115,4.000284,0.000000,0.000000,0.000000,0.000000,0.000000,0.000000
6190.988000,2.912000,3,START d_bow,Note,50,D3,D,0.086958,0.303095,0.745978,0.117741,-1.662979,-2.084336,1.040013,1.250617,-2.761194,-0.920093,-1.681267,2.061030,4.000045,0.000000,0.000000,0.000000,0.000000,0.000000,0.000000
6190.996000,2.920000,3,START d_bow,Note,50,D3,D,0.078958,0.303137,0.745462,0.117806,-1.662925,-2.084292,1.040017,1.250373,-2.759981,-0.922523,-1.680165,2.060940,3.999790,0.000000,0.000000,0.000000,0.000000,0.000000,0.000000
6191.012000,2.936000,3,START d_bow,Note,50,D3,D,0.062958,0.303227,0.744334,0.117948,-1.662806,-2.084197,1.040026,1.249838,-2.757339,-0.927818,-1.677767,2.060742,3.999230,0.000000,0.000000,0.000000,0.000000,0.000000,0.000000
6191.036000,2.960000,3,START d_bow,Note,50,D3,D,0.038958,0.303382,0.742401,0.118191,-1.662603,-2.084035,1.040042,1.248918,-2.752842,-0.936823,-1.673694,2.060400,3.998268,0.000000,0.000000,0.000000,0.000000,0.000000,0.000000
6191.044000,2.968000,3,START d_bow,Note,50,D3,D,0.030958,0.303439,0.741692,0.118280,-1.662528,-2.083975,1.040048,1.248580,-2.751204,-0.940104,-1.672212,2.060274,3.997914,0.000000,0.000000,0.000000,0.000000,0.000000,0.000000
6191.052000,2.976000,3,START d_bow,Note,50,D3,D,0.022958,0.303498,0.740951,0.118374,-1.662450,-2.083912,1.040054,1.248226,-2.749497,-0.943521,-1.670670,2.060142,3.997544,0.000000,0.000000,0.000000,0.000000,0.000000,0.000000
6191.060000,2.984000,3,START d_bow,Note,50,D3,D,0.014958,0.303560,0.740178,0.118471,-1.662369,-2.083847,1.040061,1.247855,-2.747722,-0.947073,-1.669068,2.060003,3.997158,0.000000,0.000000,0.000000,0.000000,0.000000,0.000000
6191.068000,2.992000,3,START d_bow,Note,50,D3,D,0.006958,0.303624,0.739372,0.118572,-1.662284,-2.083780,1.040068,1.247469,-2.745879,-0.950759,-1.667406,2.059859,3.996754,0.000000,0.000000,0.000000,0.000000,0.000000,0.000000
6191.076000,3.000000,3,START d_bow,Transition,transition,transition D->G,D-G,0.198958,0.303692,0.738534,0.118678,-1.662196,-2.083709,1.040074,1.247066,-2.743971,-0.954577,-1.665687,2.059708,3.996334,0.000000,0.000000,0.000000,0.000000,0.000000,0.000000
6191.084000,3.008000,3,START d_bow,Transition,transition,transition D->G,D-G,0.190958,0.303761,0.737664,0.118787,-1.662105,-2.083636,1.040082,1.246648,-2.741996,-0.958526,-1.663911,2.059550,3.995898,0.000000,0.000000,0.000000,0.000000,0.000000,0.000000
6191.092000,3.016000,3,START d_bow,Transition,transition,transition D->G,D-G,0.182958,0.303833,0.736762,0.118901,-1.662010,-2.083560,1.040089,1.246212,-2.739957,-0.962604,-1.662078,2.059387,3.995444,0.000000,0.000000,0.000000,0.000000,0.000000,0.000000
6191.100000,3.024000,3,START d_bow,Transition,transition,transition D->G,D-G,0.174958,0.303908,0.735828,0.119018,-1.661912,-2.083481,1.040097,1.245761,-2.737853,-0.966809,-1.660190,2.059217,3.994973,0.000000,0.000000,0.000000,0.000000,0.000000,0.000000
6191.108000,3.032000,3,START d_bow,Transition,transition,transition D->G,D-G,0.166958,0.303986,0.734861,0.119140,-1.661810,-2.083400,1.040105,1.245292,-2.735686,-0.971140,-1.658247,2.059040,3.994485,0.000000,0.000000,0.000000,0.000000,0.000000,0.000000
6191.116000,3.040000,3,START d_bow,Transition,transition,transition D->G,D-G,0.158958,0.304066,0.733865,0.119265,-1.661705,-2.083316,1.040113,1.244809,-2.733464,-0.975580,-1.656257,2.058857,3.993982,0.000000,0.000000,0.000000,0.000000,0.000000,0.000000
6191.124000,3.048000,3,START d_bow,Transition,transition,transition D->G,D-G,0.150958,0.304144,0.732887,0.119388,-1.661602,-2.083234,1.040121,1.244333,-2.731289,-0.979925,-1.654312,2.058677,3.993487,0.000000,0.000000,0.000000,0.000000,0.000000,0.000000
6191.132000,3.056000,3,START d_bow,Transition,transition,transition D->G,D-G,0.142958,0.304220,0.731940,0.119507,-1.661503,-2.083154,1.040129,1.243871,-2.729194,-0.984108,-1.652441,2.058502,3.993007,0.000000,0.000000,0.000000,0.000000,0.000000,0.000000
6191.140000,3.064000,3,START d_bow,Transition,transition,transition D->G,D-G,0.134958,0.304293,0.731026,0.119622,-1.661407,-2.083077,1.040137,1.243424,-2.727178,-0.988132,-1.650644,2.058332,3.992542,0.000000,0.000000,0.000000,0.000000,0.000000,0.000000
6191.148000,3.072000,3,START d_bow,Transition,transition,transition D->G,D-G,0.126958,0.304364,0.730144,0.119733,-1.661314,-2.083003,1.040144,1.242992,-2.725241,-0.991999,-1.648918,2.058167,3.992094,0.000000,0.000000,0.000000,0.000000,0.000000,0.000000
6191.156000,3.080000,3,START d_bow,Transition,transition,transition D->G,D-G,0.118958,0.304432,0.729294,0.119840,-1.661225,-2.082931,1.040151,1.242576,-2.723381,-0.995709,-1.647263,2.058008,3.991661,0.000000,0.000000,0.000000,0.000000,0.000000,0.000000
6191.164000,3.088000,3,START d_bow,Transition,transition,transition D->G,D-G,0.110958,0.304497,0.728476,0.119943,-1.661139,-2.082862,1.040158,1.242174,-2.721598,-0.999266,-1.645678,2.057855,3.991244,0.000000,0.000000,0.000000,0.000000,0.000000,0.000000
6191.172000,3.096000,3,START d_bow,Transition,transition,transition D->G,D-G,0.102958,0.304560,0.727691,0.120042,-1.661056,-2.082796,1.040164,1.241787,-2.719891,-1.002671,-1.644162,2.057707,3.990842,0.000000,0.000000,0.000000,0.000000,0.000000,0.000000
6191.180000,3.104000,3,START d_bow,Transition,transition,transition D->G,D-G,0.094958,0.304621,0.726938,0.120137,-1.660977,-2.082733,1.040170,1.241416,-2.718259,-1.005924,-1.642715,2.057565,3.990457,0.000000,0.000000,0.000000,0.000000,0.000000,0.000000
6191.188000,3.112000,3,START d_bow,Transition,transition,transition D->G,D-G,0.086958,0.304678,0.726217,0.120227,-1.660901,-2.082672,1.040176,1.241059,-2.716702,-1.009029,-1.641335,2.057428,3.990088,0.000000,0.000000,0.000000,0.000000,0.000000,0.000000
6191.196000,3.120000,3,START d_bow,Transition,transition,transition D->G,D-G,0.078958,0.304734,0.725528,0.120314,-1.660829,-2.082614,1.040182,1.240719,-2.715218,-1.011986,-1.640021,2.057297,3.989734,0.000000,0.000000,0.000000,0.000000,0.000000,0.000000
6191.204000,3.128000,3,START d_bow,Transition,transition,transition D->G,D-G,0.070958,0.304786,0.724871,0.120397,-1.660760,-2.082559,1.040187,1.240393,-2.713808,-1.014796,-1.638774,2.057172,3.989397,0.000000,0.000000,0.000000,0.000000,0.000000,0.000000
6191.212000,3.136000,3,START d_bow,Transition,transition,transition D->G,D-G,0.062958,0.304836,0.724247,0.120475,-1.660694,-2.082506,1.040192,1.240084,-2.712471,-1.017461,-1.637592,2.057053,3.989076,0.000000,0.000000,0.000000,0.000000,0.000000,0.000000
6191.220000,3.144000,3,START d_bow,Transition,transition,transition D->G,D-G,0.054958,0.304884,0.723655,0.120550,-1.660632,-2.082456,1.040197,1.239789,-2.711205,-1.019982,-1.636474,2.056939,3.988772,0.000000,0.000000,0.000000,0.000000,0.000000,0.000000
6191.228000,3.152000,3,START d_bow,Transition,transition,transition D->G,D-G,0.046958,0.304928,0.723095,0.120620,-1.660573,-2.082409,1.040202,1.239511,-2.710011,-1.022360,-1.635421,2.056832,3.988483,0.000000,0.000000,0.000000,0.000000,0.000000,0.000000
6191.236000,3.160000,3,START d_bow,Transition,transition,transition D->G,D-G,0.038958,0.304971,0.722567,0.120686,-1.660518,-2.082365,1.040206,1.239248,-2.708888,-1.024596,-1.634431,2.056730,3.988211,0.000000,0.000000,0.000000,0.000000,0.000000,0.000000
6191.244000,3.168000,3,START d_bow,Transition,transition,transition D->G,D-G,0.030958,0.305010,0.722072,0.120749,-1.660466,-2.082323,1.040210,1.239001,-2.707836,-1.026691,-1.633504,2.056635,3.987956,0.000000,0.000000,0.000000,0.000000,0.000000,0.000000
6191.252000,3.176000,3,START d_bow,Transition,transition,transition D->G,D-G,0.022958,0.305047,0.721609,0.120807,-1.660417,-2.082284,1.040214,1.238770,-2.706855,-1.028646,-1.632639,2.056545,3.987716,0.000000,0.000000,0.000000,0.000000,0.000000,0.000000
6191.260000,3.184000,3,START d_bow,Transition,transition,transition D->G,D-G,0.014958,0.305082,0.721178,0.120861,-1.660372,-2.082248,1.040218,1.238554,-2.705943,-1.030461,-1.631837,2.056462,3.987493,0.000000,0.000000,0.000000,0.000000,0.000000,0.000000
6191.268000,3.192000,3,START d_bow,Transition,transition,transition D->G,D-G,0.006958,0.305114,0.720779,0.120911,-1.660330,-2.082214,1.040221,1.238355,-2.705100,-1.032138,-1.631096,2.056385,3.987287,0.000000,0.000000,0.000000,0.000000,0.000000,0.000000
6191.276000,3.200000,3,START d_bow,Note,47,B2,G,0.798958,0.305143,0.720413,0.120957,-1.660291,-2.082183,1.040224,1.238171,-2.704327,-1.033677,-1.630416,2.056314,3.987097,0.000000,0.000000,0.000000,0.000000,0.000000,0.000000
6191.284000,3.208000,3,START d_bow,Note,47,B2,G,0.790958,0.305170,0.720078,0.120999,-1.660256,-2.082155,1.040227,1.238004,-2.703623,-1.035078,-1.629798,2.056249,3.986924,0.000000,0.000000,0.000000,0.000000,0.000000,0.000000
6191.292000,3.216000,3,START d_bow,Note,47,B2,G,0.782958,0.305194,0.719776,0.121037,-1.660224,-2.082130,1.040229,1.237852,-2.702987,-1.036343,-1.629239,2.056190,3.986768,0.000000,0.000000,0.000000,0.000000,0.000000,0.000000
6191.300000,3.224000,3,START d_bow,Note,47,B2,G,0.774958,0.305216,0.719506,0.121071,-1.660196,-2.082107,1.040231,1.237717,-2.702420,-1.037471,-1.628741,2.056137,3.986628,0.000000,0.000000,0.000000,0.000000,0.000000,0.000000
6191.308000,3.232000,3,START d_bow,Note,47,B2,G,0.766958,0.305235,0.719269,0.121101,-1.660171,-2.082087,1.040233,1.237598,-2.701921,-1.038464,-1.628303,2.056091,3.986505,0.000000,0.000000,0.000000,0.000000,0.000000,0.000000
6191.316000,3.240000,3,START d_bow,Note,47,B2,G,0.758958,0.305251,0.719063,0.121127,-1.660149,-2.082070,1.040235,1.237494,-2.701490,-1.039321,-1.627925,2.056051,3.986398,0.000000,0.000000,0.000000,0.000000,0.000000,0.000000
6191.324000,3.248000,3,START d_bow,Note,47,B2,G,0.750958,0.305265,0.718890,0.121149,-1.660131,-2.082055,1.040236,1.237407,-2.701127,-1.040043,-1.627607,2.056017,3.986308,0.000000,0.000000,0.000000,0.000000,0.000000,0.000000
6191.332000,3.256000,3,START d_bow,Note,47,B2,G,0.742958,0.305277,0.718749,0.121167,-1.660116,-2.082043,1.040238,1.237337,-2.700832,-1.040631,-1.627348,2.055989,3.986235,0.000000,0.000000,0.000000,0.000000,0.000000,0.000000
6191.340000,3.264000,3,START d_bow,Note,47,B2,G,0.734958,0.305285,0.718640,0.121180,-1.660105,-2.082034,1.040238,1.237282,-2.700604,-1.041084,-1.627148,2.055968,3.986178,0.000000,0.000000,0.000000,0.000000,0.000000,0.000000
6191.348000,3.272000,3,START d_bow,Note,47,B2,G,0.726958,0.305291,0.718564,0.121190,-1.660097,-2.082028,1.040239,1.237243,-2.700444,-1.041403,-1.627008,2.055953,3.986139,0.000000,0.000000,0.000000,0.000000,0.000000,0.000000
6191.356000,3.280000,3,START d_bow,Note,47,B2,G,0.718958,0.305295,0.718520,0.121196,-1.660092,-2.082024,1.040239,1.237221,-2.700351,-1.041587,-1.626926,2.055944,3.986116,0.000000,0.000000,0.000000,0.000000,0.000000,0.000000
6191.372000,3.296000,4,END d_bow,Note,47,B2,G,0.702958,0.305296,0.718507,0.121197,-1.660091,-2.082023,1.040240,1.237215,-2.700325,-1.041638,-1.626904,2.055942,3.986109,0.000000,0.000000,0.000000,0.000000,0.000000,0.000000
6191.396000,3.320000,3,START d_bow,Transition,transition,transition G->D,G-D,0.878958,0.305295,0.718514,0.121196,-1.660092,-2.082024,1.040239,1.237218,-2.700339,-1.041612,-1.626915,2.055943,3.986113,0.000000,0.000000,0.000000,0.000000,0.000000,0.000000
6191.420000,3.344000,3,START d_bow,Transition,transition,transition G->D,G-D,0.854958,0.305279,0.718723,0.121170,-1.660114,-2.082041,1.040238,1.237323,-2.700776,-1.040742,-1.627299,2.055984,3.986221,0.000000,0.000000,0.000000,0.000000,0.000000,0.000000
6191.428000,3.352000,3,START d_bow,Transition,transition,transition G->D,G-D,0.846958,0.305268,0.718858,0.121153,-1.660128,-2.082053,1.040236,1.237391,-2.701060,-1.040178,-1.627547,2.056011,3.986291,0.000000,0.000000,0.000000,0.000000,0.000000,0.000000
6191.436000,3.360000,3,START d_bow,Transition,transition,transition G->D,G-D,0.838958,0.305254,0.719026,0.121132,-1.660146,-2.082067,1.040235,1.237476,-2.701412,-1.039478,-1.627856,2.056043,3.986379,0.000000,0.000000,0.000000,0.000000,0.000000,0.000000
6191.444000,3.368000,3,START d_bow,Transition,transition,transition G->D,G-D,0.830958,0.305238,0.719227,0.121107,-1.660167,-2.082083,1.040233,1.237576,-2.701833,-1.038640,-1.628225,2.056083,3.986483,0.000000,0.000000,0.000000,0.000000,0.000000,0.000000
6191.452000,3.376000,3,START d_bow,Transition,transition,transition G->D,G-D,0.822958,0.305220,0.719460,0.121077,-1.660191,-2.082103,1.040231,1.237694,-2.702323,-1.037665,-1.628655,2.056128,3.986604,0.000000,0.000000,0.000000,0.000000,0.000000,0.000000
6191.460000,3.384000,3,START d_bow,Transition,transition,transition G->D,G-D,0.814958,0.305198,0.719726,0.121044,-1.660219,-2.082125,1.040228,1.237827,-2.702883,-1.036551,-1.629146,2.056180,3.986742,0.000000,0.000000,0.000000,0.000000,0.000000,0.000000
6191.468000,3.392000,3,START d_bow,Transition,transition,transition G->D,G-D,0.806958,0.305174,0.720026,0.121006,-1.660251,-2.082151,1.040226,1.237977,-2.703512,-1.035299,-1.629698,2.056239,3.986898,0.000000,0.000000,0.000000,0.000000,0.000000,0.000000
6191.476000,3.400000,3,START d_bow,Transition,transition,transition G->D,G-D,0.798958,0.305148,0.720357,0.120964,-1.660286,-2.082178,1.040223,1.238144,-2.704211,-1.033908,-1.630312,2.056303,3.987070,0.000000,0.000000,0.000000,0.000000,0.000000,0.000000
6191.484000,3.408000,3,START d_bow,Transition,transition,transition G->D,G-D,0.790958,0.305119,0.720722,0.120918,-1.660324,-2.082209,1.040219,1.238326,-2.704980,-1.032378,-1.630988,2.056374,3.987259,0.000000,0.000000,0.000000,0.000000,0.000000,0.000000
6191.492000,3.416000,3,START d_bow,Transition,transition,transition G->D,G-D,0.782958,0.305087,0.721120,0.120868,-1.660366,-2.082242,1.040216,1.238525,-2.705819,-1.030707,-1.631726,2.056451,3.987464,0.000000,0.000000,0.000000,0.000000,0.000000,0.000000
6191.500000,3.424000,3,START d_bow,Transition,transition,transition G->D,G-D,0.774958,0.305052,0.721550,0.120814,-1.660412,-2.082279,1.040212,1.238740,-2.706729,-1.028896,-1.632526,2.056535,3.987687,0.000000,0.000000,0.000000,0.000000,0.000000,0.000000
6191.508000,3.432000,3,START d_bow,Transition,transition,transition G->D,G-D,0.766958,0.305015,0.722013,0.120756,-1.660460,-2.082318,1.040207,1.238971,-2.707710,-1.026942,-1.633390,2.056624,3.987926,0.000000,0.000000,0.000000,0.000000,0.000000,0.000000
6191.516000,3.440000,3,START d_bow,Transition,transition,transition G->D,G-D,0.758958,0.304975,0.722508,0.120694,-1.660513,-2.082359,1.040203,1.239218,-2.708763,-1.024847,-1.634316,2.056720,3.988182,0.000000,0.000000,0.000000,0.000000,0.000000,0.000000
6191.524000,3.448000,3,START d_bow,Transition,transition,transition G->D,G-D,0.750958,0.304936,0.723000,0.120632,-1.660565,-2.082400,1.040198,1.239463,-2.709809,-1.022765,-1.635238,2.056815,3.988436,0.000000,0.000000,0.000000,0.000000,0.000000,0.000000
6191.532000,3.456000,3,START d_bow,Transition,transition,transition G->D,G-D,0.742958,0.304899,0.723459,0.120574,-1.660613,-2.082439,1.040194,1.239692,-2.710787,-1.020817,-1.636100,2.056903,3.988673,0.000000,0.000000,0.000000,0.000000,0.000000,0.000000
6191.540000,3.464000,3,START d_bow,Transition,transition,transition G->D,G-D,0.734958,0.304865,0.723885,0.120521,-1.660658,-2.082475,1.040190,1.239904,-2.711696,-1.019005,-1.636903,2.056985,3.988892,0.000000,0.000000,0.000000,0.000000,0.000000,0.000000
6191.548000,3.472000,3,START d_bow,Transition,transition,transition G->D,G-D,0.726958,0.304834,0.724278,0.120471,-1.660699,-2.082508,1.040187,1.240099,-2.712538,-1.017329,-1.637645,2.057060,3.989095,0.000000,0.000000,0.000000,0.000000,0.000000,0.000000
6191.556000,3.480000,3,START d_bow,Transition,transition,transition G->D,G-D,0.718958,0.304805,0.724639,0.120426,-1.660737,-2.082538,1.040183,1.240278,-2.713310,-1.015791,-1.638327,2.057129,3.989280,0.000000,0.000000,0.000000,0.000000,0.000000,0.000000
6191.564000,3.488000,3,START d_bow,Transition,transition,transition G->D,G-D,0.710958,0.304778,0.724967,0.120384,-1.660772,-2.082566,1.040180,1.240441,-2.714013,-1.014390,-1.638949,2.057192,3.989449,0.000000,0.000000,0.000000,0.000000,0.000000,0.000000
6191.572000,3.496000,3,START d_bow,Transition,transition,transition G->D,G-D,0.702958,0.304755,0.725262,0.120347,-1.660803,-2.082590,1.040178,1.240587,-2.714646,-1.013128,-1.639509,2.057248,3.989601,0.000000,0.000000,0.000000,0.000000,0.000000,0.000000
6191.580000,3.504000,3,START d_bow,Transition,transition,transition G->D,G-D,0.694958,0.304734,0.725524,0.120314,-1.660831,-2.082612,1.040175,1.240717,-2.715210,-1.012004,-1.640007,2.057298,3.989735,0.000000,0.000000,0.000000,0.000000,0.000000,0.000000
6191.588000,3.512000,3,START d_bow,Transition,transition,transition G->D,G-D,0.686958,0.304715,0.725753,0.120286,-1.660855,-2.082632,1.040173,1.240830,-2.715704,-1.011020,-1.640444,2.057342,3.989853,0.000000,0.000000,0.000000,0.000000,0.000000,0.000000
6191.596000,3.520000,3,START d_bow,Transition,transition,transition G->D,G-D,0.678958,0.304700,0.725950,0.120261,-1.660876,-2.082648,1.040171,1.240928,-2.716127,-1.010176,-1.640819,2.057379,3.989954,0.000000,0.000000,0.000000,0.000000,0.000000,0.000000
6191.604000,3.528000,3,START d_bow,Transition,transition,transition G->D,G-D,0.670958,0.304687,0.726114,0.120240,-1.660893,-2.082662,1.040170,1.241009,-2.716480,-1.009472,-1.641131,2.057410,3.990038,0.000000,0.000000,0.000000,0.000000,0.000000,0.000000
6191.612000,3.536000,3,START d_bow,Transition,transition,transition G->D,G-D,0.662958,0.304676,0.726245,0.120224,-1.660907,-2.082673,1.040168,1.241073,-2.716763,-1.008908,-1.641381,2.057435,3.990106,0.000000,0.000000,0.000000,0.000000,0.000000,0.000000
6191.620000,3.544000,3,START d_bow,Transition,transition,transition G->D,G-D,0.654958,0.304668,0.726343,0.120211,-1.660917,-2.082681,1.040168,1.241122,-2.716975,-1.008485,-1.641569,2.057454,3.990156,0.000000,0.000000,0.000000,0.000000,0.000000,0.000000
6191.628000,3.552000,3,START d_bow,Transition,transition,transition G->D,G-D,0.646958,0.304663,0.726409,0.120203,-1.660924,-2.082687,1.040167,1.241155,-2.717117,-1.008203,-1.641695,2.057466,3.990190,0.000000,0.000000,0.000000,0.000000,0.000000,0.000000
6191.636000,3.560000,3,START d_bow,Transition,transition,transition G->D,G-D,0.638958,0.304660,0.726442,0.120199,-1.660928,-2.082690,1.040167,1.241171,-2.717188,-1.008062,-1.641757,2.057473,3.990206,0.000000,0.000000,0.000000,0.000000,0.000000,0.000000
6191.644000,3.568000,4,END d_bow,Transition,transition,transition G->D,G-D,0.630958,0.304660,0.726446,0.120198,-1.660928,-2.082690,1.040167,1.241173,-2.717196,-1.008045,-1.641765,2.057473,3.990209,0.000000,0.000000,0.000000,0.000000,0.000000,0.000000
6191.660000,3.584000,4,END d_bow,Transition,transition,transition G->D,G-D,0.614958,0.304660,0.726446,0.120198,-1.660928,-2.082690,1.040167,1.241173,-2.717196,-1.008045,-1.641765,2.057473,3.990209,0.000000,0.000000,0.000000,0.000000,0.000000,0.000000
6191.684000,3.608000,3,START d_bow,Transition,transition,transition G->D,G-D,0.590958,0.304666,0.726372,0.120208,-1.660920,-2.082684,1.040167,1.241136,-2.717037,-1.008363,-1.641624,2.057459,3.990171,0.000000,0.000000,0.000000,0.000000,0.000000,0.000000
6191.708000,3.632000,3,START d_bow,Transition,transition,transition G->D,G-D,0.566958,0.304694,0.726015,0.120253,-1.660883,-2.082654,1.040171,1.240960,-2.716268,-1.009895,-1.640943,2.057392,3.989988,0.000000,0.000000,0.000000,0.000000,0.000000,0.000000
6191.716000,3.640000,3,START d_bow,Transition,transition,transition G->D,G-D,0.558958,0.304709,0.725831,0.120276,-1.660863,-2.082638,1.040172,1.240869,-2.715871,-1.010687,-1.640592,2.057356,3.989893,0.000000,0.000000,0.000000,0.000000,0.000000,0.000000
6191.724000,3.648000,3,START d_bow,Transition,transition,transition G->D,G-D,0.550958,0.304727,0.725614,0.120303,-1.660840,-2.082620,1.040174,1.240761,-2.715403,-1.011619,-1.640178,2.057315,3.989782,0.000000,0.000000,0.000000,0.000000,0.000000,0.000000
6191.732000,3.656000,3,START d_bow,Transition,transition,transition G->D,G-D,0.542958,0.304747,0.725364,0.120335,-1.660814,-2.082599,1.040177,1.240637,-2.714866,-1.012690,-1.639703,2.057267,3.989653,0.000000,0.000000,0.000000,0.000000,0.000000,0.000000
6191.740000,3.664000,3,START d_bow,Transition,transition,transition G->D,G-D,0.534958,0.304769,0.725081,0.120370,-1.660784,-2.082575,1.040179,1.240497,-2.714258,-1.013900,-1.639166,2.057214,3.989508,0.000000,0.000000,0.000000,0.000000,0.000000,0.000000
6191.764000,3.688000,3,START d_bow,Transition,transition,transition G->D,G-D,0.510958,0.304853,0.724036,0.120502,-1.660674,-2.082488,1.040189,1.239979,-2.712020,-1.018360,-1.637188,2.057014,3.988970,0.000000,0.000000,0.000000,0.000000,0.000000,0.000000
6191.772000,3.696000,3,START d_bow,Transition,transition,transition G->D,G-D,0.502958,0.304886,0.723623,0.120554,-1.660630,-2.082453,1.040193,1.239773,-2.711136,-1.020121,-1.636408,2.056934,3.988757,0.000000,0.000000,0.000000,0.000000,0.000000,0.000000
6191.788000,3.712000,3,START d_bow,Transition,transition,transition G->D,G-D,0.486958,0.304960,0.722697,0.120670,-1.660533,-2.082375,1.040201,1.239312,-2.709163,-1.024050,-1.634669,2.056756,3.988280,0.000000,0.000000,0.000000,0.000000,0.000000,0.000000
6191.804000,3.728000,3,START d_bow,Transition,transition,transition G->D,G-D,0.470958,0.305039,0.721720,0.120793,-1.660430,-2.082293,1.040210,1.238825,-2.707089,-1.028180,-1.632843,2.056568,3.987775,0.000000,0.000000,0.000000,0.000000,0.000000,0.000000
6191.812000,3.736000,3,START d_bow,Transition,transition,transition G->D,G-D,0.462958,0.305074,0.721277,0.120849,-1.660383,-2.082256,1.040214,1.238604,-2.706152,-1.030044,-1.632019,2.056482,3.987546,0.000000,0.000000,0.000000,0.000000,0.000000,0.000000
6191.820000,3.744000,3,START d_bow,Transition,transition,transition G->D,G-D,0.454958,0.305107,0.720867,0.120900,-1.660340,-2.082221,1.040218,1.238399,-2.705286,-1.031768,-1.631257,2.056402,3.987334,0.000000,0.000000,0.000000,0.000000,0.000000,0.000000
6191.828000,3.752000,3,START d_bow,Transition,transition,transition G->D,G-D,0.446958,0.305137,0.720490,0.120948,-1.660300,-2.082190,1.040221,1.238210,-2.704491,-1.033351,-1.630558,2.056329,3.987139,0.000000,0.000000,0.000000,0.000000,0.000000,0.000000
6191.836000,3.760000,3,START d_bow,Transition,transition,transition G->D,G-D,0.438958,0.305165,0.720146,0.120991,-1.660264,-2.082161,1.040225,1.238038,-2.703766,-1.034794,-1.629921,2.056262,3.986960,0.000000,0.000000,0.000000,0.000000,0.000000,0.000000
6191.844000,3.768000,3,START d_bow,Transition,transition,transition G->D,G-D,0.430958,0.305190,0.719835,0.121030,-1.660231,-2.082135,1.040227,1.237882,-2.703110,-1.036098,-1.629346,2.056201,3.986799,0.000000,0.000000,0.000000,0.000000,0.000000,0.000000
6191.852000,3.776000,3,START d_bow,Transition,transition,transition G->D,G-D,0.422958,0.305212,0.719556,0.121065,-1.660201,-2.082111,1.040230,1.237742,-2.702525,-1.037263,-1.628832,2.056147,3.986654,0.000000,0.000000,0.000000,0.000000,0.000000,0.000000
6191.860000,3.784000,3,START d_bow,Transition,transition,transition G->D,G-D,0.414958,0.305232,0.719310,0.121096,-1.660176,-2.082091,1.040232,1.237619,-2.702008,-1.038290,-1.628379,2.056099,3.986526,0.000000,0.000000,0.000000,0.000000,0.000000,0.000000
6191.868000,3.792000,3,START d_bow,Transition,transition,transition G->D,G-D,0.406958,0.305249,0.719097,0.121123,-1.660153,-2.082073,1.040234,1.237512,-2.701561,-1.039180,-1.627987,2.056057,3.986416,0.000000,0.000000,0.000000,0.000000,0.000000,0.000000
6191.876000,3.800000,3,START d_bow,Transition,transition,transition G->D,G-D,0.398958,0.305263,0.718917,0.121146,-1.660134,-2.082057,1.040236,1.237421,-2.701183,-1.039932,-1.627656,2.056022,3.986322,0.000000,0.000000,0.000000,0.000000,0.000000,0.000000
6191.884000,3.808000,3,START d_bow,Transition,transition,transition G->D,G-D,0.390958,0.305275,0.718769,0.121164,-1.660119,-2.082045,1.040237,1.237347,-2.700874,-1.040546,-1.627385,2.055993,3.986246,0.000000,0.000000,0.000000,0.000000,0.000000,0.000000
6191.892000,3.816000,3,START d_bow,Transition,transition,transition G->D,G-D,0.382958,0.305284,0.718655,0.121179,-1.660106,-2.082035,1.040238,1.237289,-2.700634,-1.041024,-1.627174,2.055971,3.986186,0.000000,0.000000,0.000000,0.000000,0.000000,0.000000
6191.900000,3.824000,3,START d_bow,Transition,transition,transition G->D,G-D,0.374958,0.305291,0.718573,0.121189,-1.660098,-2.082029,1.040239,1.237248,-2.700463,-1.041366,-1.627024,2.055955,3.986143,0.000000,0.000000,0.000000,0.000000,0.000000,0.000000
6191.908000,3.832000,3,START d_bow,Transition,transition,transition G->D,G-D,0.366958,0.305295,0.718524,0.121195,-1.660093,-2.082024,1.040239,1.237223,-2.700360,-1.041570,-1.626934,2.055945,3.986118,0.000000,0.000000,0.000000,0.000000,0.000000,0.000000
6191.916000,3.840000,3,START d_bow,Transition,transition,transition G->D,G-D,0.358958,0.305296,0.718507,0.121197,-1.660091,-2.082023,1.040240,1.237215,-2.700325,-1.041638,-1.626904,2.055942,3.986109,0.000000,0.000000,0.000000,0.000000,0.000000,0.000000
6191.924000,3.848000,4,END d_bow,Transition,transition,transition G->D,G-D,0.350958,0.305296,0.718507,0.121197,-1.660091,-2.082023,1.040240,1.237215,-2.700325,-1.041638,-1.626904,2.055942,3.986109,0.000000,0.000000,0.000000,0.000000,0.000000,0.000000
6191.932000,3.856000,4,END d_bow,Transition,transition,transition G->D,G-D,0.342958,0.305296,0.718507,0.121197,-1.660091,-2.082023,1.040240,1.237215,-2.700325,-1.041638,-1.626904,2.055942,3.986109,0.000000,0.000000,0.000000,0.000000,0.000000,0.000000
6191.940000,3.864000,4,END d_bow,Transition,transition,transition G->D,G-D,0.334958,0.305296,0.718507,0.121197,-1.660091,-2.082023,1.040240,1.237215,-2.700325,-1.041638,-1.626904,2.055942,3.986109,0.000000,0.000000,0.000000,0.000000,0.000000,0.000000
6191.948000,3.872000,105,START d_to_g,Transition,transition,transition G->D,G-D,0.326958,0.305309,0.718508,0.121204,-1.660091,-2.082023,1.040240,1.237199,-2.700331,-1.041603,-1.626939,2.055932,3.986095,0.000000,0.000000,0.000000,0.000000,0.000000,0.000000
6191.956000,3.880000,105,START d_to_g,Transition,transition,transition G->D,G-D,0.318958,0.305387,0.718511,0.121242,-1.660091,-2.082023,1.040240,1.237108,-2.700365,-1.041402,-1.627145,2.055876,3.986013,0.000000,0.000000,0.000000,0.000000,0.000000,0.000000
6191.964000,3.888000,105,START d_to_g,Transition,transition,transition G->D,G-D,0.310958,0.305533,0.718518,0.121314,-1.660091,-2.082023,1.040240,1.236935,-2.700429,-1.041022,-1.627534,2.055771,3.985858,0.000000,0.000000,0.000000,0.000000,0.000000,0.000000
6191.972000,3.896000,105,START d_to_g,Transition,transition,transition G->D,G-D,0.302958,0.305748,0.718528,0.121420,-1.660091,-2.082023,1.040240,1.236681,-2.700523,-1.040461,-1.628106,2.055616,3.985631,0.000000,0.000000,0.000000,0.000000,0.000000,0.000000
6191.980000,3.904000,105,START d_to_g,Transition,transition,transition G->D,G-D,0.294958,0.306032,0.718541,0.121561,-1.660091,-2.082023,1.040240,1.236346,-2.700648,-1.039721,-1.628861,2.055411,3.985331,0.000000,0.000000,0.000000,0.000000,0.000000,0.000000
6191.988000,3.912000,105,START d_to_g,Transition,transition,transition G->D,G-D,0.286958,0.306384,0.718558,0.121735,-1.660091,-2.082023,1.040240,1.235930,-2.700805,-1.038800,-1.629799,2.055157,3.984959,0.000000,0.000000,0.000000,0.000000,0.000000,0.000000
6191.996000,3.920000,105,START d_to_g,Transition,transition,transition G->D,G-D,0.278958,0.306806,0.718577,0.121943,-1.660091,-2.082023,1.040240,1.235433,-2.700992,-1.037698,-1.630921,2.054854,3.984514,0.000000,0.000000,0.000000,0.000000,0.000000,0.000000
6192.004000,3.928000,105,START d_to_g,Transition,transition,transition G->D,G-D,0.270958,0.307296,0.718600,0.122185,-1.660091,-2.082023,1.040240,1.234855,-2.701212,-1.036412,-1.632227,2.054500,3.983997,0.000000,0.000000,0.000000,0.000000,0.000000,0.000000
