Praneshv25/Robot-Cello-RL/RL-code/nn_predicted_log.csv
timestamp_robot,time_elapsed_sec,event_label,current_event_type,bow_direction,current_string,remaining_duration_sec,calc_TCP_pose_x,calc_TCP_pose_y,calc_TCP_pose_z,calc_TCP_pose_rx,calc_TCP_pose_ry,calc_TCP_pose_rz,pred_q_base,pred_q_shoulder,pred_q_elbow,pred_q_wrist1,pred_q_wrist2,pred_q_wrist3
0.0,0.0028350353240966797,,bowing,up,A,0.49895833333333334,0.473129539189,0.41319742333,0.256308427905,-1.460522581833,-2.310115543652,1.445803824327,-2.3384877847919756,1.1473669698899298,-2.770844937564131,-1.2449583029303852,-1.362757661735195,-1.7883603839395747
0.01,0.002916097640991211,,bowing,up,A,0.48895833333333333,0.47255483161195,0.41446532605069997,0.2557864340889934,1.680797703306856,-0.831318579919272,-1.6961177782107058,-2.336714527284997,1.1502021495980317,-2.773346419350587,-1.2476192760242863,-1.360081972186586,-1.785930864606882
0.02,0.0029821395874023438,,bowing,up,A,0.4789583333333333,0.47198012403490003,0.41573322877139995,0.25526444027298667,1.6805253048199265,-0.8311601102831888,-1.6964467340608662,-2.3349414088079694,1.1530373293061336,-2.775847423025081,-1.250280502689094,-1.3574061590208284,-1.7835012759088977
0.03,0.003041982650756836,,bowing,up,A,0.46895833333333337,0.47140541645785,0.4170011314921,0.25474244645698,1.6802528763094167,-0.8310017010479609,-1.696775696823564,-2.3332013099442475,1.1558553330466983,-2.778289140816256,-1.253163286933547,-1.3547538367491292,-1.7810225072192827
0.04,0.003098011016845703,,bowing,up,A,0.45895833333333336,0.47083070888080003,0.4182690342128,0.25422045264097337,1.679980417788733,-0.830843352232,-1.6971046665090692,-2.331505235783371,1.1586498629649626,-2.7806529263575857,-1.2563380897733174,-1.3521322587894806,-1.7784786738862965
0.05,0.003153085708618164,,bowing,up,A,0.44895833333333335,0.47025600130375,0.41953693693349997,0.25369845882496667,1.679707929271275,-0.8306850638537162,-1.6974336431276291,-2.329809100796891,1.161444392883227,-2.7830167118989153,-1.2595128926130879,-1.349510673558235,-1.775934771188019
0.060000000000000005,0.0032072067260742188,,bowing,up,A,0.43895833333333334,0.46968129372670003,0.42080483965419996,0.25317646500896,1.6794354107704368,-0.830526835931515,-1.6977626266894712,-2.3281130309807003,1.164239113645575,-2.7853800193282825,-1.2626876637564952,-1.3468890519690044,-1.7733910072203243
0.07,0.0032601356506347656,,bowing,up,A,0.42895833333333333,0.46910658614965,0.4220727423749,0.25265447119295337,1.6791628622996062,-0.8303686684837981,-1.698091617204803,-2.3264168612367326,1.1670336435638393,-2.7877433267576506,-1.2658625616853556,-1.3442673067626252,-1.7708471738873381
0.08,0.0033130645751953125,,bowing,up,A,0.4189583333333333,0.46853187857260004,0.4233406450956,0.2521324773769467,1.6788902838721644,-0.8302105615289647,-1.6984206146838106,-2.324720691492765,1.1698281734821037,-2.7901061560750553,-1.269037839970576,-1.341645459753888,-1.7683032018237692
0.09,0.003365039825439453,,bowing,up,A,0.4089583333333333,0.46795717099555,0.4246085478163,0.25161048356094,1.6786176755014872,-0.8300525150854089,-1.6987496191366596,-2.3230246042978306,1.1726225125562841,-2.792468985392461,-1.2722130865594332,-1.3390234454984202,-1.7657593684907829
0.09999999999999999,0.0034170150756835938,,bowing,up,A,0.3989583333333333,0.46738246341850004,0.42587645053699996,0.25108848974493336,1.678345037200943,-0.8298945291715228,-1.6990786305734935,-2.3213283737282593,1.1754168516304648,-2.7948318147098665,-1.2753883648446536,-1.3364014094281615,-1.763215257696631
0.10999999999999999,0.0034689903259277344,,bowing,up,A,0.38895833333333335,0.46680775584145,0.4271443532577,0.2505664959289267,1.6780723689838948,-0.829736603805694,-1.6994076490044367,-2.319632182260862,1.1782109998605617,-2.797194165915309,-1.278563548040784,-1.333779322456724,-1.760671285633062
0.11999999999999998,0.0035200119018554688,,bowing,up,A,0.37895833333333334,0.46623304826440004,0.4284122559784,0.25004450211292,1.6777996708637006,-0.8295787390063064,-1.6997366744395934,-2.3179359169338034,1.181005529778826,-2.799556517120752,-1.2817393968605442,-1.3311569082634223,-1.7581271054736187
0.12999999999999998,0.0035719871520996094,,bowing,up,A,0.36895833333333333,0.46565834068735,0.4296801586991,0.24952250829691336,1.6775269428537105,-0.8294209347917404,-1.7000657068890455,-2.3162397776026373,1.183799487164839,-2.801918868326195,-1.2849146117530381,-1.3285347413044177,-1.755583064044758
0.13999999999999999,0.0036230087280273438,,bowing,up,A,0.3589583333333333,0.46508363311030004,0.43094806141979997,0.24900051448090668,1.6772541849672693,-0.8292631911803738,-1.700394746362855,-2.314543429726545,1.1865938262390197,-2.8042812195316382,-1.288090523965525,-1.3259121525927882,-1.753038745154732
0.15,0.0036749839782714844,,bowing,up,A,0.34895833333333337,0.46450892553325,0.4322159641405,0.24847852066490003,1.676981397217716,-0.8291055081905787,-1.700723792871064,-2.3128472382591476,1.1893877836250326,-2.8066426145131564,-1.2912667848380084,-1.3232895638811588,-1.7504945649952885
0.16,0.0037260055541992188,,bowing,up,A,0.33895833333333336,0.46393421795620005,0.4334838668612,0.24795652684889335,1.6767085796183838,-0.8289478858407255,-1.7010528464236925,-2.3112250324489847,1.1920462417115874,-2.8087783406484967,-1.2944081480144707,-1.320661492385403,-1.7480228022001087
0.17,0.003777027130126953,,bowing,up,A,0.32895833333333335,0.46335951037915,0.4347517695819,0.2474345330328867,1.6764357321825993,-0.8287903241491801,-1.7013819070307419,-2.309662387938665,1.1945964912026594,-2.8107338185740702,-1.2975208893748498,-1.3180290070302774,-1.745609028788573
0.18000000000000002,0.0038290023803710938,,bowing,up,A,0.31895833333333334,0.4627848028021,0.43601967230259997,0.24691253921688003,1.6761628549236838,-0.8286328231343051,-1.7017109747021915,-2.3080996435005683,1.1971463590055638,-2.8126883402757206,-1.3006342646624955,-1.3153962889840485,-1.7431953941076201
0.19000000000000003,0.0038840770721435547,,bowing,up,A,0.30895833333333333,0.46221009522505,0.4372875750233,0.24639054540087335,1.6758899478549516,-0.8284753828144588,-1.7020400494480001,-2.30653705112648,1.1996960359643845,-2.814641905753445,-1.3037478618246845,-1.3127634327774769,-1.7407817594266672
0.20000000000000004,0.0039348602294921875,,bowing,up,A,0.2989583333333333,0.461635387648,0.438555477744,0.2458685515848667,1.6756170109897124,-0.8283180032079971,-1.7023691312781069,-2.304974271930895,1.2022457129232051,-2.8165964274550945,-1.3068614272905104,-1.3101305038549353,-1.7383678472845485
0.21000000000000005,0.003985166549682617,,bowing,up,A,0.2889583333333333,0.46106068007095,0.4398233804647,0.24534655776886002,1.6753440443412693,-0.8281606843332711,-1.7026982202024303,-2.3034115970077735,1.2047957715701934,-2.818550949156745,-1.309975087845426,-1.307497538574409,-1.73595393514243
0.22000000000000006,0.004034996032714844,,bowing,up,A,0.2789583333333333,0.4604859724939,0.4410912831854,0.24482456395285337,1.6750710479229194,-0.8280034262086283,-1.7030273162308678,-2.3018489090505945,1.2073452576849302,-2.8205045146344694,-1.313088970274885,-1.304864398775555,-1.733540161730894
0.23000000000000007,0.00408482551574707,,bowing,up,A,0.2689583333333333,0.45991126491685,0.4423591859061,0.2443025701368467,1.6747980217479543,-0.8278462288524137,-1.7033564193732966,-2.30028610813158,1.2098947437996672,-2.822458080112195,-1.3162027893116173,-1.302231229890313,-1.7311262495887756
0.24000000000000007,0.00439906120300293,,bowing,up,A,0.25895833333333335,0.4593365573398,0.4436270886268,0.24378057632084002,1.6745249658296606,-0.8276890922829674,-1.703685529639574,-2.298723385416913,1.2124440390703204,-2.82441164558992,-1.3193168302228928,-1.2995978428571615,-1.7287123374466569
0.25000000000000006,0.004467964172363281,,bowing,up,A,0.24895833333333334,0.45876184976275003,0.4448949913475,0.24325858250483337,1.6742518801813167,-0.8275320165186263,-1.704014647039536,-2.297160627944758,1.214993716029141,-2.8263652110676456,-1.322431124705075,-1.2969645503547709,-1.7262982172086638
0.26000000000000006,0.004527091979980469,,bowing,up,A,0.23895833333333333,0.4581871421857,0.4461628940682,0.2427365886888267,1.6739787648161981,-0.8273750015777238,-1.7043437715829992,-2.2955978270257438,1.2175430112997943,-2.8283182984334085,-1.3255453557945305,-1.2943309379021128,-1.7238841663359623
0.2700000000000001,0.00460505485534668,,bowing,up,A,0.22895833333333332,0.45761243460865003,0.4474307967889,0.24221459487282004,1.6737056197475721,-0.8272180474785895,-1.7046729032797587,-2.2940350782429606,1.2200924974145313,-2.830271863911133,-1.3286594600985326,-1.2916975072393793,-1.7214700460979695
0.2800000000000001,0.004662036895751953,,bowing,up,A,0.2189583333333333,0.4570377270316,0.4486986995096,0.24169260105681337,1.6734324449887028,-0.827061154239549,-1.7050020421395908,-2.2924722425664585,1.2226416018411006,-2.8322244731649344,-1.3317740081516214,-1.2890637348115876,-1.7190559258599762
0.2900000000000001,0.004715919494628906,,bowing,up,A,0.20895833333333336,0.45646301945455003,0.4499666022303,0.2411706072408067,1.6731592405528464,-0.8269043218789249,-1.7053311881722497,-2.2909095111624196,1.2251908971117538,-2.8341775605306974,-1.334888619597437,-1.2864300496429597,-1.7166418749872747
0.3000000000000001,0.004767894744873047,,bowing,up,A,0.19895833333333335,0.4558883118775,0.451234504951,0.24064861342480004,1.6728860064532538,-0.8267475504150356,-1.70566034138747,-2.289346649417802,1.227740192382407,-2.836130169784498,-1.3380033578287058,-1.2837961172400345,-1.7142276160186989
0.3100000000000001,0.004820823669433594,,bowing,up,A,0.18895833333333334,0.45531360430045004,0.4525024076717,0.24012661960879336,1.6726127427031705,-0.8265908398661959,-1.7059895017949662,-2.287783752915696,1.2302891059648928,-2.838082300926336,-1.3411182228454277,-1.2811619666891996,-1.7118132876848318
0.3200000000000001,0.0048770904541015625,,bowing,up,A,0.17895833333333333,0.4547388967234,0.4537703103924,0.23960462579278669,1.6723394493158372,-0.8264341902507172,-1.7063186694044326,-2.286220908549822,1.2328380195473785,-2.8400344320681747,-1.3442329610766965,-1.278528121545438,-1.7093990980815472
0.3300000000000001,0.004927873611450195,,bowing,up,A,0.16895833333333332,0.45416418914635004,0.4550382131131,0.23908263197678004,1.6720661263044885,-0.8262776015869066,-1.7066478442255433,-2.2846581423882952,1.235387123973948,-2.841987041321975,-1.3473478894861453,-1.2758939419082151,-1.7069847003823884
0.34000000000000014,0.004976987838745117,,bowing,up,A,0.1589583333333333,0.4535894815693,0.4563061158338,0.23856063816077336,1.6717927736823524,-0.8261210738930679,-1.7069770262679507,-2.283095115545611,1.2379362284005173,-2.8439386943518516,-1.3504633567337705,-1.273259427777531,-1.704570163952647
0.35000000000000014,0.0050280094146728516,,bowing,up,A,0.1489583333333333,0.45301477399225,0.45757401855450003,0.23803864434476668,1.671519391462653,-0.8259646071875014,-1.7073062155412897,-2.2815322711797372,1.240485141983003,-2.845890347381728,-1.3535785070177624,-1.2706251608811445,-1.7021556968881968
0.36000000000000015,0.005077838897705078,,bowing,up,A,0.13895833333333335,0.4524400664152,0.4588419212752,0.23751665052876003,1.6712459796586063,-0.8258082014885035,-1.7076354120551718,-2.279953612156964,1.2430424527051736,-2.8478448690833775,-1.3567044023689216,-1.2679773251847848,-1.6997226399256404
0.37000000000000016,0.005576133728027344,,bowing,up,A,0.12895833333333334,0.45186535883815,0.4601098239959,0.23699465671275335,1.6709725382834266,-0.8256518568143666,-1.7079646158191912,-2.2783331485658715,1.2456230464055607,-2.849807040576423,-1.3598582539125341,-1.2652935532561274,-1.6972399174144133
0.38000000000000017,0.0056459903717041016,,bowing,up,A,0.11895833333333333,0.4512906512611,0.4613777267166,0.2364726628967467,1.6706990673503181,-0.8254955731833796,-1.7082938268429193,-2.2767127110428946,1.248203640105948,-2.851769212069468,-1.3630126759906864,-1.2626095777227546,-1.694757056172603
0.3900000000000002,0.005710124969482422,,bowing,up,A,0.10895833333333332,0.45071594368405,0.46264562943730003,0.23595066908074003,1.6704255668724843,-0.8253393506138282,-1.70862304513591,-2.275092273519918,1.2507838521181676,-2.8537313835625135,-1.3661666226233886,-1.2599258930532613,-1.6922744723919587
0.4000000000000002,0.005761861801147461,,bowing,up,A,0.09895833333333331,0.450141236107,0.463913532158,0.23542867526473338,1.6701520368631195,-0.8251831891239931,-1.7089522707076954,-2.2734718186181975,1.2533642549744712,-2.8556935550555598,-1.369320854523361,-1.2572417575447548,-1.6897916111501483
0.4100000000000002,0.005812883377075195,,bowing,up,A,0.0889583333333333,0.44956652852995,0.4651814348787,0.2349066814487267,1.669878477335414,-0.8250270887321526,-1.7092815035677869,-2.2718512942015017,1.2559446578307747,-2.8576552484366426,-1.37247505472697,-1.2545576074930544,-1.6873086111777553
0.4200000000000002,0.005864143371582031,,bowing,up,A,0.07895833333333335,0.4489918209529,0.4664493375994,0.23438468763272002,1.6696048883025527,-0.8248710494565806,-1.7096107437256773,-2.270230830610409,1.2585250606870781,-2.8596169418177264,-1.375629762072392,-1.2518733992685782,-1.684825749935945
0.4300000000000002,0.005915164947509766,,bowing,up,A,0.06895833333333334,0.44841711337585,0.4677172403201,0.23386269381671337,1.6693312697777152,-0.8247150713155476,-1.7099399911908388,-2.268610349640573,1.261105081855214,-2.861578157086847,-1.378784247543271,-1.2491890601553561,-1.6823428193288434
0.4400000000000002,0.0061740875244140625,,bowing,up,A,0.058958333333333335,0.4478424057988,0.4689851430408,0.2333407000007067,1.6690576217740754,-0.8245591543273196,-1.7102692459727233,-2.2669897991557613,1.2636849121792664,-2.8635388942440057,-1.3819389231923298,-1.2465046192397764,-1.679859749991159
0.45000000000000023,0.006313800811767578,,bowing,up,A,0.048958333333333326,0.44726769822175,0.4702530457615,0.23281870618470002,1.6687839443048016,-0.8244032985101598,-1.7105985080807626,-2.26536924867095,1.2662653150355698,-2.8655005876250894,-1.3850935354486622,-1.2438201928673904,-1.6773767500187657
0.46000000000000024,0.006434917449951172,,bowing,up,A,0.03895833333333332,0.4466929906447,0.4715209484822,0.23229671236869337,1.6685102373830571,-0.824247503882327,-1.7109277775243688,-2.263748689496766,1.2688453362037058,-2.867460846670286,-1.3882488133286242,-1.2411355628902891,-1.67489361131579
0.47000000000000025,0.006517887115478516,,bowing,up,A,0.028958333333333308,0.44611828306765,0.47278885120290004,0.2317747185526867,1.6682365010220006,-0.8240917704620768,-1.7112570543129335,-2.2621282519737895,1.2714249756836742,-2.8694215838274446,-1.3914038376376796,-1.2384509038267997,-1.6724105419781052
0.48000000000000026,0.0066111087799072266,,bowing,up,A,0.018958333333333355,0.4455435754906,0.4740567539236,0.23125272473668004,1.6679627352347839,-0.82393609826766,-1.7115863384558287,-2.2605076319740025,1.2740049968518103,-2.8713823209846034,-1.3945587034649183,-1.2357662447633104,-1.6699274032751292
0.49000000000000027,0.00710606575012207,,bowing,down,A,0.4989583333333334,0.4455435754906,0.4740567539236,0.23125272473668004,1.6679627352347839,-0.82393609826766,-1.7115863384558287,-2.2605076319740025,1.2740049968518103,-2.8713823209846034,-1.3945587034649183,-1.2357662447633104,-1.6699274032751292
0.5000000000000002,0.0072460174560546875,,bowing,down,A,0.4889583333333334,0.44610655434158775,0.4728147267686286,0.23176406561766616,1.668236501022,-0.8240917704620762,-1.7112570543129328,-2.262096544455644,1.2714850915700537,-2.8694813478227252,-1.3914542031590038,-1.2384037257055642,-1.6723623331005544
0.5100000000000002,0.007379055023193359,,bowing,down,A,0.4789583333333334,0.44666953319257546,0.47157269961365716,0.23227540649865228,1.6685102373830571,-0.8242475038823266,-1.7109277775243688,-2.2636854569372855,1.2689655679764646,-2.8675808527728086,-1.3883496077639992,-1.241041264820594,-1.6747971935606878
0.5200000000000002,0.0076258182525634766,,bowing,down,A,0.46895833333333337,0.44723251204356324,0.47033067245868576,0.23278674737963842,1.6687839443048014,-0.8244032985101596,-1.7105985080807624,-2.265274438933903,1.2664454718506242,-2.865679401498968,-1.3852454244217178,-1.2436786585036839,-1.6772320540208216
0.5300000000000002,0.007766008377075195,,bowing,down,A,0.4589583333333334,0.447795490894551,0.4690886453037143,0.23329808826062454,1.669057621774075,-0.8245591543273193,-1.710269245972723,-2.2668633687942883,1.2639257574129514,-2.8637779502251273,-1.3821407339376233,-1.2463158776684462,-1.679667053211538
0.5400000000000003,0.007902145385742188,,bowing,down,A,0.4489583333333334,0.4483584697455388,0.4678466181487429,0.23380942914161065,1.6693312697777152,-0.8247150713155473,-1.7099399911908388,-2.268452272586558,1.2614054704430273,-2.8618764989512866,-1.3790366456844318,-1.248953271351536,-1.6821018443063802
0.5500000000000003,0.008040904998779297,,bowing,down,A,0.4389583333333334,0.4489214485965265,0.46660459099377144,0.23432077002259677,1.6696048883025525,-0.8248710494565804,-1.7096107437256771,-2.2700411937575717,1.2588857560053544,-2.859975047677446,-1.3759325257348771,-1.2515904614299107,-1.684536566035931
0.5600000000000003,0.008168935775756836,,bowing,down,A,0.4289583333333334,0.44948442744751427,0.46536256383880004,0.23483211090358289,1.6698784773354138,-0.8250270887321524,-1.7092815035677866,-2.2716300627923536,1.2563654690354302,-2.858072640179681,-1.3728285959635025,-1.2542274188171816,-1.6869712877654817
0.5700000000000003,0.008300065994262695,,bowing,down,A,0.4189583333333334,0.45004740629850204,0.4641205366838286,0.23534345178456903,1.6701520368631193,-0.8251831891239929,-1.7089522707076952,-2.2732189405165077,1.2538449912214225,-2.856170710793878,-1.369724792977581,-1.2568643762044525,-1.6894060788603238
0.5800000000000003,0.008427858352661133,,bowing,down,A,0.4089583333333334,0.45061038514948976,0.4628785095288572,0.23585479266555515,1.670425566872484,-0.8253393506138277,-1.70862304513591,-2.2748078095512896,1.251324895095582,-2.854268781408075,-1.3666206096352997,-1.2595013481349173,-1.6918407312245831
0.5900000000000003,0.008559942245483398,,bowing,down,A,0.3989583333333334,0.45117336400047753,0.4616364823738857,0.23636613354654126,1.6706990673503186,-0.8254955731833794,-1.7082938268429197,-2.2763965743136088,1.2488047989697417,-2.852366852022272,-1.3635172503984647,-1.2621379419423389,-1.6942751061276766
0.6000000000000003,0.008687019348144531,,bowing,down,A,0.3889583333333334,0.4517363428514653,0.4603944552189143,0.23687747442752738,1.670972538283426,-0.8256518568143661,-1.707964615819191,-2.277985425969647,1.2462845119998176,-2.8504639664125446,-1.3604137009834498,-1.2647745648361486,-1.6967097584919357
0.6100000000000003,0.00881505012512207,,bowing,down,A,0.3789583333333334,0.45229932170245307,0.45915242806394285,0.2373888153085135,1.671245979658606,-0.8258082014885032,-1.7076354120551716,-2.2795743384512885,1.243763843341726,-2.84856155891478,-1.3573103100502517,-1.26741130407551,-1.6991443414909035
0.6200000000000003,0.008939981460571289,,bowing,down,A,0.3689583333333334,0.4528623005534408,0.45791040090897145,0.23790015618949964,1.6715193914626525,-0.8259646071875011,-1.7073062155412897,-2.281135566593985,1.2412588238985014,-2.846663932536637,-1.3542256199714156,-1.2700240470448225,-1.7015461147070203
0.6300000000000003,0.009374856948852539,,bowing,down,A,0.3589583333333334,0.45342527940442856,0.456668373754,0.23841149707048576,1.6717927736823524,-0.8261210738930675,-1.7069770262679511,-2.282668006847502,1.238769453670144,-2.844771565390079,-1.3511601378887546,-1.2726122411027152,-1.7039136908344568
0.6400000000000003,0.009533882141113281,,bowing,down,A,0.34895833333333337,0.45398825825541633,0.4554263465990286,0.23892283795147187,1.6720661263044885,-0.8262776015869061,-1.7066478442255433,-2.2842003949647873,1.2362800834417864,-2.8428791982435206,-1.3480944656279137,-1.2752003333582502,-1.7062812669618936
0.6500000000000004,0.009670019149780273,,bowing,down,A,0.33895833333333336,0.45455123710640405,0.4541843194440571,0.239434178832458,1.6723394493158372,-0.8264341902507168,-1.7063186694044326,-2.2857326266733784,1.2337907132134287,-2.8409868310969624,-1.3450295540797925,-1.27778807657713,-1.7086484268975815
0.6600000000000004,0.009864091873168945,,bowing,down,A,0.32895833333333335,0.4551142159573918,0.4529422922890857,0.23994551971344413,1.6726127427031703,-0.8265908398661956,-1.7059895017949664,-2.2872650321694077,1.2313009612969037,-2.8390939858384425,-1.3419643255680382,-1.2803758925119795,-1.711016003025018
0.6700000000000004,0.010905981063842773,,bowing,down,A,0.3189583333333334,0.4556771948083796,0.4517002651341143,0.24045686059443025,1.6728860064532531,-0.8267475504150354,-1.7056603413874698,-2.2887973681504614,1.2288115910685462,-2.8372016186918843,-1.338898906878104,-1.2829637811627987,-1.7133833710565805
0.6800000000000004,0.011102914810180664,,bowing,down,A,0.3089583333333334,0.45624017365936737,0.45045823797914286,0.24096820147541637,1.6731592405528461,-0.8269043218789248,-1.70533118817225,-2.290329643305912,1.2263218391520212,-2.8353078172094395,-1.3358343756863427,-1.2855513498633508,-1.7157506003575598
0.6900000000000004,0.011258125305175781,,bowing,down,A,0.2989583333333334,0.4568031525103551,0.44921621082417146,0.24147954235640248,1.6734324449887026,-0.8270611542395487,-1.7050020421395906,-2.2918620140444537,1.2238324689236637,-2.8334149719509196,-1.3327693373527685,-1.288138962193485,-1.7181179683891221
0.7000000000000004,0.011559009552001953,,bowing,down,A,0.28895833333333343,0.45736613136134285,0.4479741836692,0.2419908832373886,1.6737056197475724,-0.8272180474785892,-1.704672903279759,-2.293394176238069,1.2213425261630548,-2.8315216485804364,-1.3297046159828274,-1.2907262982029335,-1.7204850589595186
0.7100000000000004,0.011871814727783203,,bowing,down,A,0.2789583333333334,0.4579291102123306,0.4467321565142286,0.24250222411837474,1.673978764816198,-0.8273750015777236,-1.7043437715829994,-2.2949265209084952,1.218852583402446,-2.8296278470979916,-1.3266402115765195,-1.293313685113561,-1.7228523576257895
0.7200000000000004,0.012022018432617188,,bowing,down,A,0.2689583333333334,0.45849208906331834,0.44549012935925714,0.24301356499936086,1.6742518801813167,-0.8275320165186262,-1.7040146470395365,-2.296458752617086,1.2163630223300048,-2.8277345237275093,-1.3235753951174882,-1.2959010211230095,-1.7252195175614775
0.7300000000000004,0.012161016464233398,,bowing,down,A,0.2589583333333334,0.4590550679143061,0.44424810220428573,0.24352490588034698,1.67452496582966,-0.827689092282967,-1.7036855296395739,-2.2979910364619083,1.2138726978812284,-2.825840244133102,-1.3205113076748136,-1.2984880371821907,-1.727586608131874
0.7400000000000004,0.012293100357055664,,bowing,down,A,0.2489583333333334,0.4596180467652939,0.4430060750493143,0.2440362467613331,1.6747980217479541,-0.8278462288524134,-1.7033564193732964,-2.29952318127678,1.2113829459647034,-2.8239464426506573,-1.3174469983575958,-1.301075096870954,-1.729953629336979
0.7500000000000004,0.012424945831298828,,bowing,down,A,0.23895833333333338,0.46018102561628166,0.44176404789434287,0.2445475876423192,1.675071047922919,-0.8280034262086279,-1.7030273162308678,-2.3010554477428586,1.208892812360011,-2.822052163056251,-1.314382879218558,-1.3036620547573592,-1.7323206505420843
0.7600000000000005,0.012553930282592773,,bowing,down,A,0.22895833333333337,0.4607440044672694,0.4405220207393714,0.24505892852330535,1.6753440443412688,-0.8281606843332707,-1.7026982202024303,-2.3025876968301935,1.206402869599402,-2.8201578834618437,-1.3113186332940665,-1.3062490126437647,-1.7346877411124808
0.7700000000000005,0.012681961059570312,,bowing,down,A,0.21895833333333337,0.46130698331825715,0.4392799935844,0.24557026940429147,1.6756170109897122,-0.8283180032079966,-1.702369131278107,-2.3041198937812966,1.2039125451506258,-2.818263125755474,-1.308255116385932,-1.3088357960118424,-1.737054623587003
0.7800000000000005,0.012808084487915039,,bowing,down,A,0.2089583333333334,0.4618699621692449,0.43803796642942855,0.24608161028527759,1.6758899478549516,-0.8284753828144588,-1.7020400494480006,-2.3056520429408542,1.2014222207018495,-2.8163688461610676,-1.3051909655505307,-1.3114223757752046,-1.7394215060615252
0.7900000000000005,0.012933969497680664,,bowing,down,A,0.1989583333333334,0.46243294102023264,0.43679593927445715,0.2465929511662637,1.6761628549236836,-0.8286328231343049,-1.7017109747021917,-2.3071842268578995,1.1989322779412408,-2.8144745665666604,-1.302127068286036,-1.3140089264521788,-1.7417882498054644
0.8000000000000005,0.013061046600341797,,bowing,down,A,0.1889583333333334,0.4629959198712204,0.4355539121194857,0.24710429204724982,1.6764357321825996,-0.8287903241491799,-1.7013819070307425,-2.308716389051515,1.1964419534924644,-2.812579330748329,-1.2990634879851746,-1.3165955134871379,-1.7441551322799866
0.8100000000000005,0.01318502426147461,,bowing,down,A,0.17895833333333339,0.4635588987222082,0.4343118849645143,0.24761563292823596,1.6767085796183838,-0.8289478858407251,-1.701052846423693,-2.3102484556620393,1.1939512473555207,-2.810683138706073,-1.296000383129763,-1.319181678769472,-1.7465217372933433
0.8200000000000005,0.013310909271240234,,bowing,down,A,0.16895833333333338,0.46412187757319595,0.4330698578095429,0.24812697380922208,1.6769813972177157,-0.8291055081905783,-1.700723792871064,-2.311780591787539,1.1914609229067443,-2.808788380999703,-1.2929369613107182,-1.3217680185701337,-1.7488885504025737
0.8300000000000005,0.013437986373901367,,bowing,down,A,0.15895833333333337,0.46468485642418367,0.4318278306545714,0.2486383146902082,1.6772541849672693,-0.8292631911803733,-1.7003947463628555,-2.313412021365998,1.1887891057343276,-2.806590978421234,-1.2898266922666783,-1.3243468686259012,-1.751352336189238
0.8400000000000005,0.013564109802246094,,bowing,down,A,0.14895833333333336,0.46524783527517144,0.43058580349959996,0.2491496555711943,1.67752694285371,-0.8294209347917404,-1.7000657068890455,-2.3150749803304773,1.1860594628045362,-2.80429651911443,-1.2867020013773254,-1.3269234135854249,-1.7538469201653015
0.8500000000000005,0.013692140579223633,,bowing,down,A,0.1389583333333334,0.4658108141261592,0.42934377634462856,0.24966099645218043,1.6777996708637,-0.8295787390063062,-1.6997366744395932,-2.316737947984329,1.1833300107188287,-2.802002059807625,-1.2835775957552424,-1.3294995804219052,-1.7563415041413653
0.8600000000000005,0.013820171356201172,,bowing,down,A,0.1289583333333334,0.46637379297714693,0.42810174918965715,0.2501723373331666,1.6780723689838946,-0.8297366038056936,-1.699407649004437,-2.3184009026041226,1.1806003677890373,-2.7997080786127833,-1.2804529999549794,-1.3320759217767133,-1.7588360187521375
0.8700000000000006,0.01394510269165039,,bowing,down,A,0.11895833333333339,0.4669367718281347,0.4268597220346857,0.25068367821415266,1.678345037200943,-0.8298945291715226,-1.699078630573494,-2.3200638224664285,1.177870724859246,-2.7974131411940166,-1.2773285943328965,-1.3346519577244478,-1.7613303946323267
0.8800000000000006,0.014474868774414062,,bowing,down,A,0.10895833333333338,0.46749975067912247,0.4256176948797143,0.2511950190951388,1.6786176755014872,-0.8300525150854089,-1.69874961913666,-2.321726724949991,1.1751405093972034,-2.79511820377525,-1.2742044739780833,-1.3372279500426005,-1.7638249092430989
0.8900000000000006,0.014613866806030273,,bowing,down,A,0.09895833333333337,0.46806272953011024,0.42437566772474283,0.25170635997612495,1.6788902838721642,-0.8302105615289642,-1.6984206146838112,-2.323389644812297,1.1724110573114959,-2.792823744468445,-1.2710801000523637,-1.3398040296199172,-1.7663191463927053
0.9000000000000006,0.01477193832397461,,bowing,down,A,0.08895833333333336,0.46862570838109796,0.42313364056977143,0.25221770085711104,1.679162862299606,-0.8303686684837978,-1.6980916172048033,-2.3250525081936853,1.1696808418494533,-2.7905278508257543,-1.2679563600539105,-1.3423797019878025,-1.7688135222728945
0.9100000000000006,0.02211594581604004,,bowing,down,A,0.07895833333333341,0.46918868723208573,0.42189161341479997,0.2527290417380972,1.6794354107704366,-0.8305268359315146,-1.6977626266894719,-2.3267153455069582,1.166951198919662,-2.7882333915189492,-1.264832208002734,-1.3449555852320005,-1.771307759422501
0.9200000000000006,0.022289037704467773,,bowing,down,A,0.0689583333333334,0.4697516660830735,0.42064958625982857,0.25324038261908327,1.6797079292712742,-0.8306850638537159,-1.6974336431276287,-2.3283782393011485,1.164221174301703,-2.78593797598822,-1.2617082461297375,-1.3475310249087824,-1.7738019965721072
0.9300000000000006,0.022489070892333984,,bowing,down,A,0.05895833333333339,0.4703146449340612,0.4194075591048571,0.2537517235000694,1.6799804177887325,-0.8308433522319998,-1.6971046665090692,-2.3300410288228757,1.1614909588396605,-2.7836420823455295,-1.2585848230949177,-1.350106602745907,-1.7762962337217139
0.9400000000000006,0.02267313003540039,,bowing,down,A,0.04895833333333338,0.470877623785049,0.4181655319498857,0.25426306438105556,1.6802528763094162,-0.8310017010479605,-1.6967756968235645,-2.3317038357233466,1.1587609342217016,-2.7813466668148004,-1.255461241578281,-1.3526821587682407,-1.7787903321407375
0.9500000000000006,0.022841930389404297,,bowing,down,A,0.03895833333333337,0.47144060263603677,0.41692350479491425,0.25477440526204165,1.680525304819926,-0.8311601102831888,-1.6964467340608662,-2.333366599176958,1.156030718759659,-2.7790502950601472,-1.2523375332761912,-1.3552574130192994,-1.7812845692903436
0.9600000000000006,0.02299785614013672,,bowing,down,A,0.028958333333333364,0.4720035814870245,0.41568147763994284,0.2552857461430278,1.680797703306856,-0.8313185799192716,-1.6961177782107062,-2.3350847660659477,1.1532714949968874,-2.776655910353234,-1.2495817246632204,-1.3578716612091877,-1.7836968860307594
0.9700000000000006,0.023157835006713867,,bowing,down,A,0.01895833333333341,0.47256656033801225,0.4144394504849714,0.2557970870240139,1.680797703306856,-0.8313185799192716,-1.6961177782107062,-2.336749210913026,1.1501368809213912,-2.7732761368921373,-1.2475775636101498,-1.3601288885303302,-1.7859783798315185
0.9800000000000006,0.024493932723999023,,bowing,up,A,0.4989583333333334,0.47256656033801225,0.4144394504849714,0.2557970870240139,1.680797703306856,-0.8313185799192716,-1.6961177782107062,-2.336749210913026,1.1501368809213912,-2.7732761368921373,-1.2475775636101498,-1.3601288885303302,-1.7859783798315185
0.9900000000000007,0.025040149688720703,,bowing,up,A,0.4889583333333334,0.4719918135344537,0.415707439746025,0.255275057579462,1.6805253234121662,-0.8311601210966915,-1.6964467116093718,-2.334975866512328,1.1529724423176606,-2.7757771405666305,-1.2502389804531375,-1.3574530753645726,-1.7835486524029516
1.0000000000000007,0.025573015213012695,,bowing,up,A,0.4789583333333334,0.4714170667308951,0.4169754290070786,0.25475302813491013,1.680252913497993,-0.8310017226667199,-1.6967756519196304,-2.333234416451272,1.1557910185904765,-2.778222205141542,-1.2531125410558628,-1.3547996369027362,-1.781071756576205
1.0100000000000007,0.03211688995361328,,bowing,up,A,0.46895833333333337,0.47084231992733655,0.4182434182681322,0.2542309986903582,1.6799804735777415,-0.8308433846477667,-1.69710459915175,-2.331538198915759,1.158586121040992,-2.7805859906828716,-1.25628721711018,-1.3521780189493042,-1.7785277151473449
1.0200000000000007,0.03269386291503906,,bowing,up,A,0.4589583333333334,0.470267573123778,0.4195114075291858,0.2537089692458063,1.6797080036648064,-0.8306851070582371,-1.6974335533159755,-2.32984195531213,1.1613810326474239,-2.7829497762242013,-1.2594622418244938,-1.3495562519281339,-1.7759838124490672
1.0300000000000007,0.0332789421081543,,bowing,up,A,0.4489583333333334,0.4696928263202194,0.4207793967902394,0.25318693980125445,1.6794355037725806,-0.8305268899165331,-1.6977625144225337,-2.3281457725341044,1.1641757534097719,-2.785313561765531,-1.2626371714497175,-1.3469345212649486,-1.7734399097507896
1.0400000000000007,0.0338289737701416,,bowing,up,A,0.4389583333333334,0.46911807951666085,0.42204738605129305,0.2526649103567026,1.6791629739144487,-0.8303687332410528,-1.6980914824816284,-2.3264495549985913,1.16697047417212,-2.7876763910829365,-1.2658125131276647,-1.3443124633798988,-1.7708959376872206
1.0500000000000007,0.034522056579589844,,bowing,up,A,0.4289583333333334,0.4685433327131023,0.42331537531234664,0.2521428809121507,1.6788904141037888,-0.8302106370501912,-1.6984204575034443,-2.324753198433127,1.169765194934468,-2.790040176624266,-1.2689876963237952,-1.341690601827968,-1.7683516881624857
1.0600000000000007,0.03971505165100098,,bowing,up,A,0.4189583333333334,0.4679685859095437,0.42458336457340023,0.25162085146759877,1.6786178243539738,-0.830052601362339,-1.6987494394981442,-2.323056972208242,1.172559915696816,-2.792403962165596,-1.2721628478235623,-1.3390685221281273,-1.7658075773683337
1.0700000000000007,0.040316104888916016,,bowing,up,A,0.4089583333333334,0.46739383910598514,0.4258513538344538,0.2510988220230469,1.67834520467837,-0.8298946261958845,-1.6990784284758709,-2.321360719915241,1.1753544456150804,-2.794766313371039,-1.2753382528942359,-1.336446246095168,-1.763263466574182
1.0800000000000007,0.0409388542175293,,bowing,up,A,0.3989583333333334,0.4668190923024266,0.4271193430955075,0.250576792578495,1.678072555090338,-0.8297367115692112,-1.699407424446746,-2.3196643546604054,1.1781489755333447,-2.7971291426884437,-1.2785139432321797,-1.3338239918769998,-1.7607192170494472
1.0900000000000007,0.04156303405761719,,bowing,up,A,0.3889583333333334,0.466244345498868,0.42838733235656107,0.25005476313394315,1.6777998756032322,-0.8295788575007002,-1.6997364274208715,-2.3179680849886606,1.1809433146075254,-2.799491493893887,-1.2816893799992166,-1.331201606770086,-1.7581751062552953
1.1000000000000008,0.04211306571960449,,bowing,up,A,0.3789583333333334,0.46566959869530944,0.42965532161761466,0.24953273368939125,1.6775271662304,-0.8294210640087271,-1.7000654374083277,-2.31627174580194,1.1837378445257896,-2.8018543232112925,-1.284865418997157,-1.3285791562187992,-1.755630787365269
1.1100000000000008,0.04846787452697754,,bowing,up,A,0.3689583333333334,0.46509485189175087,0.43092331087866825,0.24901070424483937,1.6772544269851843,-0.8292633311116657,-1.7003944544191743,-2.3145753805471045,1.1865321835999703,-2.8042166744167356,-1.2880412361205538,-1.3259566256799455,-1.75308632974466
1.1200000000000008,0.04908108711242676,,bowing,up,A,0.3589583333333334,0.4645201050881923,0.4321913001397219,0.24848867480028747,1.6769816578809207,-0.8291056588278855,-1.7007234784634508,-2.312878941432607,1.189326331830067,-2.8065785475102163,-1.2912172434221307,-1.3233337170180488,-1.750542010854634
1.1300000000000008,0.0496220588684082,,bowing,up,A,0.34895833333333337,0.46394535828463374,0.4334592894007755,0.2479666453557356,1.67670885893094,-0.8289480471757522,-1.7010525095511768,-2.3112541027427516,1.1919905152391341,-2.8087238358848006,-1.2943596208822192,-1.3207058054974266,-1.7480673347172133
1.1400000000000008,0.05016589164733887,,bowing,up,A,0.33895833333333336,0.46337061148107517,0.4347272786618291,0.24744461591118372,1.676436030148565,-0.8287904961736287,-1.701381547692349,-2.3096913192024813,1.1945405738861223,-2.8106788356984125,-1.2974731546516816,-1.3180730438216157,-1.7456535613056778
1.1500000000000008,0.050887107849121094,,bowing,up,A,0.32895833333333335,0.4627958646775166,0.4359952679228827,0.24692258646663182,1.6761631715471157,-0.8286330058398734,-1.7017105928969471,-2.308128500904723,1.1970904416890267,-2.8126328792881004,-1.3005866567247808,-1.315440151257059,-1.7432397185288506
1.1600000000000008,0.051490068435668945,,bowing,up,A,0.3189583333333334,0.46222111787395803,0.4372632571839363,0.24640055702207994,1.6758902831399034,-0.8284755761928415,-1.702039645174927,-2.306565747777254,1.1996406911800988,-2.81458740098975,-1.3037002221906064,-1.3128073386800694,-1.7408258757520234
1.1700000000000008,0.05765700340270996,,bowing,up,A,0.3089583333333334,0.46164637107039946,0.4385312464449899,0.24587852757752804,1.6756173649402348,-0.8283182072508836,-1.7023687045362261,-2.3050030641647608,1.202190749827087,-2.8165424008033617,-1.306813882745522,-1.3101742788687822,-1.7384118942446132
1.1800000000000008,0.05828285217285156,,bowing,up,A,0.2989583333333334,0.4610716242668409,0.4397992357060435,0.24535649813297616,1.67534441696141,-0.8281608990323481,-1.70269777099076,-2.3034401242157956,1.2047402359418238,-2.8184964443930487,-1.3099277968713443,-1.3075411463415252,-1.735997912737203
1.1900000000000008,0.05885195732116699,,bowing,up,A,0.28895833333333343,0.46049687746328233,0.44106722496709716,0.24483446868842426,1.6750714392167239,-0.828003651555579,-1.7030268445484253,-2.3018772885392935,1.2072904854328956,-2.820450966094698,-1.3130417109971666,-1.3049078538391345,-1.7335837924992101
1.2000000000000008,0.05939602851867676,,bowing,up,A,0.2789583333333334,0.45992213065972376,0.44233521422815075,0.2443124392438724,1.6747984317194653,-0.827846464838917,-1.7033559252190968,-2.300314496309651,1.2098401623917163,-2.8224045315724235,-1.316155625122989,-1.3022745467935497,-1.7311698109918
1.2100000000000009,0.06014609336853027,,bowing,up,A,0.2689583333333334,0.4593473838561652,0.44360320348920435,0.2437904097993205,1.674525394482918,-0.8276893389006988,-1.7036850130126298,-2.2987516953906364,1.212389839350537,-2.8243585751621114,-1.3192698879088076,-1.299641239747965,-1.7287557601190984
1.2200000000000009,0.0666191577911377,,bowing,up,A,0.2589583333333334,0.4587726370526066,0.44487119275025794,0.2432683803547686,1.674252327520358,-0.8275322737592573,-1.7040141079388582,-2.297188816267275,1.2149397071534416,-2.8263126187517984,-1.3223840873019,-1.2970075691225311,-1.726341570515814
1.2300000000000009,0.06726193428039551,,bowing,up,A,0.2489583333333334,0.458197890249048,0.4461391820113116,0.24274635091021673,1.673979230845057,-0.8273752694329224,-1.7043432100075964,-2.295625928454541,1.2174891932681784,-2.828265228005599,-1.325498571962262,-1.2943739130402911,-1.723927450277821
1.2400000000000009,0.06782293319702148,,bowing,up,A,0.23895833333333338,0.45762314344548943,0.4474071712723652,0.24222432146566483,1.6737061044702815,-0.8272183259400196,-1.7046723192286386,-2.2940630058843197,1.2200386793829154,-2.8302187934833243,-1.3286130566226242,-1.2917401624272906,-1.7215130525786622
1.2500000000000009,0.06856393814086914,,bowing,up,A,0.22895833333333337,0.45704839664193087,0.44867516053341877,0.24170229202111296,1.6734329484092902,-0.8270614432988713,-1.705001435611757,-2.292500144139702,1.2225881654976523,-2.8321723589610497,-1.3317274778902597,-1.2891065936042143,-1.7190988629753778
1.260000000000001,0.06919598579406738,,bowing,up,A,0.21895833333333337,0.4564736498383723,0.44994314979447236,0.24118026257656108,1.6731597626753387,-0.8269046215277956,-1.705330559166706,-2.2909372128801087,1.2251376516123893,-2.83412496821485,-1.3348422795142552,-1.2864726175717072,-1.7166844652762192
1.270000000000001,0.07576894760131836,,bowing,up,A,0.2089583333333334,0.45589890303481373,0.451211139055526,0.24065823313200918,1.6728865472816752,-0.8267478606451077,-1.7056596899032175,-2.2893743772036066,1.2276869468830425,-2.8360775774686506,-1.3379572713164305,-1.28383856882323,-1.7142701369423519
1.280000000000001,0.07659196853637695,,bowing,up,A,0.1989583333333334,0.45532415623125516,0.4524791283165796,0.2401362036874573,1.672613302241542,-0.8265911606691189,-1.705988827831004,-2.2878113329821783,1.2302364329977793,-2.838030186722452,-1.3410718827622459,-1.2812044328155892,-1.7118557392431932
1.290000000000001,0.07721209526062012,,bowing,up,A,0.1889583333333334,0.4547494094276966,0.4537471175776332,0.2396141742429054,1.6723400275681768,-0.8264345216181357,-1.7063179729597575,-2.286248445169445,1.2327855374243488,-2.8399827959762525,-1.3441870647426013,-1.2785701950055903,-1.7094412721787429
1.300000000000001,0.07777714729309082,,bowing,up,A,0.17895833333333339,0.454174662624138,0.4550151068386868,0.23909214479835353,1.6720667232748114,-0.8262779435104626,-1.7066471252991506,-2.2846855052204798,1.2353346418509183,-2.8419358833420154,-1.3473019297593232,-1.2759359426523977,-1.7070268051142927
1.310000000000001,0.07835507392883301,,bowing,up,A,0.16895833333333338,0.45359991582057946,0.45628309609974044,0.23857011535380165,1.6717933893746717,-0.8261214263643997,-1.706976284858834,-2.283122513135283,1.2378839371215715,-2.8438880144838534,-1.3504173970069484,-1.2733015594104593,-1.7046123380498426
1.320000000000001,0.08472585678100586,,bowing,up,A,0.15895833333333337,0.4530251690170209,0.45755108536079403,0.23804808590924975,1.6715200258809784,-0.8259649701982428,-1.7073054516484398,-2.2815594602244826,1.2404330415481408,-2.84583966751373,-1.353532800861847,-1.2706671470821331,-1.7021975935242266
1.330000000000001,0.08542990684509277,,bowing,up,A,0.14895833333333336,0.4524504222134623,0.4588190746218476,0.23752605646469788,1.6712466328069462,-0.8258085750302849,-1.7076346256775785,-2.27998166144953,1.2429901614262275,-2.8477941892153793,-1.35665825246392,-1.2680197913111741,-1.6997653689451677
1.340000000000001,0.08620595932006836,,bowing,up,A,0.1389583333333334,0.45187567540990375,0.46008706388290127,0.23700402702014597,1.6709732101657853,-0.8256522408788148,-1.707963806955842,-2.2783611370328343,1.2455711368147824,-2.8497573169323496,-1.3598123575784387,-1.2653359757529352,-1.6972826464339403
1.350000000000001,0.08678102493286133,,bowing,up,A,0.1289583333333334,0.4513009286063452,0.46135505314395486,0.2364819975755941,1.670699757970698,-0.8254959677621179,-1.7082929954927997,-2.276740629994882,1.2481517305151695,-2.851719488425395,-1.362966367603868,-1.2626520874787261,-1.6947997851921301
1.360000000000001,0.0873100757598877,,bowing,up,A,0.11895833333333339,0.4507261818027866,0.46262304240500846,0.2359599681310422,1.670426276234884,-0.8253397556984751,-1.7086221912980035,-2.275119983926979,1.250732133371473,-2.8536811818064787,-1.3661208530747466,-1.2599679083406379,-1.6923167852197372
1.370000000000001,0.09366607666015625,,bowing,up,A,0.10895833333333338,0.45015143499922805,0.46389103166606205,0.23543793868649032,1.6701527649715362,-0.8251836047061648,-1.7089513943809838,-2.273499485578399,1.253312917915944,-2.8556438314114865,-1.369275084974719,-1.2572837582889373,-1.689833785247344
1.380000000000001,0.09423518180847168,,bowing,up,A,0.09895833333333337,0.4495766881956695,0.4651590209271157,0.23491590924193845,1.6698792241938418,-0.8250275148034605,-1.7092806047512503,-2.2718789177148437,1.2558938933044987,-2.857606959128456,-1.3724293168746913,-1.2545995355212671,-1.6873506465443682
1.390000000000001,0.09482693672180176,,bowing,up,A,0.08895833333333336,0.4490019413921109,0.4664270101881693,0.23439387979738655,1.6696056539149828,-0.8248714860086329,-1.7096098224182938,-2.270258245578825,1.258473723628551,-2.859567218173653,-1.3755841510055666,-1.251915269124015,-1.6848677159372665
1.400000000000001,0.0954139232635498,,bowing,up,A,0.07895833333333341,0.44842719458855235,0.4676949994492229,0.23387185035283467,1.6693320541481365,-0.824715518339948,-1.7099390473915843,-2.2686376777152693,1.2610543173289381,-2.8615293896666985,-1.3787387949582623,-1.2492307700356593,-1.682384507868999
1.410000000000001,0.09596610069274902,,bowing,up,A,0.0689583333333334,0.4478524477849938,0.4689629887102765,0.23334982090828277,1.6690584249064735,-0.8245596118156695,-1.7102682796805724,-2.267017066404854,1.263634529341158,-2.8634906049358197,-1.381893565696411,-1.2465461836881397,-1.6799015078966058
1.420000000000001,0.10313200950622559,,bowing,up,A,0.05895833333333339,0.4472777009814352,0.4702309779713301,0.2328277914637309,1.6687847662031603,-0.8244037664540556,-1.7105975192946874,-2.265396489851927,1.266215123041545,-2.8654522983169026,-1.3850488118800097,-1.2438615973406204,-1.6774182304630472
1.430000000000001,0.10372495651245117,,bowing,up,A,0.04895833333333338,0.44670295417787664,0.4714989672323837,0.23230576201917902,1.6685110780513566,-0.824247982273362,-1.7109267662433392,-2.2637758524733957,1.2687953350537649,-2.867413513586024,-1.3882037410999752,-1.241176952820325,-1.6749349530294881
1.440000000000001,0.1042640209197998,,bowing,up,A,0.03895833333333337,0.4461282073743181,0.4727669564934373,0.23178373257462712,1.6682373604642187,-0.8240922592918402,-1.711256020535919,-2.262155136890518,1.2713753562219008,-2.869374728855145,-1.3913588288017573,-1.2384919447201803,-1.6724516755959293
1.450000000000001,0.10479879379272461,,bowing,up,A,0.028958333333333364,0.4455534605707595,0.4740349457544909,0.23126170313007524,1.6679636134548965,-0.8239365975277376,-1.711585282181796,-2.260534412618268,1.2739553773900367,-2.871335466012304,-1.3945141383780828,-1.2358070675087816,-1.6699683981623705
1.460000000000001,0.10536313056945801,,bowing,up,A,0.01895833333333341,0.44497871376720094,0.47530293501554455,0.23073967368552334,1.6676898370365343,-0.823780996999299,-1.7119145511903204,-2.2589137839291085,1.2765355894022565,-2.8732966812814245,-1.3976691943835013,-1.2331221175814129,-1.6674849819982287
1.470000000000001,0.10590410232543945,,bowing,down,A,0.4989583333333334,0.44497871376720094,0.47530293501554455,0.23073967368552334,1.6676898370365343,-0.823780996999299,-1.7119145511903204,-2.2589137839291085,1.2765355894022565,-2.8732966812814245,-1.3976691943835013,-1.2331221175814129,-1.6674849819982287
1.480000000000001,0.10608100891113281,,bowing,down,A,0.4889583333333334,0.4455532204084621,0.4740354755933906,0.2312614849961249,1.6679637095855222,-0.8239366521771649,-1.711585166561239,-2.2605338738772085,1.2739569041427068,-2.8713369003481906,-1.3945146138235325,-1.2358063112626951,-1.6699674964135818
1.490000000000001,0.10625100135803223,,bowing,down,A,0.4789583333333334,0.44612772704972337,0.4727680161712366,0.23178329630672648,1.6682375527048083,-0.8240923686337015,-1.7112557892999731,-2.262153876931589,1.2713778371949895,-2.8693771194149558,-1.3913602868344703,-1.2384904031416197,-1.6724498720983518
1.500000000000001,0.11192488670349121,,bowing,down,A,0.46895833333333337,0.44670223369098455,0.47150055674908264,0.23230510761732803,1.6685113663812339,-0.8242481463506448,-1.7109264193971634,-2.263773906054085,1.2687993427795234,-2.867418294705646,-1.3882060232381348,-1.2411742477862466,-1.6749321784178306
1.5100000000000011,0.1121220588684082,,bowing,down,A,0.4589583333333334,0.44727674033224574,0.47023309732692864,0.2328269189279296,1.6687851506016347,-0.8244039853097281,-1.7105970568434288,-2.2653939786234414,1.2662200849877225,-2.865458513772412,-1.385051759641799,-1.2438582233196196,-1.6774144847373091
1.5200000000000011,0.11413812637329102,,bowing,down,A,0.4489583333333334,0.447851246973507,0.4689656379047747,0.23334873023853117,1.6690589053528426,-0.8245598854926806,-1.7102677016293706,-2.2670139990565654,1.2636415905722564,-2.8634992109511397,-1.38189736926001,-1.2465421843097984,-1.6798967216914966
1.5300000000000011,0.11536312103271484,,bowing,down,A,0.4389583333333334,0.44842575361476816,0.46769817848262074,0.23387054154913273,1.6693326306216822,-0.8247158468812273,-1.7099383537455686,-2.268633941285343,1.2610625236245392,-2.8615389519059433,-1.3787437078945777,-1.2492256799177701,-1.6823788199151009
1.5400000000000011,0.11591696739196777,,bowing,down,A,0.4289583333333334,0.4490002602560294,0.46643071906046674,0.23439235285973428,1.669606326394974,-0.8248718694570903,-1.7096090131825825,-2.2702539008928637,1.2584836475209056,-2.8595791709727085,-1.3755896661727853,-1.2519093209576817,-1.6848609875039968
1.5500000000000012,0.11641383171081543,,bowing,down,A,0.4189583333333334,0.4495747668972906,0.4651632596383128,0.23491416417033587,1.669879992659533,-0.825027953201988,-1.7092796799309518,-2.2718738691897564,1.2559041988850208,-2.8576184338155497,-1.372436004807353,-1.2545928165656535,-1.6873431550928926
1.5600000000000012,0.1166539192199707,,bowing,down,A,0.4089583333333334,0.4501492735385518,0.46389580021615884,0.23543597548093742,1.670153629402168,-0.8251840980976334,-1.7089503539811972,-2.2734938201079053,1.2533253227813874,-2.8556581747703533,-1.3692820581746505,-1.2572762103712676,-1.6898251839512053
1.5700000000000012,0.11684083938598633,,bowing,down,A,0.3989583333333334,0.450723780179813,0.46262834079400483,0.23595778679153898,1.6704272366096837,-0.8253403041257379,-1.7086210353238178,-2.275113831851658,1.2507460649895863,-2.8536974376131945,-1.3661285235946714,-1.2599596623496574,-1.6923073515401013
1.5800000000000012,0.11723995208740234,,bowing,down,A,0.3889583333333334,0.4512982868210742,0.4613608813718509,0.23647959810214056,1.6707008142688782,-0.8254965712680082,-1.708291723949293,-2.276733756701691,1.2481664255096179,-2.8517367004560357,-1.3629749256219656,-1.26264279437778,-1.6947893803984142
1.5900000000000012,0.1174168586730957,,bowing,down,A,0.3789583333333334,0.4518727934623354,0.4600934219496969,0.23700140941274211,1.670974362366545,-0.8256528995061471,-1.7079624198480823,-2.278353603347377,1.2455873585619006,-2.8497754851869144,-1.3598218030947098,-1.2653258391467388,-1.6972711317955613
1.6000000000000012,0.11758208274841309,,bowing,down,A,0.3689583333333334,0.45244730010359663,0.45882596252754293,0.2375232207233437,1.671247880889471,-0.8258092888218532,-1.707633123010625,-2.279973536886782,1.2430081007700995,-2.8478147480297564,-1.3566684269965472,-1.2680090002612492,-1.6997532300191658
1.6100000000000012,0.11776208877563477,,bowing,down,A,0.3589583333333334,0.4530218067448578,0.457558503105389,0.23804503203394525,1.6715213698244393,-0.8259657391968231,-1.70730383342734,-2.281551118427437,1.2404519351124317,-2.845862138775955,-1.3535435776253777,-1.2706557743044493,-1.7021848303106015
1.6200000000000012,0.11791515350341797,,bowing,down,A,0.34895833333333337,0.45359631338611905,0.456291043683235,0.2385668433445468,1.671794829158226,-0.8261222506127478,-1.7069745510886263,-2.283113406673508,1.237904357438532,-2.843910963858041,-1.3504292831431954,-1.2732892994979434,-1.7045984649915544
1.6300000000000012,0.11806797981262207,,bowing,down,A,0.33895833333333336,0.45417082002738024,0.455023584261081,0.2390886546551484,1.6720682588776024,-0.8262788230513162,-1.7066452759848625,-2.284675886085761,1.235356398076465,-2.8419602670520896,-1.3473147350901067,-1.2759229701233774,-1.7070121690377988
1.6400000000000012,0.11843490600585938,,bowing,down,A,0.32895833333333335,0.4547453266686414,0.453756124838927,0.23961046596574995,1.6723416589693338,-0.8264354564942118,-1.7063160081064066,-2.2862382699149233,1.232808438714398,-2.840009570246138,-1.3442002504297446,-1.2785564080577076,-1.7094257343534602
1.6500000000000012,0.12127089500427246,,bowing,down,A,0.3189583333333334,0.45531983330990267,0.4524886654167731,0.2401322772763515,1.6726150294201803,-0.8265921509231157,-1.7059867474435972,-2.2878005407822504,1.230260479352331,-2.8380579172162617,-1.3410862729111956,-1.2811897151032925,-1.7118390915732475
1.6600000000000013,0.12300300598144531,,bowing,down,A,0.3089583333333334,0.45589433995116385,0.4512212059946191,0.24065408858695309,1.6728883702168964,-0.8267489063197048,-1.7056574939867521,-2.289362881164553,1.227712710834348,-2.83610722041031,-1.3379718516435601,-1.2838229785192952,-1.7142525875236174
1.6700000000000013,0.12376809120178223,,bowing,down,A,0.2989583333333334,0.45646884659242504,0.4499537465724651,0.24117589989755464,1.6731616813462302,-0.8269057226656521,-1.705328247726168,-2.290925256304343,1.2251645606281971,-2.834156045492396,-1.3348579692141012,-1.2864561692193281,-1.7166660834739875
1.6800000000000013,0.12431597709655762,,bowing,down,A,0.28895833333333343,0.4570433532336863,0.44868628715031117,0.2416977112081562,1.6734349627949252,-0.8270625999426279,-1.7049990086521227,-2.2924875532397864,1.2226166012661301,-2.8322048705744822,-1.331743864910099,-1.2890893744625551,-1.7190795794243576
1.6900000000000013,0.12449288368225098,,bowing,down,A,0.2789583333333334,0.45761785987494746,0.44741882772815716,0.24221952251875778,1.6737082145497193,-0.8272195381322971,-1.7046697767548737,-2.294049850175229,1.2200682602158957,-2.830253217544606,-1.3286300458733666,-1.2917223179282904,-1.7214929366441445
1.7000000000000013,0.1247248649597168,,bowing,down,A,0.2689583333333334,0.45819236651620865,0.4461513683060032,0.24274133382935933,1.6739814365973438,-0.8273765372163229,-1.7043405520246566,-2.295612129731928,1.2175199191656612,-2.828301086402768,-1.325516575496631,-1.294355297752011,-1.7239062244986403
1.7100000000000013,0.12503504753112793,,bowing,down,A,0.2589583333333334,0.4587668731574699,0.44488390888384927,0.2432631451399609,1.6742546289245241,-0.8275335971763629,-1.7040113344516878,-2.2971743745311395,1.2149719598035942,-2.8263494333728914,-1.3224029149417154,-1.2969880666994187,-1.726319512353136
1.7200000000000013,0.12524890899658203,,bowing,down,A,0.2489583333333334,0.4593413797987311,0.44361644946169526,0.24378495645056247,1.6745277915179813,-0.8276907179940725,-1.7036821240261633,-2.298736628019723,1.212423427909276,-2.824396824119091,-1.3192897615286128,-1.299620581140932,-1.7287327308423404
1.7300000000000013,0.12543296813964844,,bowing,down,A,0.23895833333333338,0.4599158864399923,0.4423489900395413,0.24430676776116403,1.6748009243644297,-0.8278478996511026,-1.7033529207382583,-2.3002989249551655,1.2098752777031252,-2.822445649201177,-1.316175910795517,-1.3022534446191008,-1.731146018696836
1.7400000000000013,0.12612509727478027,,bowing,down,A,0.22895833333333337,0.4604903930812535,0.4410815306173873,0.24482857907176558,1.6750740274505778,-0.8280051421291007,-1.7030237245781277,-2.301861056792542,1.207326745808807,-2.820492561835414,-1.3130629475605946,-1.3048858063570774,-1.733559029090166
1.7500000000000013,0.12643814086914062,,bowing,down,A,0.21895833333333337,0.4610648997225147,0.43981407119523336,0.24535039038236717,1.6753471007631284,-0.8281624454097107,-1.702694535535906,-2.3034233015917533,1.204778213914489,-2.818540430693575,-1.3099495088802222,-1.307518197181442,-1.7359722475793702
1.7600000000000013,0.12960600852966309,,bowing,down,A,0.2089583333333334,0.46163940636377593,0.4385466117730794,0.24587220169296872,1.6756201442887795,-0.8283198094745731,-1.7023653536017083,-2.304985537701593,1.2022296820201706,-2.816587343327812,-1.3068366407343897,-1.3101505298330307,-1.7383851886074086
1.7700000000000014,0.13033795356750488,,bowing,down,A,0.1989583333333334,0.4622139130050371,0.4372791523509254,0.24639401300357028,1.6758931580142216,-0.8284772343053237,-1.7020361787656264,-2.306547704296457,1.1996811501258524,-2.8146347340740117,-1.303723550714014,-1.3127828770278136,-1.7407982683660301
1.7800000000000014,0.13088202476501465,,bowing,down,A,0.1889583333333334,0.4627884196462983,0.43601169292877145,0.24691582431417186,1.6761661419261402,-0.8286347198835958,-1.7017070110177344,-2.308109844823205,1.1971322365433668,-2.8126811685962863,-1.3006107776572713,-1.3154149188155229,-1.7432112093940686
1.7900000000000014,0.13129687309265137,,bowing,down,A,0.17895833333333339,0.46336292628755954,0.4347442335066175,0.24743763562477342,1.6764390960112148,-0.8287922661910188,-1.7013778503480848,-2.3096720809330447,1.1945837046490486,-2.8107285593424858,-1.2974981313859821,-1.31804698968962,-1.745624150422107
1.8000000000000014,0.13167810440063477,,bowing,down,A,0.16895833333333338,0.4639374329288207,0.4334767740844635,0.24795944693537497,1.6767120202561192,-0.8289498732092175,-1.7010486967467098,-2.311234225804479,1.1920347910665627,-2.808775471976723,-1.294385485114693,-1.320678871502196,-1.748037022084854
1.8100000000000014,0.13185715675354004,,bowing,down,A,0.15895833333333337,0.46451193957008197,0.43220931466230955,0.24848125824597656,1.6769849146475209,-0.8291075409198148,-1.7007195502036203,-2.312856631470196,1.1893757604477568,-2.8066378333935345,-1.291244629080044,-1.3233062812826262,-1.7505087155147425
1.8200000000000014,0.13228201866149902,,bowing,down,A,0.14895833333333336,0.46508644621134315,0.43094185524015555,0.2490030695565781,1.6772577791720815,-0.8292652693044283,-1.7003904107088075,-2.314552318954022,1.1865831389703299,-2.8042773946359403,-1.2880694775802768,-1.3259279755878266,-1.7530521326559798
1.8300000000000014,0.13272905349731445,,bowing,down,A,0.1389583333333334,0.46566095285260434,0.4296743958180016,0.24952488086717967,1.6775306138164572,-0.8294230583446731,-1.700061278252242,-2.31624801512722,1.1837901358047356,-2.8019164777663836,-1.284894452865963,-1.328549677164624,-1.7555955497972175
1.8400000000000014,0.1336839199066162,,bowing,down,A,0.1289583333333334,0.4662354594938656,0.42840693639584765,0.25004669217778125,1.6778034185672976,-0.82958090802216,-1.6997321528238736,-2.317943646130128,1.180997132639141,-2.799555560896828,-1.2817197451152824,-1.3311712623958696,-1.7581387588425805
1.8500000000000014,0.13408303260803223,,bowing,down,A,0.11895833333333339,0.46680996613512676,0.42713947697369364,0.25056850348838283,1.678076193411246,-0.8297388183184967,-1.6994030344136308,-2.31963935968207,1.1782041294735468,-2.7971946440272712,-1.2785446253118786,-1.3337929930590549,-1.7606821066185265
1.8600000000000014,0.13487720489501953,,bowing,down,A,0.10895833333333338,0.46738447277638795,0.4258720175515397,0.25109031479898436,1.6783489383349406,-0.8298967892152864,-1.6990739230114227,-2.3213349906849787,1.175410744619785,-2.7948337271577155,-1.2753701394357413,-1.3364144764879429,-1.7632254543944728
1.8700000000000014,0.1352989673614502,,bowing,down,A,0.09895833333333337,0.4679589794176492,0.4246045581293857,0.25161212610958594,1.6786216533250127,-0.8300548206941301,-1.698744818607137,-2.323030617343201,1.1726179322982744,-2.7924723321761964,-1.2721953682923341,-1.3390359744600246,-1.765768663439836
1.8800000000000014,0.13660192489624023,,bowing,down,A,0.08895833333333336,0.4685334860589104,0.42333709870723174,0.2521339374201875,1.6788943383680877,-0.8302129127366239,-1.69841572119064,-2.324726209243936,1.1698247382885962,-2.7901114153066406,-1.269020692238017,-1.3416571452102422,-1.7683115950240333
1.8900000000000015,0.13677620887756348,,bowing,down,A,0.07895833333333341,0.46910799270017156,0.4220696392850778,0.25265574873078905,1.6791669934507856,-0.8303710653243607,-1.6980866307517792,-2.3264218532809022,1.167031544278918,-2.78774954221316,-1.2658462697546062,-1.3442783886764296,-1.7708548040693965
1.9000000000000015,0.1376941204071045,,bowing,down,A,0.0689583333333334,0.4696824993414328,0.4208021798629238,0.25317756004139064,1.6794396185597193,-0.8305292784389307,-1.6977575472803803,-2.328117419113521,1.1642381594251563,-2.785388147231641,-1.2626720057530123,-1.3468994576242892,-1.7733978743841767
1.9100000000000015,0.1385951042175293,,bowing,down,A,0.05895833333333339,0.470257005982694,0.41953472044076984,0.2536993713519922,1.679712213681495,-0.8306875520619185,-1.6974284707662468,-2.3298129588780245,1.1614449654154781,-2.78302627413816,-1.2594979953223249,-1.3495203375106273,-1.7759408059683741
1.9200000000000015,0.13961315155029297,,bowing,down,A,0.04895833333333338,0.4708315126239552,0.4182672610186159,0.25422118266259375,1.6799847788027154,-0.8308458861749071,-1.6970994011991642,-2.331508568157503,1.1586511988735488,-2.7806634448207554,-1.256323731320731,-1.3521413555573083,-1.7784838762831545
1.9300000000000015,0.14017605781555176,,bowing,down,A,0.03895833333333337,0.4714060192652164,0.4169998015964619,0.25474299397319533,1.680257313909974,-0.831004280759475,-1.6967703385688957,-2.3332041079220063,1.155857814019787,-2.778301571727274,-1.2531498476754968,-1.354762159091878,-1.781026807867352
1.9400000000000015,0.14062094688415527,,bowing,down,A,0.028958333333333364,0.4719805259064776,0.41573234217430793,0.2552648052837969,1.6805298189898599,-0.8311627357971972,-1.6964412828651843,-2.3349437288702726,1.1530415278759758,-2.7758612882719853,-1.2502689652128436,-1.3574140341603627,-1.7835046054428871
1.9500000000000015,0.1409001350402832,,bowing,down,A,0.01895833333333341,0.47255503254773884,0.41446488275215393,0.25578661659439844,1.6808022940289544,-0.8313212512696451,-1.6961122340777508,-2.336716352053101,1.150207111544209,-2.7733607627094545,-1.2476084992607557,-1.3600889492838928,-1.7859334311226653
1.9600000000000015,0.14716196060180664,,bowing,up,A,0.2489583333333334,0.47255503254773884,0.41446488275215393,0.25578661659439844,1.6808022940289544,-0.8313212512696451,-1.6961122340777508,-2.336716352053101,1.150207111544209,-2.7733607627094545,-1.2476084992607557,-1.3600889492838928,-1.7859334311226653
1.9700000000000015,0.14899396896362305,,bowing,up,A,0.23895833333333338,0.47198032429866277,0.4157327869554578,0.25526462216800583,1.6805298810114502,-0.831162771870103,-1.6964412079694482,-2.334943146682354,1.1530424820963945,-2.7758622444959102,-1.2502699161037434,-1.357413157932926,-1.7835037036940982
1.9800000000000015,0.14966607093811035,,bowing,up,A,0.2289583333333334,0.47140561604958675,0.4170006911587616,0.25474262774161316,1.6802574379668258,-0.8310043528777744,-1.6967701887742732,-2.3332029913377146,1.1558602949928756,-2.778304440399048,-1.2531513691009364,-1.3547606756860933,-1.7810251431003574
1.9900000000000015,0.1506659984588623,,bowing,up,A,0.2189583333333334,0.4708309078005107,0.4182685953620654,0.25422063331522055,1.6799849649084897,-0.8308459943110753,-1.6970991765024976,-2.331506899798094,1.15865482491114,-2.7806682259403774,-1.2563260451552536,-1.3521392104361978,-1.7784815178632456
2.0000000000000013,0.15748190879821777,,bowing,up,A,0.20895833333333338,0.47025619955143466,0.41953649956536926,0.2536986388888279,1.6797124618498445,-0.8306876961884182,-1.6974281711643715,-2.3298107474328704,1.1614495456734881,-2.783031055257783,-1.2595007846022974,-1.3495175524889822,-1.775937615164968
2.010000000000001,0.15886402130126953,,bowing,up,A,0.1989583333333334,0.4696814913023586,0.4208044037686731,0.25317664446243526,1.6794399288042863,-0.8305294585282117,-1.6977571727701246,-2.3281146993401096,1.1642442664358361,-2.7853953189110743,-1.2626757142275213,-1.3468959527145428,-1.7733937818319818
2.020000000000001,0.1606919765472412,,bowing,up,A,0.1889583333333334,0.46910678305328257,0.4220723079719769,0.2526546500360426,1.6791673657852046,-0.8303712813488614,-1.698086181329966,-2.326418525251456,1.1670386055100166,-2.7877576701165174,-1.265850929120015,-1.3442740402614328,-1.7708498791337042
2.0300000000000007,0.161668062210083,,bowing,up,A,0.17895833333333339,0.4685320748042065,0.42334021217528073,0.25213265560965,1.678894772805984,-0.8302131646687683,-1.6984151968540833,-2.3247223424734305,1.169833135428281,-2.7901209775458855,-1.2690257002634224,-1.3416523604994264,-1.7683060458007183
2.0400000000000005,0.16294288635253906,,bowing,up,A,0.16895833333333338,0.4679573665551304,0.4246081163785846,0.25161066118325737,1.6786221498800016,-0.830055108506331,-1.6987442193526445,-2.3230261944528925,1.1726276653465453,-2.7924842849752527,-1.2722008200668262,-1.3390303026143766,-1.7657620043718576
2.0500000000000003,0.16352105140686035,,bowing,up,A,0.1589583333333334,0.4673826583060544,0.42587602058188845,0.2510886667568647,1.6783494970206287,-0.8298971128799434,-1.6990732488357956,-2.321329959538635,1.175421813576642,-2.7948461580687334,-1.2753765104047698,-1.3364081720133572,-1.7632179629429972
2.06,0.16407108306884766,,bowing,up,A,0.1489583333333334,0.46680795005697834,0.42714392478519225,0.2505666723304721,1.678076814241231,-0.829739177807997,-1.6994022853136632,-2.319633859309643,1.178215961806739,-2.7972085092741765,-1.2785520105645336,-1.3337861213999045,-1.7606740602447197
2.07,0.16460514068603516,,bowing,up,A,0.1389583333333334,0.4662332418079023,0.42841182898849606,0.2500446779040794,1.6778041015551672,-0.8295813033088785,-1.699731328796352,-2.31793759832727,1.1810101100368358,-2.7995708604796197,-1.281727605813387,-1.3311637217497967,-1.7581298107199848
2.0799999999999996,0.17090916633605957,,bowing,up,A,0.1289583333333334,0.46565853355882625,0.4296797331917999,0.2495226834776868,1.6775313589757912,-0.8294234894009715,-1.7000603792939477,-2.3162413069320955,1.1838044491110162,-2.801933211685062,-1.2849030742767875,-1.3285412639269127,-1.7555856305605415
2.0899999999999994,0.17148995399475098,,bowing,up,A,0.11895833333333339,0.4650838253097502,0.4309476373951038,0.24900068905129416,1.6772585865164502,-0.8292657361026569,-1.7003894368165136,-2.3145450807072105,1.186598597341113,-2.804295562890505,-1.2880787963110945,-1.325918857005208,-1.7530415197663896
2.099999999999999,0.17203712463378906,,bowing,up,A,0.10895833333333338,0.46450911706067416,0.4322155415984076,0.24847869462490152,1.676985784190485,-0.82910804343231,-1.7007185013740933,-2.3128488110354657,1.1893925547271262,-2.8066574359839858,-1.2912548353090347,-1.3232962682935785,-1.7504972702416548
2.109999999999999,0.17257404327392578,,bowing,up,A,0.0989583333333334,0.4639344088115981,0.4334834458017114,0.2479567001985089,1.6767129520112307,-0.8289504114083043,-1.7010475729767094,-2.3112266052253028,1.1920513945018485,-2.8087936402312885,-1.2943961350927702,-1.3206682695137926,-1.7480254380811835
2.1199999999999988,0.17312407493591309,,bowing,up,A,0.08895833333333339,0.46335970056252207,0.43475135000501525,0.24743470577211626,1.6764400899920169,-0.8287928400490083,-1.701376651634365,-2.309663969404355,1.1946014531488367,-2.810748161932938,-1.2975092885058728,-1.3180355732823545,-1.7456116646696478
2.1299999999999986,0.17942214012145996,,bowing,up,A,0.07895833333333338,0.462784992313446,0.4360192542083191,0.24691271134572362,1.6761671981461663,-0.8286353293727884,-1.701705737357041,-2.308101242345002,1.1971511301076574,-2.812702205522625,-1.3006232026316948,-1.315402673446201,-1.7431978218928206
2.1399999999999983,0.1800081729888916,,bowing,up,A,0.0689583333333334,0.4622102840643699,0.4372871584116229,0.24639071691933098,1.6758942764869968,-0.8284778793980061,-1.7020348301546995,-2.3065385543878225,1.1997009979105617,-2.8146567272242744,-1.3037361975629809,-1.312770006301151,-1.7407842565771592
2.149999999999998,0.18057584762573242,,bowing,up,A,0.05895833333333339,0.4616355758152939,0.4385550626149267,0.24586872249293834,1.6756213250278196,-0.8283204901430191,-1.7023639300372804,-2.3049757925709815,1.2022506748693824,-2.8166112489259247,-1.3068499532069864,-1.3101370337490275,-1.7383703444350405
2.159999999999998,0.18111205101013184,,bowing,up,A,0.04895833333333338,0.46106086756621784,0.4398229668182306,0.2453467280665457,1.6753483437819394,-0.8281631616261829,-1.7026930370147042,-2.3034130828903723,1.204800351828203,-2.8185648144036493,-1.3099634869764487,-1.3075039666661432,-1.7359565710235048
2.1699999999999977,0.18168902397155762,,bowing,up,A,0.0389583333333334,0.4604861593171418,0.44109087102153444,0.24482473364015306,1.6750753327626575,-0.8280058938658481,-1.7030221510968708,-2.3018504296906808,1.2073500287870238,-2.8205183798813747,-1.3130775278877245,-1.3048709722992289,-1.7335427976119688
2.1799999999999975,0.1873619556427002,,bowing,up,A,0.02895833333333339,0.45991145106806575,0.44235877522483824,0.24430273921376044,1.6748022919832666,-0.8278486868803623,-1.7033512722936592,-2.300287654839782,1.209899324057677,-2.8224719453591,-1.3161915054062734,-1.3022376507104503,-1.7311288854698503
2.1899999999999973,0.1879289150238037,,bowing,up,A,0.018958333333333383,0.45933674281898973,0.44362667942814205,0.2437807447873678,1.6745292214570549,-0.8276915406880682,-1.7036804006149289,-2.298724914746371,1.212448810172414,-2.8244255108368255,-1.3193056097102756,-1.2996043582080596,-1.7287148345971488
2.199999999999997,0.18837285041809082,,bowing,down,A,0.2489583333333334,0.45933674281898973,0.44362667942814205,0.2437807447873678,1.6745292214570549,-0.8276915406880682,-1.7036804006149289,-2.298724914746371,1.212448810172414,-2.8244255108368255,-1.3193056097102756,-1.2996043582080596,-1.7287148345971488
2.209999999999997,0.1884920597076416,,bowing,down,A,0.23895833333333338,0.45991144266774014,0.4423587937573861,0.2443027315839358,1.6748021032829064,-0.8278485782604748,-1.7033514997416437,-2.3002875940141787,1.2098989423695095,-2.8224714672471376,-1.3161918857626334,-1.3022373743897648,-1.7311287467392673
2.2199999999999966,0.1886272430419922,,bowing,down,A,0.2289583333333334,0.46048614251649056,0.4410909080866302,0.24482471838050382,1.6750749554030462,-0.8280056765420909,-1.7030226059830025,-2.3018502732819863,1.2073498379429402,-2.820517901769412,-1.313078542171351,-1.3048702669543215,-1.7335423814202202
2.2299999999999964,0.18875789642333984,,bowing,down,A,0.2189583333333334,0.46106084236524103,0.4398230224158743,0.24534670517707183,1.675347777804214,-0.828162835514611,-1.7026937193291667,-2.303412909102934,1.2047995884518683,-2.8185629019558003,-1.309965261972795,-1.3075030577165203,-1.7359561548317561
2.239999999999996,0.18887901306152344,,bowing,down,A,0.20895833333333338,0.46163554221399145,0.43855513674511837,0.24586869197363984,1.675620570473144,-0.8283200551597254,-1.7023648397702786,-2.3049755970601136,1.2022499114930476,-2.8166079021421884,-1.3068520768633292,-1.310135899379898,-1.7383700669738746
2.249999999999996,0.18900012969970703,,bowing,down,A,0.1989583333333334,0.46221024206274186,0.43728725107436245,0.24639067877020784,1.6758933333965633,-0.8284773354591215,-1.7020359672964573,-2.306538185089516,1.1996998528460594,-2.814654336664464,-1.3037388283611369,-1.31276861015453,-1.7407835629242447
2.259999999999996,0.18911981582641602,,bowing,down,A,0.1889583333333334,0.46278494191149233,0.43601936540360653,0.24691266556677585,1.6761660665611946,-0.8286346763944825,-1.7017071018978047,-2.3081007731189183,1.1971497941990712,-2.8126988587388895,-1.3006257700371244,-1.3154009718925066,-1.7431971976051976
2.2699999999999956,0.18926310539245605,,bowing,down,A,0.17895833333333339,0.46335964176024275,0.4347514797328506,0.24743465236334386,1.6764387699537533,-0.8287920779474883,-1.7013782435643998,-2.3096634263186098,1.1945999263961669,-2.810743380813315,-1.2975129652840185,-1.318033442704438,-1.7456108322861505
2.2799999999999954,0.18939590454101562,,bowing,down,A,0.16895833333333338,0.46393434160899316,0.4334835940620947,0.24795663915991187,1.6767114435609505,-0.8289495400998153,-1.7010493922863026,-2.311226018692698,1.1920498677491786,-2.8087888591116656,-1.2944003824054557,-1.3206658117140118,-1.7480244669671035
2.289999999999995,0.1895129680633545,,bowing,down,A,0.1589583333333334,0.4645090414577436,0.43221570839133877,0.24847862595647988,1.67698408736949,-0.8291070628331353,-1.7007205480535514,-2.3128482462262907,1.1893908371303725,-2.806651698640439,-1.2912592727999004,-1.3232937959506037,-1.7504962297622833
2.299999999999995,0.18962907791137695,,bowing,down,A,0.1489583333333334,0.465083741306494,0.43094782272058285,0.24900061275304788,1.6772567013660706,-0.829264646129118,-1.700391710856166,-2.3145444203149443,1.186596498056192,-2.8042893474349966,-1.2880839311219532,-1.325916035625578,-1.753040340556435
2.3099999999999947,0.18974518775939941,,bowing,down,A,0.1389583333333334,0.46565844115524446,0.42967993704982693,0.2495225995496159,1.6775292855373851,-0.8294222899694281,-1.7000628806841434,-2.316240585714226,1.1838019681379277,-2.8019260400056285,-1.2849088430149127,-1.3285381153254185,-1.7555843126200041
2.3199999999999945,0.18985891342163086,,bowing,down,A,0.1289583333333334,0.4662331410039949,0.428412051379071,0.25004458634618393,1.6778018398701184,-0.8295799943357277,-1.6997340575274609,-2.3179366729091604,1.1810078199078309,-2.7995636888001854,-1.2817335013369657,-1.33116021684005,-1.7581284234141559
2.3299999999999943,0.1899728775024414,,bowing,down,A,0.11895833333333339,0.4668078408527453,0.4271441657083151,0.25056657314275194,1.6780743643509533,-0.8297377592096751,-1.6994052413760763,-2.3196329338915334,1.178213099145483,-2.797200381370818,-1.2785584132299253,-1.3337823038114878,-1.7606725342083078
2.339999999999994,0.19006991386413574,,bowing,down,A,0.10895833333333338,0.46738254070149576,0.4258762800375592,0.25108855993931994,1.6783468589665629,-0.8298955845729241,-1.6990764322199257,-2.3213290514992693,1.1754187600713022,-2.7948375520534134,-1.2753833885156114,-1.3364041217338367,-1.7632164369065855
2.349999999999994,0.1901860237121582,,bowing,down,A,0.0989583333333334,0.4679572405502462,0.42460839436680325,0.25161054673588795,1.6786193237036158,-0.8300534704071262,-1.6987476300489242,-2.3230251864857494,1.1726240393089542,-2.7924742446240454,-1.2722088075503841,-1.3390259978289618,-1.7657604089701544
2.3599999999999937,0.19039106369018555,,bowing,down,A,0.08895833333333339,0.4685319403989966,0.42334050869604734,0.25213253353245596,1.678891758548775,-0.8302114166939281,-1.6984188348529683,-2.324721260646626,1.1698297002347735,-2.7901114153066406,-1.2690337828360705,-1.3416476266897894,-1.7683041035725577
2.3699999999999934,0.1905231475830078,,bowing,down,A,0.07895833333333338,0.469106640247747,0.4220726230252914,0.25265452032902397,1.679164163488696,-0.830369423414974,-1.6980900466219313,-2.326417360875618,1.1670349794724255,-2.7877471516533485,-1.265859582227203,-1.3442691537482592,-1.7708478675402524
2.3799999999999932,0.19066095352172852,,bowing,down,A,0.0689583333333334,0.4696813400964974,0.4208047373545355,0.253176507125592,1.6794365385100296,-0.8305274905519037,-1.6977612653456677,-2.3281134133130648,1.1642402587100775,-2.785383366112019,-1.2626846842983426,-1.3468907244363109,-1.77339177023853
2.389999999999993,0.19075798988342285,,bowing,down,A,0.05895833333333339,0.4702560399452479,0.4195368516837796,0.25369849392216,1.6797088835994194,-0.8306856180863541,-1.6974324910140106,-2.3298094049249083,1.1614455379477293,-2.783019580570689,-1.2595102935112952,-1.3495121860504078,-1.775935395475642
2.399999999999993,0.19086599349975586,,bowing,down,A,0.04895833333333338,0.4708307397939983,0.41826896601302366,0.254220480718728,1.6799811987435038,-0.8308438059999579,-1.6971037236167732,-2.331505448672983,1.1586508171853813,-2.780655316917397,-1.2563363464733346,-1.3521333422574313,-1.7784790207127537
2.4099999999999926,0.1909620761871338,,bowing,down,A,0.0389583333333334,0.4714054396427487,0.41700108034226774,0.254742467515296,1.6802534839289138,-0.8310020542743444,-1.696774963143746,-2.3332015228338596,1.1558560964230333,-2.778292009488029,-1.2531618922935606,-1.354754632988999,-1.7810226459498655
2.4199999999999924,0.19106388092041016,,bowing,down,A,0.02895833333333339,0.4719801394914992,0.4157331946715118,0.255264454311864,1.6805257391422757,-0.8311603628911395,-1.6964462095847015,-2.334941487012317,1.1530379018383847,-2.7758488573609674,-1.2502798053691009,-1.3574067298411918,-1.7835014840047723
2.429999999999992,0.19114995002746582,,bowing,down,A,0.018958333333333383,0.4725548393402496,0.4144653090007559,0.255786441108432,1.680797964370208,-0.8313187318319657,-1.6961174629293894,-2.3367146359021462,1.1502029129743667,-2.773347853686474,-1.2476185153115664,-1.3600823139516445,-1.7859309339721734
2.439999999999992,0.198930025100708,,bowing,up,A,0.2489583333333334,0.4725548393402496,0.4144653090007559,0.255786441108432,1.680797964370208,-0.8313187318319657,-1.6961174629293894,-2.3367146359021462,1.1502029129743667,-2.773347853686474,-1.2476185153115664,-1.3600823139516445,-1.7859309339721734
2.4499999999999917,0.19953608512878418,,bowing,up,A,0.23895833333333338,0.4719801317373525,0.4157332117784791,0.255264447268949,1.6805255650510946,-0.8311602616372512,-1.6964464198126095,-2.3349414001185975,1.1530375201502172,-2.7758479011370425,-1.250280027243644,-1.3574064098909244,-1.7835013452741895
2.4599999999999915,0.20008206367492676,,bowing,up,A,0.2289583333333334,0.4714054241344553,0.41700111455620237,0.25474245342946594,1.680253135708198,-0.8310018518437553,-1.6967753836084007,-2.3332014011826527,1.1558555238907822,-2.77829009704018,-1.2531626530062803,-1.3547542366869634,-1.781022576584574
2.4699999999999913,0.20061683654785156,,bowing,up,A,0.2189583333333334,0.47083071653155817,0.4182690173339256,0.25422045958998285,1.6799806763549252,-0.8308435024698914,-1.6971043543270332,-2.3315053791580076,1.1586504354972138,-2.780654360693472,-1.2563372339715075,-1.3521328405172393,-1.7784788819821709
2.479999999999991,0.20140504837036133,,bowing,up,A,0.20895833333333338,0.470256008928661,0.4195369201116488,0.2536984657504998,1.6797081870046762,-0.830685213534069,-1.6974333319787547,-2.3298091616224945,1.1614449654154781,-2.7830176681228402,-1.2595121952930948,-1.3495109935085023,-1.7759348405533104
2.489999999999991,0.20647215843200684,,bowing,up,A,0.1989583333333334,0.4696813013257638,0.42080482288937204,0.2531764719110168,1.6794356676708448,-0.8305269850546938,-1.6977623165737927,-2.3281131178744197,1.1642393044896588,-2.785380497440245,-1.262686966436502,-1.3468895391660023,-1.7733912153161986
2.4999999999999907,0.2070319652557373,,bowing,up,A,0.1889583333333334,0.46910659372286667,0.42207272566709525,0.25265447807153374,1.6791631183668188,-0.830368817050168,-1.6980913081223548,-2.326416956819824,1.167033834407923,-2.787743804869613,-1.265862117936269,-1.3442676121696984,-1.7708472432526294
2.5099999999999905,0.20760583877563477,,bowing,up,A,0.17895833333333339,0.46853188611996954,0.42334062844481846,0.25213248423205065,1.6788905391059796,-0.8302107095388904,-1.6984203066346268,-2.3247207436289967,1.1698283643261873,-2.7901066341870178,-1.2690372060433095,-1.3416457360745735,-1.7683033405543518
2.5199999999999902,0.20815086364746094,,bowing,up,A,0.16895833333333338,0.46795717851707236,0.4246085312225417,0.2516104903925676,1.678617929901703,-0.8300526625392564,-1.6987493121207746,-2.3230246216765744,1.1726225125562841,-2.7924694635044234,-1.2722125477212565,-1.3390237000043148,-1.7657593684907829
2.52999999999999,0.2087080478668213,,bowing,up,A,0.1589583333333334,0.4673824709141752,0.4258764340002649,0.2510884965530846,1.678345290767358,-0.8298946760696573,-1.6990783245909427,-2.321328417175119,1.1754172333186323,-2.7948327709337906,-1.2753877943101137,-1.3364017657364138,-1.7632154657925052
2.53999999999999,0.21423888206481934,,bowing,up,A,0.1489583333333334,0.46680776331127805,0.42714433677798813,0.25056650271360154,1.678072621716308,-0.829736750148481,-1.6994073440552548,-2.319632203984292,1.1782111907046453,-2.7971951221392337,-1.278563072595334,-1.3337795406046336,-1.760671285633062
2.5499999999999896,0.2147970199584961,,bowing,up,A,0.1389583333333334,0.4662330557083809,0.4284122395557114,0.25004450887411844,1.6777999227619096,-0.8295788847941112,-1.6997363705238147,-2.3179360255509525,1.1810057206229096,-2.799557473344677,-1.281738794629641,-1.3311572573000774,-1.758127313569493
2.5599999999999894,0.215346097946167,,bowing,up,A,0.1289583333333334,0.46565834810548373,0.4296801423334346,0.24952251503463543,1.6775271939175145,-0.82942108002493,-1.7000654040067054,-2.3162398427729265,1.1837996780089228,-2.8019193464381575,-1.2849141997003148,-1.3285351485138488,-1.755583202775341
2.569999999999989,0.2158808708190918,,bowing,up,A,0.11895833333333339,0.4650836405025866,0.4309480451111578,0.24900052119515237,1.6772544351964669,-0.8292633358593133,-1.7003944445139885,-2.314543568756496,1.1865940170831033,-2.8042816976436007,-1.2880900802164383,-1.3259125888886074,-1.7530390226158978
2.579999999999989,0.21646881103515625,,bowing,up,A,0.10895833333333338,0.4645089328996894,0.43221594788888107,0.24847852735566933,1.6769816466121068,-0.8291056523156352,-1.7007234920557066,-2.3128473425316107,1.1893879744691165,-2.8066435707370814,-1.2912662143034686,-1.32328989837462,-1.7504947037258716
2.5899999999999888,0.22275018692016602,,bowing,up,A,0.0989583333333334,0.4639342252967923,0.4334838506666043,0.24795653351618627,1.6767088281777665,-0.8289480294122653,-1.70105254664188,-2.311225132376762,1.1920470050879224,-2.8087802530963457,-1.2944069435526642,-1.3206620377551768,-1.7480228022001087
2.5999999999999885,0.22333788871765137,,bowing,up,A,0.08895833333333339,0.4633595176938951,0.4347517534443275,0.24743453967670323,1.6764359799067732,-0.8287904671675699,-1.7013816082825088,-2.3096624661430125,1.194596872890827,-2.8107352529099576,-1.2975203822330366,-1.318029261536172,-1.7456090981538646
2.6099999999999883,0.22388005256652832,,bowing,up,A,0.07895833333333338,0.4627848100909979,0.43601965622205074,0.24691254583722017,1.6761631018124477,-0.8286329655999117,-1.7017106769875734,-2.3080997521177173,1.1971467406937313,-2.8126892964996446,-1.3006334722534123,-1.3153966525638978,-1.7431954634729117
2.619999999999988,0.2244551181793213,,bowing,up,A,0.0689583333333334,0.4622101024881008,0.43728755899977395,0.24639055199773713,1.6758901939081061,-0.8284755247276496,-1.7020397527670335,-2.306537042437108,1.199696417652552,-2.814643818201294,-1.3037472912901447,-1.3127637818141322,-1.7407816206960844
2.629999999999988,0.22500014305114746,,bowing,up,A,0.05895833333333339,0.46163539488520366,0.43855546177749716,0.24586855815825406,1.6756172562070568,-0.8283181445691387,-1.7023688356308275,-2.30497440661616,1.2022460946113727,-2.8165973836790195,-1.3068606031850638,-1.3101308674347847,-1.7383679860151315
2.6399999999999877,0.22552895545959473,,bowing,up,A,0.04895833333333338,0.4610606872823065,0.4398233645552204,0.24534656431877103,1.6753442887226029,-0.8281608251427311,-1.702697925588874,-2.3034116491440053,1.2047957715701934,-2.818551905380669,-1.3099744856145228,-1.3074978512530793,-1.7359540738730128
2.6499999999999875,0.23153090476989746,,bowing,up,A,0.0389583333333334,0.4604859796794093,0.4410912673329436,0.24482457047928796,1.6750712914680426,-0.8280035664667749,-1.70302702265107,-2.301848952497454,1.207345448529014,-2.8205054708583943,-1.313088114473075,-1.3048647478122102,-1.7335403698267684
2.6599999999999873,0.2321159839630127,,bowing,up,A,0.02895833333333339,0.45991127207651217,0.44235917011066683,0.24430257663980492,1.6747982644566672,-0.8278463685596137,-1.7033561268272939,-2.300286212404043,1.2098947437996672,-2.8224590363361197,-1.3162021236879875,-1.3022316152849531,-1.73112645768465
2.669999999999987,0.2326819896697998,,bowing,up,A,0.018958333333333383,0.45933656447361504,0.4436270728883901,0.2437805828003219,1.674525207701763,-0.8276892314395893,-1.7036852381274028,-2.2987234723106322,1.212444420758488,-2.8244126018138442,-1.319316259688353,-1.299598162807429,-1.7287123374466569
2.679999999999987,0.23311805725097656,,bowing,down,A,0.2489583333333334,0.45933656447361504,0.4436270728883901,0.2437805828003219,1.674525207701763,-0.8276892314395893,-1.7036852381274028,-2.2987234723106322,1.212444420758488,-2.8244126018138442,-1.319316259688353,-1.299598162807429,-1.7287123374466569
2.6899999999999866,0.23324799537658691,,bowing,down,A,0.23895833333333338,0.4599112717534227,0.44235917082345716,0.24430257634635014,1.6747982536580246,-0.8278463623437329,-1.7033561398433072,-2.300286212404043,1.2098947437996672,-2.8224590363361197,-1.3162021236879875,-1.3022316152849531,-1.73112645768465
2.6999999999999864,0.23336482048034668,,bowing,down,A,0.2289583333333334,0.46048597903323046,0.4410912687585243,0.24482456989237839,1.6750712698731107,-0.8280035540302054,-1.7030270486825334,-2.301848952497454,1.207345448529014,-2.8205054708583943,-1.313088114473075,-1.3048647478122102,-1.7335403698267684
2.709999999999986,0.23348712921142578,,bowing,down,A,0.2189583333333334,0.46106068631303815,0.43982336669359134,0.24534656343840666,1.6753442563337366,-0.8281608064806685,-1.7026979646352254,-2.3034116491440053,1.2047957715701934,-2.818551905380669,-1.3099744856145228,-1.3074978512530793,-1.7359540738730128
2.719999999999986,0.2335960865020752,,bowing,down,A,0.20895833333333338,0.4616353935928459,0.4385554646286584,0.2458685569844349,1.6756172130266118,-0.8283181196767799,-1.7023688876915064,-2.30497438489273,1.2022459037672888,-2.8165973836790195,-1.3068610469341504,-1.3101307510892328,-1.7383679860151315
2.7299999999999858,0.23371315002441406,,bowing,down,A,0.1989583333333334,0.4622101008726536,0.4372875625637255,0.24639055053046316,1.675890139938441,-0.8284754936001936,-1.7020398178414802,-2.306537042437108,1.1996960359643845,-2.81464286197737,-1.3037473863792348,-1.3127636072958044,-1.7407816900613757
2.7399999999999856,0.2338271141052246,,bowing,down,A,0.1889583333333334,0.46278480815246126,0.4360196604987926,0.24691254407649144,1.6761630370559222,-0.82863292823256,-1.7017107550752297,-2.3080997608070892,1.1971467406937313,-2.8126892964996446,-1.3006335673425025,-1.3153966234775099,-1.7431954634729117
2.7499999999999853,0.23394203186035156,,bowing,down,A,0.17895833333333339,0.463359515432269,0.43475175843385966,0.24743453762251968,1.6764359043657475,-0.8287904235555258,-1.7013816993828177,-2.3096624183514667,1.1945964912026594,-2.8107338185740702,-1.2975207625893965,-1.3180291815486052,-1.7456091675191558
2.759999999999985,0.2340550422668457,,bowing,down,A,0.16895833333333338,0.4639342227120767,0.4334838563689267,0.24795653116854793,1.6767087418546034,-0.8289479795507344,-1.7010526507542847,-2.3112251758236217,1.1920466233997549,-2.8087797749843832,-1.2944072605162975,-1.320661899594834,-1.7480229409306918
2.769999999999985,0.2342209815979004,,bowing,down,A,0.1589583333333334,0.4645089299918844,0.4322159543039938,0.24847852471457618,1.6769815495091707,-0.8291055961998256,-1.700723609179653,-2.3128472990847513,1.1893881653132001,-2.8066435707370814,-1.2912663093925585,-1.323289912917814,-1.75049463436058
2.7799999999999847,0.2344050407409668,,bowing,down,A,0.1489583333333334,0.4650836372716921,0.43094805223906085,0.24900051826060443,1.6772543273161238,-0.8292632734844352,-1.7003945746489226,-2.3145435079308925,1.1865938262390197,-2.8042812195316382,-1.288090523965525,-1.3259123561975037,-1.7530388838853148
2.7899999999999845,0.2345409393310547,,bowing,down,A,0.1389583333333334,0.46565834455149985,0.429680150174128,0.2495225118066327,1.677527075262131,-0.8294210113861953,-1.7000655471520745,-2.316239808015439,1.1837998688530065,-2.8019193464381575,-1.2849144849675846,-1.3285349739955212,-1.755583064044758
2.7999999999999843,0.23471307754516602,,bowing,down,A,0.1289583333333334,0.46623305183130753,0.42841224810919504,0.250044505352661,1.6777997933338555,-0.8295788098867347,-1.6997365266790683,-2.3179359821040926,1.1810059114669933,-2.799557473344677,-1.2817389531114576,-1.3311571336829287,-1.7581271054736187
2.809999999999984,0.23484110832214355,,bowing,down,A,0.11895833333333339,0.4668077591111152,0.4271443460442621,0.2505664988986892,1.678072481517953,-0.8297366689676786,-1.6994075132198418,-2.319632277843953,1.1782109998605617,-2.797194165915309,-1.2785631993807873,-1.3337795406046336,-1.7606714937289363
2.819999999999984,0.23495912551879883,,bowing,down,A,0.10895833333333338,0.46738246639092296,0.4258764439793292,0.2510884924447175,1.6783451398010751,-0.8298945886106484,-1.6990785067643148,-2.3213283650388874,1.1754170424745485,-2.794832292821828,-1.2753879527919303,-1.3364014457861466,-1.7632153270619226
2.8299999999999836,0.2350919246673584,,bowing,down,A,0.0989583333333334,0.46795717367073064,0.4246085419143963,0.2516104859907457,1.6786177681698655,-0.8300525687972616,-1.6987495073023848,-2.323024534782855,1.172622703400368,-2.7924694635044234,-1.272212991470343,-1.3390234818564053,-1.7657592297602
2.8399999999999834,0.23521924018859863,,bowing,down,A,0.08895833333333339,0.4685318809505384,0.42334063984946335,0.252132479536774,1.6788903666109636,-0.8302106095091334,-1.6984205148239286,-2.3247207088715087,1.1698281734821037,-2.7901066341870178,-1.2690374913105795,-1.341645488840276,-1.7683032711890605
2.849999999999983,0.23537397384643555,,bowing,down,A,0.07895833333333338,0.46910658823034607,0.4220727377845304,0.25265447308280226,1.6791629351110002,-0.8303687107278737,-1.6980915293188026,-2.32641693944108,1.1670334527197557,-2.787742848645688,-1.2658625616853556,-1.3442674812809527,-1.770847312617921
2.859999999999983,0.2355051040649414,,bowing,down,A,0.0689583333333334,0.4696812955101538,0.4208048357195975,0.2531764666288305,1.6794354736566022,-0.8305268724350896,-1.6977625507768423,-2.328113057048816,1.164239113645575,-2.785379541216321,-1.2626876003637684,-1.3468891028701833,-1.773391145950907
2.869999999999983,0.24024105072021484,,bowing,down,A,0.05895833333333339,0.4702560027899615,0.4195369336546646,0.25369846017485875,1.6797079822343903,-0.830685094612385,-1.6974335791878636,-2.3298091355543784,1.1614445837273106,-2.7830167118989153,-1.259512702434908,-1.3495107826321897,-1.7759349099186017
2.8799999999999826,0.24036908149719238,,bowing,down,A,0.04895833333333338,0.4708307100697692,0.41826903158973167,0.254220453720887,1.679980460830977,-0.8308433772413595,-1.6971046145416597,-2.3315052792302304,1.1586500538090463,-2.780653404469548,-1.256337867898774,-1.3521322733326746,-1.778478604521005
2.8899999999999824,0.2404930591583252,,bowing,down,A,0.0389583333333334,0.4714054173495769,0.41700112952479873,0.25474244726691525,1.6802529094329712,-0.8310017203036093,-1.6967756568280052,-2.3332013099442475,1.1558553330466983,-2.778289140816256,-1.253163286933547,-1.3547538367491292,-1.7810225072192827
2.899999999999982,0.24060702323913574,,bowing,down,A,0.02895833333333339,0.4719801246293846,0.41573322745986585,0.2552644408129435,1.6805253280269739,-0.8311601237807271,-1.6964467060366522,-2.3349414088079694,1.1530373293061336,-2.775847423025081,-1.250280502689094,-1.3574061590208284,-1.7835012759088977
2.909999999999982,0.24073100090026855,,bowing,down,A,0.018958333333333383,0.47255483190919234,0.4144653253949329,0.25578643435897175,1.6807977165995795,-0.8313185876543027,-1.6961177621573327,-2.336714527284997,1.1502021495980317,-2.773346419350587,-1.2476192760242863,-1.360081972186586,-1.785930864606882
2.9199999999999817,0.24211812019348145,,bowing,up,A,0.4989583333333334,0.47255483190919234,0.4144653253949329,0.25578643435897175,1.6807977165995795,-0.8313185876543027,-1.6961177621573327,-2.336714527284997,1.1502021495980317,-2.773346419350587,-1.2476192760242863,-1.360081972186586,-1.785930864606882
2.9299999999999815,0.24267005920410156,,bowing,up,A,0.4889583333333334,0.4719801243311482,0.4157332281178261,0.25526444054206215,1.6805253180701243,-0.8311601179896868,-1.6964467180602782,-2.3349414088079694,1.1530373293061336,-2.775847423025081,-1.250280502689094,-1.3574061590208284,-1.7835012759088977
2.9399999999999813,0.24335885047912598,,bowing,up,A,0.4789583333333334,0.4714054167531041,0.4170011308407193,0.25474244672515256,1.6802528895170787,-0.8310017087259443,-1.6967756808757632,-2.3332013099442475,1.1558553330466983,-2.778289140816256,-1.253163286933547,-1.3547538367491292,-1.7810225072192827
2.949999999999981,0.24392199516296387,,bowing,up,A,0.46895833333333337,0.47083070917506,0.4182690335636125,0.2542204529082429,1.6799804309538486,-0.8308433598814877,-1.6971046506140568,-2.331505235783371,1.1586498629649626,-2.7806529263575857,-1.2563380897733174,-1.3521322587894806,-1.7784786738862965
2.959999999999981,0.2480759620666504,,bowing,up,A,0.4589583333333334,0.47025600159701586,0.41953693628650573,0.2536984590913333,1.6797079423938341,-0.8306850714747269,-1.697433627285407,-2.329809100796891,1.161444392883227,-2.7830167118989153,-1.2595128926130879,-1.349510673558235,-1.775934771188019
2.9699999999999807,0.24863290786743164,,bowing,up,A,0.4489583333333334,0.46968129401897174,0.4208048390093989,0.2531764652744237,1.6794354238504294,-0.8305268435240668,-1.6977626109000419,-2.328113057048816,1.164239113645575,-2.7853800193282825,-1.2626876003637684,-1.346889139228168,-1.773391145950907
2.9799999999999804,0.24918913841247559,,bowing,up,A,0.4389583333333334,0.4691065864409276,0.42207274173229214,0.25265447145751413,1.6791628753370218,-0.8303686760479105,-1.6980916014681675,-2.3264168612367326,1.1670336435638393,-2.7877433267576506,-1.2658625616853556,-1.3442673067626252,-1.7708471738873381
2.9899999999999802,0.2497420310974121,,bowing,up,A,0.4289583333333334,0.4685318788628835,0.4233406444551853,0.25213247764060454,1.6788902968669928,-0.8302105690646557,-1.698420598999971,-2.324720691492765,1.1698281734821037,-2.7901061560750553,-1.269037839970576,-1.341645459753888,-1.7683032018237692
2.99999999999998,0.25026392936706543,,bowing,up,A,0.4189583333333334,0.4679571712848394,0.4246085471780785,0.2516104838236949,1.6786176884537176,-0.8300525225926977,-1.6987496035056169,-2.3230246042978306,1.1726225125562841,-2.792468985392461,-1.2722130865594332,-1.3390234454984202,-1.7657593684907829
3.00999999999998,0.2566051483154297,,bowing,up,A,0.4089583333333334,0.46738246370679526,0.42587644990097173,0.2510884900067853,1.6783450501105655,-0.8298945366504277,-1.6990786149952501,-2.3213283737282593,1.1754168516304648,-2.7948318147098665,-1.2753883648446536,-1.3364014094281615,-1.763215257696631
3.0199999999999796,0.2572021484375,,bowing,up,A,0.3989583333333334,0.46680775612875114,0.4271443526238649,0.2505664961898757,1.6780723818508994,-0.8297366112562335,-1.6994076334789947,-2.319632182260862,1.1782109998605617,-2.797194165915309,-1.278563548040784,-1.333779322456724,-1.760671285633062
3.0299999999999794,0.25775599479675293,,bowing,up,A,0.3889583333333334,0.466233048550707,0.42841225534675814,0.2500445023729661,1.6777996836880762,-0.8295787464284996,-1.699736658966954,-2.3179359169338034,1.181005529778826,-2.799556517120752,-1.2817393968605442,-1.3311569082634223,-1.7581271054736187
3.039999999999979,0.2583019733428955,,bowing,up,A,0.3789583333333334,0.4656583409726629,0.4296801580696513,0.24952250855605648,1.6775269556354473,-0.8294209421856064,-1.700065691469211,-2.3162397776026373,1.183799487164839,-2.801918868326195,-1.2849146117530381,-1.3285347413044177,-1.755583064044758
3.049999999999979,0.25895214080810547,,bowing,up,A,0.3689583333333334,0.4650836333946188,0.43094806079254455,0.2490005147391469,1.6772541977063566,-0.8292631985459302,-1.7003947309958267,-2.314543429726545,1.1865938262390197,-2.8042812195316382,-1.288090523965525,-1.3259121525927882,-1.753038745154732
3.0599999999999787,0.2652568817138672,,bowing,up,A,0.3589583333333334,0.46450892581657466,0.43221596351543773,0.2484785209222373,1.6769814099141438,-0.8291055155278451,-1.7007237775568436,-2.3128472556378914,1.1893877836250326,-2.8066426145131564,-1.2912665629634652,-1.3232896365971285,-1.7504945649952885
3.0699999999999785,0.26580810546875,,bowing,up,A,0.34895833333333337,0.46393421823853054,0.4334838662383309,0.24795652710532767,1.6767085922721423,-0.8289478931497202,-1.7010528311622826,-2.3112250802405305,1.1920466233997549,-2.808779296872421,-1.2944077359617474,-1.3206616959901185,-1.7480227328348175
3.0799999999999783,0.26633310317993164,,bowing,up,A,0.33895833333333336,0.4633595106604864,0.43475176896122414,0.24743453328841808,1.676435744793678,-0.8287903314299221,-1.7013818918221437,-2.309662387938665,1.1945964912026594,-2.8107338185740702,-1.2975208893748498,-1.3180290070302774,-1.745609028788573
3.089999999999978,0.2668731212615967,,bowing,up,A,0.32895833333333335,0.4627848030824423,0.4360196716841173,0.24691253947150846,1.6761628674920719,-0.8286328303868128,-1.7017109595464068,-2.3080996435005683,1.1971463590055638,-2.8126883402757206,-1.3006342646624955,-1.3153962889840485,-1.7431953941076201
3.099999999999978,0.2675039768218994,,bowing,up,A,0.3189583333333334,0.4622100955043982,0.43728757440701055,0.24639054565459886,1.6758899603806392,-0.8284753900387516,-1.702040034345031,-2.306537016368992,1.199696226808468,-2.81464286197737,-1.3037477350392312,-1.3127635200366408,-1.7407816206960844
3.1099999999999777,0.2728450298309326,,bowing,up,A,0.3089583333333334,0.46163538792635406,0.4385554771299037,0.24586855183768927,1.6756170234726893,-0.8283180104040933,-1.702369116227955,-2.304974271930895,1.2022457129232051,-2.8165964274550945,-1.3068614272905104,-1.3101305038549353,-1.7383678472845485
3.1199999999999775,0.27341198921203613,,bowing,up,A,0.2989583333333334,0.46106068034830994,0.43982337985279696,0.24534655802077965,1.6753440567815252,-0.8281606915011894,-1.7026982052050976,-2.3034115970077735,1.2047957715701934,-2.818550949156745,-1.309975087845426,-1.307497538574409,-1.73595393514243
3.1299999999999772,0.27396488189697266,,bowing,up,A,0.28895833333333343,0.4604859727702658,0.44109128257569014,0.24482456420387005,1.6750710603204442,-0.8280034333483877,-1.703027301286356,-2.3018489090505945,1.2073452576849302,-2.8205045146344694,-1.313088970274885,-1.304864398775555,-1.733540161730894
3.139999999999977,0.27452802658081055,,bowing,up,A,0.2789583333333334,0.4599112651922217,0.4423591852985833,0.24430257038696043,1.6747980341027378,-0.8278462359640328,-1.7033564044816074,-2.30028610813158,1.2098947437996672,-2.822458080112195,-1.3162027893116173,-1.302231229890313,-1.7311262495887756
3.149999999999977,0.2750828266143799,,bowing,up,A,0.2689583333333334,0.4593365576141776,0.44362708802147655,0.24378057657005084,1.6745249781416922,-0.8276890993664652,-1.7036855148007095,-2.298723446242516,1.2124440390703204,-2.8244121237018827,-1.319316640044713,-1.299598002832295,-1.7287123374466569
3.1599999999999766,0.28154683113098145,,bowing,up,A,0.2589583333333334,0.45876185003613346,0.4448949907443697,0.24325858275314124,1.674251892450587,-0.8275320235740218,-1.7040146322534981,-2.297160627944758,1.214993716029141,-2.8263652110676456,-1.322431124705075,-1.2969645503547709,-1.7262982172086638
3.1699999999999764,0.2821218967437744,,bowing,up,A,0.2489583333333334,0.4581871424580893,0.44616289346726296,0.24273658893623162,1.6739787770426962,-0.8273750086050352,-1.70434375684979,-2.2955978270257438,1.2175430112997943,-2.8283182984334085,-1.3255453557945305,-1.2943309379021128,-1.7238841663359623
3.179999999999976,0.2826700210571289,,bowing,up,A,0.23895833333333338,0.45761243488004516,0.44743079619015613,0.24221459511932203,1.6737056319312889,-0.827218054477836,-1.70467288859938,-2.2940350782429606,1.2200924974145313,-2.830271863911133,-1.3286594600985326,-1.2916975072393793,-1.7214700460979695
3.189999999999976,0.2832000255584717,,bowing,up,A,0.22895833333333337,0.45703772730200104,0.44869869891304937,0.24169260130241244,1.6734324571296268,-0.8270611612107496,-1.7050020275120439,-2.2924722425664585,1.2226416018411006,-2.8322244731649344,-1.3317740081516214,-1.2890637348115876,-1.7190559258599762
3.1999999999999758,0.2837209701538086,,bowing,up,A,0.21895833333333337,0.4564630197239569,0.44996660163594254,0.2411706074855028,1.6731592526509673,-0.8269043288220983,-1.7053311735975365,-2.2909095111624196,1.2251908971117538,-2.8341775605306974,-1.334888524508347,-1.2864301223589296,-1.7166419443525662
3.2099999999999755,0.2842400074005127,,bowing,up,A,0.2089583333333334,0.4558883121459128,0.4512345043588357,0.24064861366859322,1.6728860185085623,-0.8267475573302004,-1.7056603268655932,-2.289346649417802,1.227740192382407,-2.836130169784498,-1.3380033578287058,-1.2837961172400345,-1.7142276160186989
3.2199999999999753,0.2901921272277832,,bowing,up,A,0.1989583333333334,0.4553136045678687,0.45250240708172895,0.2401266198516836,1.6726127547156564,-0.8265908467533715,-1.7059894873259271,-2.287783752915696,1.2302891059648928,-2.838082300926336,-1.3411182228454277,-1.2811619666891996,-1.7118132876848318
3.229999999999975,0.2913510799407959,,bowing,up,A,0.1889583333333334,0.45473889698982456,0.45377030980462213,0.239604626034774,1.6723394612854905,-0.826434197109922,-1.7063186549882337,-2.286220908549822,1.2328380195473785,-2.8400344320681747,-1.3442329610766965,-1.278528121545438,-1.7093990980815472
3.239999999999975,0.2939639091491699,,bowing,up,A,0.17895833333333339,0.45416418941178044,0.45503821252751536,0.2390826322178644,1.6720661382312987,-0.8262776084181593,-1.7066478298621857,-2.2846581423882952,1.235387123973948,-2.841987041321975,-1.3473478894861453,-1.2758939419082151,-1.7069847003823884
3.2499999999999747,0.2965428829193115,,bowing,up,A,0.16895833333333338,0.4535894818337363,0.45630611525040854,0.2385606384009548,1.6717927855663093,-0.8261210806963881,-1.706977011957437,-2.2830951676818425,1.2379360375564337,-2.8439386943518516,-1.3504633250374072,-1.2732595295798887,-1.7045702333179382
3.2599999999999745,0.2988860607147217,,bowing,up,A,0.15895833333333337,0.4530147742556922,0.45757401797330177,0.2380386445840452,1.671519403303746,-0.8259646139629075,-1.7073062012836209,-2.281532305937225,1.240485141983003,-2.845890347381728,-1.3535783168395823,-1.2706252481403082,-1.702155766253488
