Praneshv25/Robot-Cello-RL/RL-code/twinkle-log-detailed-test.csv
timestamp_robot,time_elapsed_sec,event_flag,event_label,current_event_type,current_note_number,current_note_name,current_string,remaining_duration_sec,TCP_pose_x,TCP_pose_y,TCP_pose_z,TCP_pose_rx,TCP_pose_ry,TCP_pose_rz,q_base,q_shoulder,q_elbow,q_wrist1,q_wrist2,q_wrist3,TCP_force_x,TCP_force_y,TCP_force_z,TCP_force_rx,TCP_force_ry,TCP_force_rz
5980.246000,0.000000,3,START d_bow,Note,50,D3,D,0.498958,0.303526,0.740657,0.118406,-1.662415,-2.081978,1.037304,1.248160,-2.748795,-0.945745,-1.667003,2.062275,3.998198,0.000000,0.000000,0.000000,0.000000,0.000000,0.000000
5980.254000,0.008000,3,START d_bow,Note,50,D3,D,0.490958,0.303589,0.739881,0.118504,-1.662333,-2.081913,1.037311,1.247788,-2.747018,-0.949300,-1.665402,2.062137,3.997809,0.000000,0.000000,0.000000,0.000000,0.000000,0.000000
5980.262000,0.016000,3,START d_bow,Note,50,D3,D,0.482958,0.303654,0.739064,0.118607,-1.662247,-2.081844,1.037318,1.247396,-2.745153,-0.953033,-1.663722,2.061991,3.997398,0.000000,0.000000,0.000000,0.000000,0.000000,0.000000
5980.270000,0.024000,3,START d_bow,Note,50,D3,D,0.474958,0.303722,0.738214,0.118714,-1.662157,-2.081772,1.037326,1.246987,-2.743221,-0.956897,-1.661985,2.061838,3.996970,0.000000,0.000000,0.000000,0.000000,0.000000,0.000000
5980.326000,0.080000,3,START d_bow,Note,50,D3,D,0.418958,0.304252,0.731595,0.119546,-1.661459,-2.081217,1.037387,1.243778,-2.728425,-0.986465,-1.648742,2.060631,3.993619,0.000000,0.000000,0.000000,0.000000,0.000000,0.000000
5980.334000,0.088000,3,START d_bow,Note,50,D3,D,0.410958,0.304325,0.730693,0.119660,-1.661364,-2.081141,1.037395,1.243337,-2.726440,-0.990426,-1.646974,2.060464,3.993159,0.000000,0.000000,0.000000,0.000000,0.000000,0.000000
5980.342000,0.096000,3,START d_bow,Note,50,D3,D,0.402958,0.304394,0.729823,0.119769,-1.661272,-2.081068,1.037403,1.242911,-2.724534,-0.994231,-1.645278,2.060303,3.992715,0.000000,0.000000,0.000000,0.000000,0.000000,0.000000
5980.350000,0.104000,3,START d_bow,Note,50,D3,D,0.394958,0.304462,0.728985,0.119875,-1.661184,-2.080997,1.037411,1.242500,-2.722704,-0.997881,-1.643653,2.060146,3.992287,0.000000,0.000000,0.000000,0.000000,0.000000,0.000000
5980.358000,0.112000,3,START d_bow,Note,50,D3,D,0.386958,0.304526,0.728180,0.119976,-1.661099,-2.080930,1.037418,1.242104,-2.720951,-1.001378,-1.642097,2.059996,3.991874,0.000000,0.000000,0.000000,0.000000,0.000000,0.000000
5980.366000,0.120000,3,START d_bow,Note,50,D3,D,0.378958,0.304588,0.727407,0.120073,-1.661018,-2.080865,1.037425,1.241723,-2.719274,-1.004723,-1.640610,2.059851,3.991478,0.000000,0.000000,0.000000,0.000000,0.000000,0.000000
5980.374000,0.128000,3,START d_bow,Note,50,D3,D,0.370958,0.304647,0.726665,0.120167,-1.660939,-2.080802,1.037432,1.241357,-2.717672,-1.007918,-1.639191,2.059711,3.991097,0.000000,0.000000,0.000000,0.000000,0.000000,0.000000
5980.382000,0.136000,3,START d_bow,Note,50,D3,D,0.362958,0.304704,0.725957,0.120256,-1.660865,-2.080743,1.037439,1.241007,-2.716143,-1.010965,-1.637838,2.059577,3.990733,0.000000,0.000000,0.000000,0.000000,0.000000,0.000000
5980.390000,0.144000,3,START d_bow,Note,50,D3,D,0.354958,0.304758,0.725280,0.120341,-1.660793,-2.080686,1.037445,1.240672,-2.714689,-1.013864,-1.636552,2.059449,3.990385,0.000000,0.000000,0.000000,0.000000,0.000000,0.000000
5980.398000,0.152000,3,START d_bow,Note,50,D3,D,0.346958,0.304810,0.724636,0.120422,-1.660725,-2.080632,1.037451,1.240353,-2.713307,-1.016618,-1.635332,2.059327,3.990053,0.000000,0.000000,0.000000,0.000000,0.000000,0.000000
5980.406000,0.160000,3,START d_bow,Note,50,D3,D,0.338958,0.304859,0.724023,0.120499,-1.660661,-2.080580,1.037456,1.240049,-2.711997,-1.019227,-1.634176,2.059210,3.989737,0.000000,0.000000,0.000000,0.000000,0.000000,0.000000
5980.414000,0.168000,3,START d_bow,Note,50,D3,D,0.330958,0.304906,0.723443,0.120572,-1.660600,-2.080532,1.037462,1.239760,-2.710760,-1.021692,-1.633085,2.059099,3.989438,0.000000,0.000000,0.000000,0.000000,0.000000,0.000000
5980.422000,0.176000,3,START d_bow,Note,50,D3,D,0.322958,0.304949,0.722896,0.120641,-1.660542,-2.080486,1.037467,1.239488,-2.709594,-1.024015,-1.632057,2.058994,3.989154,0.000000,0.000000,0.000000,0.000000,0.000000,0.000000
5980.430000,0.184000,3,START d_bow,Note,50,D3,D,0.314958,0.304991,0.722380,0.120706,-1.660488,-2.080442,1.037471,1.239231,-2.708498,-1.026196,-1.631093,2.058896,3.988888,0.000000,0.000000,0.000000,0.000000,0.000000,0.000000
5980.438000,0.192000,3,START d_bow,Note,50,D3,D,0.306958,0.305029,0.721897,0.120767,-1.660437,-2.080402,1.037476,1.238990,-2.707473,-1.028237,-1.630191,2.058803,3.988638,0.000000,0.000000,0.000000,0.000000,0.000000,0.000000
5980.446000,0.200000,3,START d_bow,Note,50,D3,D,0.298958,0.305066,0.721446,0.120823,-1.660389,-2.080364,1.037480,1.238765,-2.706519,-1.030138,-1.629351,2.058716,3.988404,0.000000,0.000000,0.000000,0.000000,0.000000,0.000000
5980.454000,0.208000,3,START d_bow,Note,50,D3,D,0.290958,0.305099,0.721027,0.120876,-1.660345,-2.080329,1.037484,1.238555,-2.705634,-1.031900,-1.628573,2.058635,3.988187,0.000000,0.000000,0.000000,0.000000,0.000000,0.000000
5980.462000,0.216000,3,START d_bow,Note,50,D3,D,0.282958,0.305130,0.720640,0.120925,-1.660304,-2.080296,1.037487,1.238362,-2.704818,-1.033524,-1.627857,2.058560,3.987986,0.000000,0.000000,0.000000,0.000000,0.000000,0.000000
5980.470000,0.224000,3,START d_bow,Note,50,D3,D,0.274958,0.305159,0.720286,0.120969,-1.660267,-2.080266,1.037490,1.238184,-2.704071,-1.035010,-1.627201,2.058492,3.987802,0.000000,0.000000,0.000000,0.000000,0.000000,0.000000
5980.478000,0.232000,3,START d_bow,Note,50,D3,D,0.266958,0.305184,0.719963,0.121010,-1.660233,-2.080239,1.037493,1.238023,-2.703393,-1.036359,-1.626606,2.058429,3.987634,0.000000,0.000000,0.000000,0.000000,0.000000,0.000000
5980.486000,0.240000,3,START d_bow,Note,50,D3,D,0.258958,0.305208,0.719673,0.121046,-1.660202,-2.080215,1.037496,1.237877,-2.702784,-1.037572,-1.626072,2.058373,3.987484,0.000000,0.000000,0.000000,0.000000,0.000000,0.000000
5980.494000,0.248000,3,START d_bow,Note,50,D3,D,0.250958,0.305228,0.719416,0.121079,-1.660175,-2.080193,1.037498,1.237748,-2.702243,-1.038648,-1.625597,2.058323,3.987350,0.000000,0.000000,0.000000,0.000000,0.000000,0.000000
5980.502000,0.256000,3,START d_bow,Note,50,D3,D,0.242958,0.305246,0.719190,0.121107,-1.660151,-2.080174,1.037500,1.237635,-2.701770,-1.039590,-1.625183,2.058279,3.987232,0.000000,0.000000,0.000000,0.000000,0.000000,0.000000
5980.510000,0.264000,3,START d_bow,Note,50,D3,D,0.234958,0.305262,0.718997,0.121131,-1.660131,-2.080158,1.037502,1.237538,-2.701364,-1.040396,-1.624828,2.058242,3.987132,0.000000,0.000000,0.000000,0.000000,0.000000,0.000000
5980.518000,0.272000,3,START d_bow,Note,50,D3,D,0.226958,0.305275,0.718836,0.121152,-1.660114,-2.080145,1.037504,1.237457,-2.701027,-1.041067,-1.624532,2.058210,3.987048,0.000000,0.000000,0.000000,0.000000,0.000000,0.000000
5980.526000,0.280000,3,START d_bow,Note,50,D3,D,0.218958,0.305285,0.718707,0.121168,-1.660100,-2.080134,1.037505,1.237392,-2.700757,-1.041603,-1.624296,2.058185,3.986981,0.000000,0.000000,0.000000,0.000000,0.000000,0.000000
5980.534000,0.288000,3,START d_bow,Note,50,D3,D,0.210958,0.305293,0.718610,0.121180,-1.660090,-2.080126,1.037506,1.237343,-2.700555,-1.042006,-1.624119,2.058166,3.986930,0.000000,0.000000,0.000000,0.000000,0.000000,0.000000
5980.542000,0.296000,3,START d_bow,Note,50,D3,D,0.202958,0.305298,0.718546,0.121188,-1.660083,-2.080120,1.037506,1.237311,-2.700420,-1.042274,-1.624001,2.058154,3.986897,0.000000,0.000000,0.000000,0.000000,0.000000,0.000000
5980.550000,0.304000,3,START d_bow,Note,50,D3,D,0.194958,0.305301,0.718513,0.121192,-1.660080,-2.080118,1.037507,1.237295,-2.700353,-1.042408,-1.623942,2.058148,3.986880,0.000000,0.000000,0.000000,0.000000,0.000000,0.000000
5980.558000,0.312000,4,END d_bow,Note,50,D3,D,0.186958,0.305301,0.718509,0.121193,-1.660079,-2.080117,1.037507,1.237293,-2.700344,-1.042425,-1.623934,2.058147,3.986878,0.000000,0.000000,0.000000,0.000000,0.000000,0.000000
5980.566000,0.320000,4,END d_bow,Note,50,D3,D,0.178958,0.305301,0.718509,0.121193,-1.660079,-2.080117,1.037507,1.237293,-2.700344,-1.042425,-1.623934,2.058147,3.986878,0.000000,0.000000,0.000000,0.000000,0.000000,0.000000
5980.574000,0.328000,4,END d_bow,Note,50,D3,D,0.170958,0.305301,0.718509,0.121193,-1.660079,-2.080117,1.037507,1.237293,-2.700344,-1.042425,-1.623934,2.058147,3.986878,0.000000,0.000000,0.000000,0.000000,0.000000,0.000000
5980.582000,0.336000,3,START d_bow,Note,50,D3,D,0.662958,0.305301,0.718510,0.121193,-1.660080,-2.080117,1.037507,1.237293,-2.700345,-1.042424,-1.623935,2.058147,3.986878,0.000000,0.000000,0.000000,0.000000,0.000000,0.000000
5980.590000,0.344000,3,START d_bow,Note,50,D3,D,0.654958,0.305299,0.718530,0.121190,-1.660082,-2.080119,1.037506,1.237303,-2.700387,-1.042340,-1.623972,2.058151,3.986888,0.000000,0.000000,0.000000,0.000000,0.000000,0.000000
5980.598000,0.352000,3,START d_bow,Note,50,D3,D,0.646958,0.305295,0.718582,0.121184,-1.660087,-2.080123,1.037506,1.237329,-2.700497,-1.042122,-1.624067,2.058161,3.986916,0.000000,0.000000,0.000000,0.000000,0.000000,0.000000
5980.606000,0.360000,3,START d_bow,Note,50,D3,D,0.638958,0.305288,0.718667,0.121173,-1.660096,-2.080130,1.037505,1.237372,-2.700674,-1.041770,-1.624222,2.058177,3.986960,0.000000,0.000000,0.000000,0.000000,0.000000,0.000000
5980.614000,0.368000,3,START d_bow,Note,50,D3,D,0.630958,0.305279,0.718784,0.121158,-1.660108,-2.080140,1.037504,1.237431,-2.700918,-1.041284,-1.624437,2.058200,3.987021,0.000000,0.000000,0.000000,0.000000,0.000000,0.000000
5980.622000,0.376000,3,START d_bow,Note,50,D3,D,0.622958,0.305267,0.718933,0.121139,-1.660124,-2.080153,1.037503,1.237506,-2.701230,-1.040663,-1.624710,2.058229,3.987098,0.000000,0.000000,0.000000,0.000000,0.000000,0.000000
5980.630000,0.384000,3,START d_bow,Note,50,D3,D,0.614958,0.305252,0.719114,0.121117,-1.660143,-2.080168,1.037501,1.237597,-2.701610,-1.039908,-1.625043,2.058264,3.987193,0.000000,0.000000,0.000000,0.000000,0.000000,0.000000
5980.638000,0.392000,3,START d_bow,Note,50,D3,D,0.606958,0.305235,0.719327,0.121090,-1.660166,-2.080186,1.037499,1.237704,-2.702057,-1.039017,-1.625435,2.058306,3.987304,0.000000,0.000000,0.000000,0.000000,0.000000,0.000000
5980.654000,0.408000,3,START d_bow,Note,50,D3,D,0.590958,0.305193,0.719851,0.121024,-1.660221,-2.080230,1.037494,1.237966,-2.703157,-1.036830,-1.626399,2.058408,3.987576,0.000000,0.000000,0.000000,0.000000,0.000000,0.000000
5980.670000,0.424000,3,START d_bow,Note,50,D3,D,0.574958,0.305141,0.720503,0.120942,-1.660290,-2.080285,1.037488,1.238293,-2.704530,-1.034097,-1.627604,2.058534,3.987915,0.000000,0.000000,0.000000,0.000000,0.000000,0.000000
5980.702000,0.456000,3,START d_bow,Note,50,D3,D,0.542958,0.305006,0.722195,0.120729,-1.660468,-2.080427,1.037473,1.239139,-2.708106,-1.026978,-1.630747,2.058860,3.988792,0.000000,0.000000,0.000000,0.000000,0.000000,0.000000
5980.710000,0.464000,3,START d_bow,Note,50,D3,D,0.534958,0.304965,0.722698,0.120666,-1.660521,-2.080469,1.037468,1.239390,-2.709175,-1.024850,-1.631688,2.058957,3.989053,0.000000,0.000000,0.000000,0.000000,0.000000,0.000000
5980.718000,0.472000,3,START d_bow,Note,50,D3,D,0.526958,0.304922,0.723234,0.120598,-1.660578,-2.080514,1.037464,1.239656,-2.710314,-1.022580,-1.632692,2.059059,3.989329,0.000000,0.000000,0.000000,0.000000,0.000000,0.000000
5980.726000,0.480000,3,START d_bow,Note,50,D3,D,0.518958,0.304877,0.723802,0.120527,-1.660637,-2.080562,1.037458,1.239939,-2.711525,-1.020168,-1.633759,2.059168,3.989623,0.000000,0.000000,0.000000,0.000000,0.000000,0.000000
5980.734000,0.488000,3,START d_bow,Note,50,D3,D,0.510958,0.304829,0.724402,0.120451,-1.660701,-2.080612,1.037453,1.240237,-2.712807,-1.017613,-1.634891,2.059282,3.989932,0.000000,0.000000,0.000000,0.000000,0.000000,0.000000
5980.742000,0.496000,3,START d_bow,Note,50,D3,D,0.502958,0.304778,0.725034,0.120372,-1.660767,-2.080665,1.037447,1.240550,-2.714162,-1.014914,-1.636087,2.059402,3.990258,0.000000,0.000000,0.000000,0.000000,0.000000,0.000000
5980.750000,0.504000,3,START d_bow,Note,50,D3,D,0.494958,0.304725,0.725699,0.120288,-1.660837,-2.080721,1.037441,1.240880,-2.715589,-1.012069,-1.637348,2.059528,3.990601,0.000000,0.000000,0.000000,0.000000,0.000000,0.000000
5980.758000,0.512000,3,START d_bow,Note,50,D3,D,0.486958,0.304669,0.726396,0.120201,-1.660911,-2.080780,1.037435,1.241224,-2.717090,-1.009078,-1.638676,2.059660,3.990959,0.000000,0.000000,0.000000,0.000000,0.000000,0.000000
5980.766000,0.520000,3,START d_bow,Note,50,D3,D,0.478958,0.304611,0.727125,0.120109,-1.660988,-2.080841,1.037428,1.241584,-2.718664,-1.005939,-1.640070,2.059798,3.991333,0.000000,0.000000,0.000000,0.000000,0.000000,0.000000
5980.774000,0.528000,3,START d_bow,Note,50,D3,D,0.470958,0.304550,0.727886,0.120013,-1.661068,-2.080905,1.037421,1.241959,-2.720314,-1.002650,-1.641531,2.059941,3.991724,0.000000,0.000000,0.000000,0.000000,0.000000,0.000000
5980.782000,0.536000,3,START d_bow,Note,50,D3,D,0.462958,0.304486,0.728680,0.119913,-1.661152,-2.080972,1.037414,1.242350,-2.722038,-0.999210,-1.643061,2.060089,3.992130,0.000000,0.000000,0.000000,0.000000,0.000000,0.000000
5980.790000,0.544000,3,START d_bow,Note,50,D3,D,0.454958,0.304420,0.729505,0.119809,-1.661239,-2.081041,1.037406,1.242755,-2.723839,-0.995618,-1.644661,2.060243,3.992552,0.000000,0.000000,0.000000,0.000000,0.000000,0.000000
5980.798000,0.552000,3,START d_bow,Note,50,D3,D,0.446958,0.304351,0.730363,0.119701,-1.661329,-2.081113,1.037398,1.243176,-2.725716,-0.991871,-1.646330,2.060403,3.992991,0.000000,0.000000,0.000000,0.000000,0.000000,0.000000
5980.806000,0.560000,3,START d_bow,Note,50,D3,D,0.438958,0.304280,0.731253,0.119589,-1.661423,-2.081188,1.037390,1.243611,-2.727671,-0.987969,-1.648070,2.060568,3.993445,0.000000,0.000000,0.000000,0.000000,0.000000,0.000000
5980.814000,0.568000,3,START d_bow,Note,50,D3,D,0.430958,0.304206,0.732176,0.119473,-1.661520,-2.081265,1.037382,1.244062,-2.729705,-0.983909,-1.649883,2.060738,3.993914,0.000000,0.000000,0.000000,0.000000,0.000000,0.000000
5980.822000,0.576000,3,START d_bow,Note,50,D3,D,0.422958,0.304129,0.733130,0.119353,-1.661621,-2.081345,1.037373,1.244527,-2.731818,-0.979689,-1.651768,2.060914,3.994400,0.000000,0.000000,0.000000,0.000000,0.000000,0.000000
5980.830000,0.584000,3,START d_bow,Note,50,D3,D,0.414958,0.304050,0.734117,0.119229,-1.661725,-2.081428,1.037364,1.245006,-2.734012,-0.975307,-1.653729,2.061095,3.994900,0.000000,0.000000,0.000000,0.000000,0.000000,0.000000
5980.838000,0.592000,3,START d_bow,Note,50,D3,D,0.406958,0.303971,0.735108,0.119105,-1.661830,-2.081512,1.037355,1.245487,-2.736223,-0.970887,-1.655707,2.061276,3.995402,0.000000,0.000000,0.000000,0.000000,0.000000,0.000000
5980.846000,0.600000,3,START d_bow,Note,50,D3,D,0.398958,0.303894,0.736066,0.118984,-1.661931,-2.081592,1.037346,1.245951,-2.738373,-0.966592,-1.657633,2.061450,3.995887,0.000000,0.000000,0.000000,0.000000,0.000000,0.000000
5980.854000,0.608000,3,START d_bow,Note,50,D3,D,0.390958,0.303820,0.736993,0.118867,-1.662028,-2.081670,1.037337,1.246399,-2.740458,-0.962422,-1.659503,2.061618,3.996355,0.000000,0.000000,0.000000,0.000000,0.000000,0.000000
5980.862000,0.616000,3,START d_bow,Note,50,D3,D,0.382958,0.303748,0.737887,0.118755,-1.662123,-2.081745,1.037329,1.246830,-2.742480,-0.958379,-1.661319,2.061779,3.996806,0.000000,0.000000,0.000000,0.000000,0.000000,0.000000
5980.870000,0.624000,3,START d_bow,Note,50,D3,D,0.374958,0.303679,0.738749,0.118647,-1.662214,-2.081817,1.037321,1.247244,-2.744436,-0.954466,-1.663078,2.061934,3.997240,0.000000,0.000000,0.000000,0.000000,0.000000,0.000000
5980.878000,0.632000,3,START d_bow,Note,50,D3,D,0.366958,0.303613,0.739578,0.118542,-1.662301,-2.081887,1.037314,1.247643,-2.746326,-0.950684,-1.664779,2.062083,3.997657,0.000000,0.000000,0.000000,0.000000,0.000000,0.000000
5980.886000,0.640000,3,START d_bow,Note,50,D3,D,0.358958,0.303549,0.740376,0.118442,-1.662385,-2.081954,1.037306,1.248025,-2.748150,-0.947035,-1.666422,2.062225,3.998057,0.000000,0.000000,0.000000,0.000000,0.000000,0.000000
5980.894000,0.648000,3,START d_bow,Note,50,D3,D,0.350958,0.303488,0.741141,0.118346,-1.662466,-2.082018,1.037299,1.248391,-2.749907,-0.943519,-1.668006,2.062361,3.998441,0.000000,0.000000,0.000000,0.000000,0.000000,0.000000
5980.902000,0.656000,3,START d_bow,Note,50,D3,D,0.342958,0.303429,0.741874,0.118253,-1.662543,-2.082080,1.037292,1.248742,-2.751595,-0.940139,-1.669531,2.062491,3.998807,0.000000,0.000000,0.000000,0.000000,0.000000,0.000000
5980.910000,0.664000,3,START d_bow,Note,50,D3,D,0.334958,0.303373,0.742575,0.118165,-1.662617,-2.082139,1.037286,1.249076,-2.753215,-0.936896,-1.670994,2.062615,3.999158,0.000000,0.000000,0.000000,0.000000,0.000000,0.000000
5980.918000,0.672000,3,START d_bow,Note,50,D3,D,0.326958,0.303319,0.743243,0.118081,-1.662688,-2.082195,1.037280,1.249394,-2.754765,-0.933792,-1.672396,2.062733,3.999492,0.000000,0.000000,0.000000,0.000000,0.000000,0.000000
5980.926000,0.680000,3,START d_bow,Note,50,D3,D,0.318958,0.303268,0.743880,0.118001,-1.662755,-2.082248,1.037274,1.249697,-2.756245,-0.930827,-1.673736,2.062845,3.999809,0.000000,0.000000,0.000000,0.000000,0.000000,0.000000
5980.942000,0.696000,3,START d_bow,Note,50,D3,D,0.302958,0.303174,0.745056,0.117853,-1.662879,-2.082347,1.037263,1.250255,-2.758992,-0.925323,-1.676226,2.063051,4.000395,0.000000,0.000000,0.000000,0.000000,0.000000,0.000000
5980.958000,0.712000,3,START d_bow,Note,50,D3,D,0.286958,0.303090,0.746103,0.117721,-1.662989,-2.082435,1.037253,1.250751,-2.761451,-0.920394,-1.678458,2.063234,4.000916,0.000000,0.000000,0.000000,0.000000,0.000000,0.000000
5980.990000,0.744000,3,START d_bow,Note,50,D3,D,0.254958,0.302953,0.747811,0.117507,-1.663169,-2.082579,1.037238,1.251557,-2.765489,-0.912299,-1.682129,2.063530,4.001763,0.000000,0.000000,0.000000,0.000000,0.000000,0.000000
5980.998000,0.752000,3,START d_bow,Note,50,D3,D,0.246958,0.302926,0.748157,0.117463,-1.663206,-2.082608,1.037234,1.251721,-2.766312,-0.910648,-1.682879,2.063590,4.001934,0.000000,0.000000,0.000000,0.000000,0.000000,0.000000
5981.006000,0.760000,3,START d_bow,Note,50,D3,D,0.238958,0.302900,0.748471,0.117423,-1.663239,-2.082634,1.037232,1.251868,-2.767060,-0.909148,-1.683560,2.063644,4.002090,0.000000,0.000000,0.000000,0.000000,0.000000,0.000000
5981.014000,0.768000,3,START d_bow,Note,50,D3,D,0.230958,0.302878,0.748753,0.117388,-1.663269,-2.082658,1.037229,1.252001,-2.767732,-0.907800,-1.684172,2.063693,4.002229,0.000000,0.000000,0.000000,0.000000,0.000000,0.000000
5981.022000,0.776000,3,START d_bow,Note,50,D3,D,0.222958,0.302858,0.749003,0.117357,-1.663295,-2.082679,1.037227,1.252118,-2.768328,-0.906604,-1.684716,2.063736,4.002352,0.000000,0.000000,0.000000,0.000000,0.000000,0.000000
5981.038000,0.792000,3,START d_bow,Note,50,D3,D,0.206958,0.302826,0.749406,0.117306,-1.663337,-2.082713,1.037223,1.252308,-2.769292,-0.904672,-1.685594,2.063805,4.002551,0.000000,0.000000,0.000000,0.000000,0.000000,0.000000
5981.046000,0.800000,3,START d_bow,Note,50,D3,D,0.198958,0.302813,0.749559,0.117287,-1.663354,-2.082725,1.037221,1.252379,-2.769658,-0.903937,-1.685928,2.063831,4.002627,0.000000,0.000000,0.000000,0.000000,0.000000,0.000000
5981.070000,0.824000,3,START d_bow,Note,50,D3,D,0.174958,0.302792,0.749825,0.117253,-1.663382,-2.082748,1.037219,1.252504,-2.770295,-0.902658,-1.686510,2.063877,4.002758,0.000000,0.000000,0.000000,0.000000,0.000000,0.000000
5981.078000,0.832000,3,START d_bow,Note,50,D3,D,0.166958,0.302790,0.749849,0.117250,-1.663384,-2.082750,1.037219,1.252516,-2.770353,-0.902542,-1.686563,2.063881,4.002770,0.000000,0.000000,0.000000,0.000000,0.000000,0.000000
5981.086000,0.840000,4,END d_bow,Note,50,D3,D,0.158958,0.302790,0.749850,0.117250,-1.663384,-2.082750,1.037219,1.252516,-2.770356,-0.902537,-1.686565,2.063881,4.002771,0.000000,0.000000,0.000000,0.000000,0.000000,0.000000
5981.094000,0.848000,4,END d_bow,Note,50,D3,D,0.150958,0.302790,0.749850,0.117250,-1.663384,-2.082750,1.037219,1.252516,-2.770356,-0.902537,-1.686565,2.063881,4.002771,0.000000,0.000000,0.000000,0.000000,0.000000,0.000000
5981.102000,0.856000,4,END d_bow,Note,50,D3,D,0.142958,0.302790,0.749850,0.117250,-1.663384,-2.082750,1.037219,1.252516,-2.770356,-0.902537,-1.686565,2.063881,4.002771,0.000000,0.000000,0.000000,0.000000,0.000000,0.000000
5981.110000,0.864000,103,START d_to_a,Transition,transition,transition D->A,D-A,0.334958,0.302795,0.749850,0.117252,-1.663384,-2.082750,1.037219,1.252510,-2.770358,-0.902523,-1.686578,2.063878,4.002766,0.000000,0.000000,0.000000,0.000000,0.000000,0.000000
5981.118000,0.872000,103,START d_to_a,Transition,transition,transition D->A,D-A,0.326958,0.302855,0.749853,0.117282,-1.663384,-2.082750,1.037219,1.252441,-2.770394,-0.902352,-1.686744,2.063836,4.002703,0.000000,0.000000,0.000000,0.000000,0.000000,0.000000
5981.126000,0.880000,103,START d_to_a,Transition,transition,transition D->A,D-A,0.318958,0.302984,0.749859,0.117346,-1.663384,-2.082750,1.037219,1.252293,-2.770469,-0.901984,-1.687099,2.063747,4.002569,0.000000,0.000000,0.000000,0.000000,0.000000,0.000000
5981.134000,0.888000,103,START d_to_a,Transition,transition,transition D->A,D-A,0.310958,0.303182,0.749868,0.117444,-1.663384,-2.082750,1.037219,1.252066,-2.770586,-0.901420,-1.687645,2.063610,4.002363,0.000000,0.000000,0.000000,0.000000,0.000000,0.000000
5981.142000,0.896000,103,START d_to_a,Transition,transition,transition D->A,D-A,0.302958,0.303448,0.749880,0.117575,-1.663384,-2.082750,1.037219,1.251760,-2.770743,-0.900658,-1.688380,2.063425,4.002086,0.000000,0.000000,0.000000,0.000000,0.000000,0.000000
5981.150000,0.904000,103,START d_to_a,Transition,transition,transition D->A,D-A,0.294958,0.303784,0.749896,0.117741,-1.663384,-2.082750,1.037219,1.251374,-2.770942,-0.899699,-1.689306,2.063193,4.001737,0.000000,0.000000,0.000000,0.000000,0.000000,0.000000
5981.158000,0.912000,103,START d_to_a,Transition,transition,transition D->A,D-A,0.286958,0.304188,0.749915,0.117940,-1.663384,-2.082750,1.037219,1.250910,-2.771183,-0.898540,-1.690422,2.062913,4.001317,0.000000,0.000000,0.000000,0.000000,0.000000,0.000000
5981.166000,0.920000,103,START d_to_a,Transition,transition,transition D->A,D-A,0.278958,0.304661,0.749937,0.118174,-1.663384,-2.082750,1.037219,1.250368,-2.771467,-0.897181,-1.691729,2.062585,4.000826,0.000000,0.000000,0.000000,0.000000,0.000000,0.000000
5981.174000,0.928000,103,START d_to_a,Transition,transition,transition D->A,D-A,0.270958,0.305203,0.749962,0.118442,-1.663384,-2.082750,1.037219,1.249746,-2.771794,-0.895620,-1.693228,2.062210,4.000264,0.000000,0.000000,0.000000,0.000000,0.000000,0.000000
5981.182000,0.936000,103,START d_to_a,Transition,transition,transition D->A,D-A,0.262958,0.305813,0.749990,0.118743,-1.663384,-2.082750,1.037219,1.249047,-2.772166,-0.893855,-1.694920,2.061787,3.999632,0.000000,0.000000,0.000000,0.000000,0.000000,0.000000
5981.190000,0.944000,103,START d_to_a,Transition,transition,transition D->A,D-A,0.254958,0.306493,0.750022,0.119079,-1.663384,-2.082750,1.037219,1.248269,-2.772584,-0.891884,-1.696804,2.061317,3.998929,0.000000,0.000000,0.000000,0.000000,0.000000,0.000000
5981.198000,0.952000,103,START d_to_a,Transition,transition,transition D->A,D-A,0.246958,0.307241,0.750056,0.119448,-1.663384,-2.082750,1.037219,1.247412,-2.773049,-0.889705,-1.698882,2.060800,3.998156,0.000000,0.000000,0.000000,0.000000,0.000000,0.000000
5981.206000,0.960000,103,START d_to_a,Transition,transition,transition D->A,D-A,0.238958,0.308058,0.750094,0.119852,-1.663384,-2.082750,1.037219,1.246478,-2.773562,-0.887315,-1.701155,2.060235,3.997313,0.000000,0.000000,0.000000,0.000000,0.000000,0.000000
5981.214000,0.968000,103,START d_to_a,Transition,transition,transition D->A,D-A,0.230958,0.308944,0.750136,0.120289,-1.663384,-2.082750,1.037219,1.245466,-2.774126,-0.884711,-1.703624,2.059623,3.996400,0.000000,0.000000,0.000000,0.000000,0.000000,0.000000
5981.222000,0.976000,103,START d_to_a,Transition,transition,transition D->A,D-A,0.222958,0.309898,0.750180,0.120761,-1.663384,-2.082750,1.037219,1.244377,-2.774741,-0.881891,-1.706289,2.058963,3.995418,0.000000,0.000000,0.000000,0.000000,0.000000,0.000000
5981.230000,0.984000,103,START d_to_a,Transition,transition,transition D->A,D-A,0.214958,0.310922,0.750227,0.121266,-1.663384,-2.082750,1.037219,1.243210,-2.775410,-0.878851,-1.709153,2.058256,3.994367,0.000000,0.000000,0.000000,0.000000,0.000000,0.000000
5981.238000,0.992000,103,START d_to_a,Transition,transition,transition D->A,D-A,0.206958,0.312014,0.750278,0.121806,-1.663384,-2.082750,1.037219,1.241967,-2.776134,-0.875588,-1.712216,2.057502,3.993248,0.000000,0.000000,0.000000,0.000000,0.000000,0.000000
5981.246000,1.000000,103,START d_to_a,Transition,transition,transition D->A,D-A,0.198958,0.313175,0.750332,0.122379,-1.663384,-2.082750,1.037219,1.240646,-2.776916,-0.872097,-1.715480,2.056701,3.992061,0.000000,0.000000,0.000000,0.000000,0.000000,0.000000
5981.254000,1.008000,103,START d_to_a,Transition,transition,transition D->A,D-A,0.190958,0.314405,0.750389,0.122986,-1.663384,-2.082750,1.037219,1.239249,-2.777759,-0.868374,-1.718946,2.055853,3.990806,0.000000,0.000000,0.000000,0.000000,0.000000,0.000000
5981.262000,1.016000,103,START d_to_a,Transition,transition,transition D->A,D-A,0.182958,0.315703,0.750449,0.123628,-1.663384,-2.082750,1.037219,1.237776,-2.778664,-0.864414,-1.722617,2.054958,3.989484,0.000000,0.000000,0.000000,0.000000,0.000000,0.000000
5981.270000,1.024000,103,START d_to_a,Transition,transition,transition D->A,D-A,0.174958,0.317044,0.750512,0.124290,-1.663384,-2.082750,1.037219,1.236258,-2.779615,-0.860295,-1.726418,2.054035,3.988122,0.000000,0.000000,0.000000,0.000000,0.000000,0.000000
5981.278000,1.032000,103,START d_to_a,Transition,transition,transition D->A,D-A,0.166958,0.318328,0.750571,0.124924,-1.663384,-2.082750,1.037219,1.234806,-2.780542,-0.856323,-1.730067,2.053152,3.986821,0.000000,0.000000,0.000000,0.000000,0.000000,0.000000
5981.286000,1.040000,103,START d_to_a,Transition,transition,transition D->A,D-A,0.158958,0.319542,0.750627,0.125523,-1.663384,-2.082750,1.037219,1.233435,-2.781434,-0.852536,-1.733531,2.052316,3.985593,0.000000,0.000000,0.000000,0.000000,0.000000,0.000000
5981.294000,1.048000,103,START d_to_a,Transition,transition,transition D->A,D-A,0.150958,0.320688,0.750681,0.126089,-1.663384,-2.082750,1.037219,1.232142,-2.782289,-0.848940,-1.736807,2.051529,3.984438,0.000000,0.000000,0.000000,0.000000,0.000000,0.000000
5981.302000,1.056000,103,START d_to_a,Transition,transition,transition D->A,D-A,0.142958,0.321765,0.750731,0.126621,-1.663384,-2.082750,1.037219,1.230929,-2.783104,-0.845537,-1.739895,2.050789,3.983353,0.000000,0.000000,0.000000,0.000000,0.000000,0.000000
5981.310000,1.064000,103,START d_to_a,Transition,transition,transition D->A,D-A,0.134958,0.322773,0.750777,0.127119,-1.663384,-2.082750,1.037219,1.229794,-2.783878,-0.842333,-1.742793,2.050096,3.982340,0.000000,0.000000,0.000000,0.000000,0.000000,0.000000
5981.318000,1.072000,103,START d_to_a,Transition,transition,transition D->A,D-A,0.126958,0.323712,0.750821,0.127583,-1.663384,-2.082750,1.037219,1.228738,-2.784609,-0.839330,-1.745500,2.049451,3.981398,0.000000,0.000000,0.000000,0.000000,0.000000,0.000000
5981.326000,1.080000,103,START d_to_a,Transition,transition,transition D->A,D-A,0.118958,0.324583,0.750861,0.128013,-1.663384,-2.082750,1.037219,1.227761,-2.785294,-0.836532,-1.748014,2.048854,3.980526,0.000000,0.000000,0.000000,0.000000,0.000000,0.000000
5981.334000,1.088000,103,START d_to_a,Transition,transition,transition D->A,D-A,0.110958,0.325385,0.750899,0.128409,-1.663384,-2.082750,1.037219,1.226861,-2.785932,-0.833942,-1.750334,2.048304,3.979724,0.000000,0.000000,0.000000,0.000000,0.000000,0.000000
5981.342000,1.096000,103,START d_to_a,Transition,transition,transition D->A,D-A,0.102958,0.326118,0.750933,0.128771,-1.663384,-2.082750,1.037219,1.226039,-2.786521,-0.831564,-1.752459,2.047802,3.978992,0.000000,0.000000,0.000000,0.000000,0.000000,0.000000
5981.350000,1.104000,103,START d_to_a,Transition,transition,transition D->A,D-A,0.094958,0.326782,0.750963,0.129099,-1.663384,-2.082750,1.037219,1.225295,-2.787060,-0.829401,-1.754389,2.047347,3.978330,0.000000,0.000000,0.000000,0.000000,0.000000,0.000000
5981.358000,1.112000,103,START d_to_a,Transition,transition,transition D->A,D-A,0.086958,0.327377,0.750991,0.129393,-1.663384,-2.082750,1.037219,1.224629,-2.787546,-0.827454,-1.756121,2.046939,3.977737,0.000000,0.000000,0.000000,0.000000,0.000000,0.000000
5981.366000,1.120000,103,START d_to_a,Transition,transition,transition D->A,D-A,0.078958,0.327904,0.751016,0.129653,-1.663384,-2.082750,1.037219,1.224040,-2.787980,-0.825726,-1.757655,2.046578,3.977213,0.000000,0.000000,0.000000,0.000000,0.000000,0.000000
5981.374000,1.128000,103,START d_to_a,Transition,transition,transition D->A,D-A,0.070958,0.328361,0.751037,0.129879,-1.663384,-2.082750,1.037219,1.223528,-2.788359,-0.824219,-1.758990,2.046265,3.976758,0.000000,0.000000,0.000000,0.000000,0.000000,0.000000
5981.382000,1.136000,103,START d_to_a,Transition,transition,transition D->A,D-A,0.062958,0.328750,0.751055,0.130071,-1.663384,-2.082750,1.037219,1.223093,-2.788684,-0.822936,-1.760126,2.045998,3.976371,0.000000,0.000000,0.000000,0.000000,0.000000,0.000000
5981.390000,1.144000,103,START d_to_a,Transition,transition,transition D->A,D-A,0.054958,0.329071,0.751070,0.130229,-1.663384,-2.082750,1.037219,1.222736,-2.788952,-0.821878,-1.761062,2.045779,3.976053,0.000000,0.000000,0.000000,0.000000,0.000000,0.000000
5981.406000,1.160000,103,START d_to_a,Transition,transition,transition D->A,D-A,0.038958,0.329505,0.751090,0.130444,-1.663384,-2.082750,1.037219,1.222251,-2.789317,-0.820440,-1.762332,2.045482,3.975623,0.000000,0.000000,0.000000,0.000000,0.000000,0.000000
5981.430000,1.184000,103,START d_to_a,Transition,transition,transition D->A,D-A,0.014958,0.329654,0.751112,0.130511,-1.663343,-2.082878,1.037357,1.222089,-2.789508,-0.819785,-1.762975,2.045262,3.975407,0.000000,0.000000,0.000000,0.000000,0.000000,0.000000
5981.454000,1.208000,103,START d_to_a,Note,57,A3,A,0.290958,0.329402,0.751477,0.130243,-1.662294,-2.086083,1.040819,1.222458,-2.790897,-0.816705,-1.767364,2.042463,3.973950,0.000000,0.000000,0.000000,0.000000,0.000000,0.000000
5981.462000,1.216000,103,START d_to_a,Note,57,A3,A,0.282958,0.329243,0.751707,0.130073,-1.661610,-2.088161,1.043066,1.222690,-2.791785,-0.814723,-1.770209,2.040641,3.973004,0.000000,0.000000,0.000000,0.000000,0.000000,0.000000
5981.470000,1.224000,103,START d_to_a,Note,57,A3,A,0.274958,0.329048,0.751991,0.129864,-1.660748,-2.090767,1.045887,1.222976,-2.792892,-0.812243,-1.773775,2.038350,3.971817,0.000000,0.000000,0.000000,0.000000,0.000000,0.000000
5981.478000,1.232000,103,START d_to_a,Note,57,A3,A,0.266958,0.328815,0.752329,0.129615,-1.659700,-2.093913,1.049294,1.223315,-2.794224,-0.809252,-1.778077,2.035578,3.970389,0.000000,0.000000,0.000000,0.000000,0.000000,0.000000
5981.486000,1.240000,103,START d_to_a,Note,57,A3,A,0.258958,0.328544,0.752721,0.129327,-1.658460,-2.097606,1.053300,1.223709,-2.795785,-0.805738,-1.783126,2.032315,3.968719,0.000000,0.000000,0.000000,0.000000,0.000000,0.000000
5981.494000,1.248000,103,START d_to_a,Note,57,A3,A,0.250958,0.328237,0.753167,0.128998,-1.657022,-2.101852,1.057913,1.224156,-2.797584,-0.801689,-1.788930,2.028552,3.966809,0.000000,0.000000,0.000000,0.000000,0.000000,0.000000
5981.502000,1.256000,103,START d_to_a,Note,57,A3,A,0.242958,0.327892,0.753667,0.128630,-1.655379,-2.106654,1.063137,1.224658,-2.799625,-0.797092,-1.795492,2.024285,3.964665,0.000000,0.000000,0.000000,0.000000,0.000000,0.000000
5981.510000,1.264000,103,START d_to_a,Note,57,A3,A,0.234958,0.327510,0.754221,0.128222,-1.653524,-2.112009,1.068975,1.225213,-2.801915,-0.791937,-1.802811,2.019512,3.962295,0.000000,0.000000,0.000000,0.000000,0.000000,0.000000
5981.518000,1.272000,103,START d_to_a,Note,57,A3,A,0.226958,0.327090,0.754829,0.127774,-1.651454,-2.117913,1.075425,1.225824,-2.804463,-0.786211,-1.810880,2.014234,3.959710,0.000000,0.000000,0.000000,0.000000,0.000000,0.000000
5981.526000,1.280000,103,START d_to_a,Note,57,A3,A,0.218958,0.326634,0.755491,0.127286,-1.649163,-2.124358,1.082481,1.226490,-2.807276,-0.779906,-1.819689,2.008455,3.956922,0.000000,0.000000,0.000000,0.000000,0.000000,0.000000
5981.534000,1.288000,103,START d_to_a,Note,57,A3,A,0.210958,0.326140,0.756208,0.126758,-1.646647,-2.131328,1.090133,1.227212,-2.810360,-0.773011,-1.829223,2.002186,3.953948,0.000000,0.000000,0.000000,0.000000,0.000000,0.000000
5981.542000,1.296000,103,START d_to_a,Note,57,A3,A,0.202958,0.325608,0.756978,0.126191,-1.643992,-2.138570,1.098103,1.227995,-2.813684,-0.765668,-1.839150,1.995671,3.950929,0.000000,0.000000,0.000000,0.000000,0.000000,0.000000
5981.550000,1.304000,103,START d_to_a,Note,57,A3,A,0.194958,0.325040,0.757802,0.125583,-1.641297,-2.145805,1.106089,1.228844,-2.817206,-0.758039,-1.849108,1.989183,3.948012,0.000000,0.000000,0.000000,0.000000,0.000000,0.000000
5981.558000,1.312000,103,START d_to_a,Note,57,A3,A,0.186958,0.324434,0.758681,0.124936,-1.638563,-2.153031,1.114087,1.229758,-2.820929,-0.750118,-1.859104,1.982726,3.945196,0.000000,0.000000,0.000000,0.000000,0.000000,0.000000
5981.566000,1.320000,103,START d_to_a,Note,57,A3,A,0.178958,0.323791,0.759614,0.124250,-1.635789,-2.160248,1.122096,1.230737,-2.824858,-0.741892,-1.869145,1.976301,3.942478,0.000000,0.000000,0.000000,0.000000,0.000000,0.000000
5981.574000,1.328000,103,START d_to_a,Note,57,A3,A,0.170958,0.323110,0.760600,0.123523,-1.632975,-2.167455,1.130117,1.231781,-2.828998,-0.733350,-1.879240,1.969908,3.939858,0.000000,0.000000,0.000000,0.000000,0.000000,0.000000
5981.582000,1.336000,103,START d_to_a,Note,57,A3,A,0.162958,0.322393,0.761641,0.122756,-1.630122,-2.174653,1.138150,1.232889,-2.833354,-0.724481,-1.889398,1.963548,3.937331,0.000000,0.000000,0.000000,0.000000,0.000000,0.000000
5981.590000,1.344000,103,START d_to_a,Note,57,A3,A,0.154958,0.321638,0.762736,0.121950,-1.627229,-2.181841,1.146195,1.234062,-2.837932,-0.715269,-1.899629,1.957222,3.934898,0.000000,0.000000,0.000000,0.000000,0.000000,0.000000
5981.598000,1.352000,103,START d_to_a,Note,57,A3,A,0.146958,0.320846,0.763884,0.121104,-1.624295,-2.189019,1.154252,1.235298,-2.842740,-0.705701,-1.909944,1.950931,3.932555,0.000000,0.000000,0.000000,0.000000,0.000000,0.000000
5981.606000,1.360000,103,START d_to_a,Note,57,A3,A,0.138958,0.320016,0.765087,0.120218,-1.621321,-2.196187,1.162321,1.236597,-2.847785,-0.695759,-1.920353,1.944675,3.930302,0.000000,0.000000,0.000000,0.000000,0.000000,0.000000
5981.614000,1.368000,103,START d_to_a,Note,57,A3,A,0.130958,0.319149,0.766344,0.119292,-1.618306,-2.203345,1.170402,1.237960,-2.853075,-0.685424,-1.930869,1.938456,3.928135,0.000000,0.000000,0.000000,0.000000,0.000000,0.000000
5981.622000,1.376000,103,START d_to_a,Note,57,A3,A,0.122958,0.318245,0.767655,0.118326,-1.615251,-2.210493,1.178494,1.239385,-2.858618,-0.674678,-1.941505,1.932274,3.926053,0.000000,0.000000,0.000000,0.000000,0.000000,0.000000
5981.630000,1.384000,103,START d_to_a,Note,57,A3,A,0.114958,0.317304,0.769020,0.117321,-1.612154,-2.217631,1.186598,1.240871,-2.864427,-0.663497,-1.952274,1.926129,3.924055,0.000000,0.000000,0.000000,0.000000,0.000000,0.000000
5981.638000,1.392000,103,START d_to_a,Note,57,A3,A,0.106958,0.316335,0.770425,0.116286,-1.609016,-2.224758,1.194714,1.242404,-2.870468,-0.651917,-1.963178,1.920010,3.922126,0.000000,0.000000,0.000000,0.000000,0.000000,0.000000
5981.646000,1.400000,103,START d_to_a,Note,57,A3,A,0.098958,0.315364,0.771833,0.115249,-1.605837,-2.231874,1.202842,1.243938,-2.876636,-0.640087,-1.974187,1.913889,3.920232,0.000000,0.000000,0.000000,0.000000,0.000000,0.000000
5981.654000,1.408000,103,START d_to_a,Note,57,A3,A,0.090958,0.314393,0.773241,0.114212,-1.602617,-2.238980,1.210981,1.245472,-2.882930,-0.628003,-1.985307,1.907763,3.918371,0.000000,0.000000,0.000000,0.000000,0.000000,0.000000
5981.662000,1.416000,103,START d_to_a,Note,57,A3,A,0.082958,0.313429,0.774638,0.113182,-1.599354,-2.246075,1.219132,1.246992,-2.889322,-0.615703,-1.996532,1.901623,3.916534,0.000000,0.000000,0.000000,0.000000,0.000000,0.000000
5981.686000,1.440000,103,START d_to_a,Note,57,A3,A,0.058958,0.310753,0.778519,0.110324,-1.589314,-2.267294,1.243657,1.251192,-2.908315,-0.578634,-2.030540,1.882920,3.910955,0.000000,0.000000,0.000000,0.000000,0.000000,0.000000
5981.710000,1.464000,103,START d_to_a,Note,57,A3,A,0.034958,0.308412,0.781913,0.107824,-1.578903,-2.288388,1.268259,1.254839,-2.926952,-0.541471,-2.064945,1.863795,3.905290,0.000000,0.000000,0.000000,0.000000,0.000000,0.000000
5981.718000,1.472000,103,START d_to_a,Note,57,A3,A,0.026958,0.307706,0.782937,0.107070,-1.575494,-2.295106,1.276142,1.255935,-2.932981,-0.529347,-2.076094,1.857623,3.903497,0.000000,0.000000,0.000000,0.000000,0.000000,0.000000
5981.726000,1.480000,103,START d_to_a,Note,57,A3,A,0.018958,0.307038,0.783906,0.106356,-1.572229,-2.301460,1.283620,1.256975,-2.938830,-0.517583,-2.086781,1.851772,3.901828,0.000000,0.000000,0.000000,0.000000,0.000000,0.000000
5981.734000,1.488000,103,START d_to_a,Note,57,A3,A,0.010958,0.306407,0.784821,0.105682,-1.569112,-2.307451,1.290690,1.257956,-2.944486,-0.506207,-2.096995,1.846243,3.900278,0.000000,0.000000,0.000000,0.000000,0.000000,0.000000
5981.742000,1.496000,103,START d_to_a,Note,57,A3,A,0.002958,0.305813,0.785682,0.105048,-1.566150,-2.313081,1.297352,1.258881,-2.949933,-0.495248,-2.106724,1.841036,3.898843,0.000000,0.000000,0.000000,0.000000,0.000000,0.000000
5981.758000,1.512000,103,START d_to_a,Note,57,A3,A,0.486958,0.304737,0.787242,0.103899,-1.560709,-2.323264,1.309443,1.260556,-2.960140,-0.474707,-2.124673,1.831591,3.896298,0.000000,0.000000,0.000000,0.000000,0.000000,0.000000
5981.774000,1.528000,103,START d_to_a,Note,57,A3,A,0.470958,0.303810,0.788586,0.102909,-1.555943,-2.332018,1.319883,1.262000,-2.969318,-0.456227,-2.140510,1.823443,3.894163,0.000000,0.000000,0.000000,0.000000,0.000000,0.000000
5981.782000,1.536000,103,START d_to_a,Note,57,A3,A,0.462958,0.303403,0.789177,0.102474,-1.553825,-2.335863,1.324481,1.262635,-2.973478,-0.447847,-2.147598,1.819857,3.893240,0.000000,0.000000,0.000000,0.000000,0.000000,0.000000
5981.790000,1.544000,103,START d_to_a,Note,57,A3,A,0.454958,0.303033,0.789713,0.102078,-1.551888,-2.339353,1.328663,1.263212,-2.977329,-0.440087,-2.154109,1.816596,3.892410,0.000000,0.000000,0.000000,0.000000,0.000000,0.000000
5981.798000,1.552000,103,START d_to_a,Note,57,A3,A,0.446958,0.302700,0.790196,0.101723,-1.550135,-2.342491,1.332428,1.263731,-2.980854,-0.432982,-2.160026,1.813661,3.891671,0.000000,0.000000,0.000000,0.000000,0.000000,0.000000
5981.806000,1.560000,103,START d_to_a,Note,57,A3,A,0.438958,0.302404,0.790625,0.101407,-1.548570,-2.345277,1.335776,1.264193,-2.984036,-0.426567,-2.165334,1.811052,3.891019,0.000000,0.000000,0.000000,0.000000,0.000000,0.000000
5981.814000,1.568000,103,START d_to_a,Note,57,A3,A,0.430958,0.302146,0.790999,0.101131,-1.547196,-2.347712,1.338705,1.264596,-2.986857,-0.420876,-2.170017,1.808770,3.890454,0.000000,0.000000,0.000000,0.000000,0.000000,0.000000
5981.822000,1.576000,103,START d_to_a,Note,57,A3,A,0.422958,0.301925,0.791320,0.100895,-1.546014,-2.349796,1.341215,1.264940,-2.989304,-0.415939,-2.174058,1.806814,3.889972,0.000000,0.000000,0.000000,0.000000,0.000000,0.000000
5981.830000,1.584000,103,START d_to_a,Note,57,A3,A,0.414958,0.301741,0.791586,0.100699,-1.545026,-2.351531,1.343306,1.265227,-2.991363,-0.411784,-2.177445,1.805185,3.889573,0.000000,0.000000,0.000000,0.000000,0.000000,0.000000
5981.838000,1.592000,103,START d_to_a,Note,57,A3,A,0.406958,0.301595,0.791799,0.100542,-1.544236,-2.352916,1.344977,1.265456,-2.993021,-0.408437,-2.180165,1.803883,3.889255,0.000000,0.000000,0.000000,0.000000,0.000000,0.000000
5981.846000,1.600000,103,START d_to_a,Note,57,A3,A,0.398958,0.301485,0.791957,0.100426,-1.543643,-2.353952,1.346227,1.265626,-2.994267,-0.405918,-2.182208,1.802908,3.889018,0.000000,0.000000,0.000000,0.000000,0.000000,0.000000
5981.854000,1.608000,103,START d_to_a,Note,57,A3,A,0.390958,0.301414,0.792061,0.100349,-1.543249,-2.354640,1.347058,1.265738,-2.995096,-0.404244,-2.183565,1.802260,3.888860,0.000000,0.000000,0.000000,0.000000,0.000000,0.000000
5981.862000,1.616000,103,START d_to_a,Note,57,A3,A,0.382958,0.301379,0.792111,0.100312,-1.543054,-2.354979,1.347467,1.265792,-2.995500,-0.403425,-2.184233,1.801940,3.888782,0.000000,0.000000,0.000000,0.000000,0.000000,0.000000
5981.870000,1.624000,1,START a_bow,Note,59,B3,A,0.874958,0.301377,0.792112,0.100310,-1.543031,-2.355017,1.347515,1.265794,-2.995523,-0.403374,-2.184291,1.801900,3.888769,0.000000,0.000000,0.000000,0.000000,0.000000,0.000000
5981.878000,1.632000,1,START a_bow,Note,59,B3,A,0.866958,0.301390,0.792084,0.100321,-1.543025,-2.355014,1.347522,1.265771,-2.995394,-0.403615,-2.184188,1.801884,3.888750,0.000000,0.000000,0.000000,0.000000,0.000000,0.000000
5981.886000,1.640000,1,START a_bow,Note,59,B3,A,0.858958,0.301415,0.792030,0.100344,-1.543013,-2.355007,1.347536,1.265725,-2.995145,-0.404081,-2.183989,1.801854,3.888712,0.000000,0.000000,0.000000,0.000000,0.000000,0.000000
5981.894000,1.648000,1,START a_bow,Note,59,B3,A,0.850958,0.301451,0.791950,0.100377,-1.542996,-2.354998,1.347557,1.265658,-2.994775,-0.404772,-2.183695,1.801809,3.888655,0.000000,0.000000,0.000000,0.000000,0.000000,0.000000
5981.902000,1.656000,1,START a_bow,Note,59,B3,A,0.842958,0.301499,0.791844,0.100420,-1.542972,-2.354985,1.347585,1.265569,-2.994287,-0.405685,-2.183305,1.801749,3.888580,0.000000,0.000000,0.000000,0.000000,0.000000,0.000000
5981.910000,1.664000,1,START a_bow,Note,59,B3,A,0.834958,0.301559,0.791711,0.100475,-1.542944,-2.354970,1.347619,1.265458,-2.993680,-0.406819,-2.182822,1.801675,3.888487,0.000000,0.000000,0.000000,0.000000,0.000000,0.000000
5981.918000,1.672000,1,START a_bow,Note,59,B3,A,0.826958,0.301631,0.791553,0.100540,-1.542909,-2.354951,1.347660,1.265326,-2.992956,-0.408173,-2.182246,1.801586,3.888376,0.000000,0.000000,0.000000,0.000000,0.000000,0.000000
5981.926000,1.680000,1,START a_bow,Note,59,B3,A,0.818958,0.301715,0.791368,0.100616,-1.542869,-2.354929,1.347709,1.265171,-2.992115,-0.409744,-2.181577,1.801482,3.888246,0.000000,0.000000,0.000000,0.000000,0.000000,0.000000
5981.934000,1.688000,1,START a_bow,Note,59,B3,A,0.810958,0.301810,0.791158,0.100703,-1.542823,-2.354905,1.347763,1.264994,-2.991158,-0.411529,-2.180819,1.801363,3.888097,0.000000,0.000000,0.000000,0.000000,0.000000,0.000000
5981.942000,1.696000,1,START a_bow,Note,59,B3,A,0.802958,0.301917,0.790921,0.100800,-1.542771,-2.354877,1.347825,1.264796,-2.990088,-0.413526,-2.179971,1.801230,3.887930,0.000000,0.000000,0.000000,0.000000,0.000000,0.000000
5981.950000,1.704000,1,START a_bow,Note,59,B3,A,0.794958,0.302036,0.790658,0.100909,-1.542714,-2.354846,1.347893,1.264575,-2.988906,-0.415731,-2.179036,1.801082,3.887745,0.000000,0.000000,0.000000,0.000000,0.000000,0.000000
5981.958000,1.712000,1,START a_bow,Note,59,B3,A,0.786958,0.302167,0.790369,0.101028,-1.542651,-2.354812,1.347969,1.264332,-2.987613,-0.418141,-2.178016,1.800919,3.887542,0.000000,0.000000,0.000000,0.000000,0.000000,0.000000
5981.966000,1.720000,1,START a_bow,Note,59,B3,A,0.778958,0.302310,0.790054,0.101157,-1.542583,-2.354775,1.348051,1.264068,-2.986211,-0.420752,-2.176912,1.800741,3.887319,0.000000,0.000000,0.000000,0.000000,0.000000,0.000000
5981.974000,1.728000,1,START a_bow,Note,59,B3,A,0.770958,0.302465,0.789713,0.101298,-1.542508,-2.354735,1.348139,1.263781,-2.984702,-0.423559,-2.175727,1.800548,3.887079,0.000000,0.000000,0.000000,0.000000,0.000000,0.000000
5981.982000,1.736000,1,START a_bow,Note,59,B3,A,0.762958,0.302631,0.789346,0.101449,-1.542428,-2.354691,1.348235,1.263472,-2.983087,-0.426560,-2.174462,1.800340,3.886820,0.000000,0.000000,0.000000,0.000000,0.000000,0.000000
5981.990000,1.744000,1,START a_bow,Note,59,B3,A,0.754958,0.302810,0.788953,0.101611,-1.542342,-2.354645,1.348337,1.263141,-2.981370,-0.429750,-2.173121,1.800118,3.886542,0.000000,0.000000,0.000000,0.000000,0.000000,0.000000
5981.998000,1.752000,1,START a_bow,Note,59,B3,A,0.746958,0.303000,0.788533,0.101783,-1.542251,-2.354596,1.348446,1.262787,-2.979552,-0.433124,-2.171705,1.799880,3.886246,0.000000,0.000000,0.000000,0.000000,0.000000,0.000000
5982.006000,1.760000,1,START a_bow,Note,59,B3,A,0.738958,0.303202,0.788088,0.101967,-1.542154,-2.354543,1.348562,1.262412,-2.977635,-0.436677,-2.170217,1.799627,3.885931,0.000000,0.000000,0.000000,0.000000,0.000000,0.000000
5982.014000,1.768000,1,START a_bow,Note,59,B3,A,0.730958,0.303415,0.787616,0.102161,-1.542051,-2.354488,1.348685,1.262014,-2.975622,-0.440406,-2.168659,1.799360,3.885598,0.000000,0.000000,0.000000,0.000000,0.000000,0.000000
5982.022000,1.776000,1,START a_bow,Note,59,B3,A,0.722958,0.303641,0.787119,0.102366,-1.541943,-2.354429,1.348815,1.261593,-2.973515,-0.444304,-2.167033,1.799076,3.885246,0.000000,0.000000,0.000000,0.000000,0.000000,0.000000
5982.030000,1.784000,1,START a_bow,Note,59,B3,A,0.714958,0.303878,0.786595,0.102581,-1.541829,-2.354367,1.348951,1.261151,-2.971315,-0.448369,-2.165343,1.798778,3.884876,0.000000,0.000000,0.000000,0.000000,0.000000,0.000000
5982.038000,1.792000,1,START a_bow,Note,59,B3,A,0.706958,0.304128,0.786045,0.102808,-1.541709,-2.354302,1.349094,1.260685,-2.969026,-0.452594,-2.163591,1.798465,3.884487,0.000000,0.000000,0.000000,0.000000,0.000000,0.000000
5982.046000,1.800000,1,START a_bow,Note,59,B3,A,0.698958,0.304389,0.785469,0.103045,-1.541583,-2.354235,1.349244,1.260198,-2.966649,-0.456974,-2.161778,1.798136,3.884079,0.000000,0.000000,0.000000,0.000000,0.000000,0.000000
5982.054000,1.808000,1,START a_bow,Note,59,B3,A,0.690958,0.304662,0.784867,0.103293,-1.541452,-2.354164,1.349400,1.259687,-2.964187,-0.461506,-2.159909,1.797791,3.883653,0.000000,0.000000,0.000000,0.000000,0.000000,0.000000
5982.062000,1.816000,1,START a_bow,Note,59,B3,A,0.682958,0.304946,0.784239,0.103551,-1.541315,-2.354090,1.349564,1.259154,-2.961642,-0.466184,-2.157985,1.797431,3.883208,0.000000,0.000000,0.000000,0.000000,0.000000,0.000000
5982.070000,1.824000,1,START a_bow,Note,59,B3,A,0.674958,0.305243,0.783585,0.103821,-1.541173,-2.354012,1.349734,1.258598,-2.959017,-0.471003,-2.156009,1.797056,3.882744,0.000000,0.000000,0.000000,0.000000,0.000000,0.000000
5982.078000,1.832000,1,START a_bow,Note,59,B3,A,0.666958,0.305551,0.782904,0.104101,-1.541024,-2.353932,1.349911,1.258019,-2.956313,-0.475959,-2.153983,1.796665,3.882262,0.000000,0.000000,0.000000,0.000000,0.000000,0.000000
5982.086000,1.840000,1,START a_bow,Note,59,B3,A,0.658958,0.305871,0.782198,0.104392,-1.540870,-2.353849,1.350095,1.257417,-2.953533,-0.481047,-2.151910,1.796258,3.881760,0.000000,0.000000,0.000000,0.000000,0.000000,0.000000
5982.094000,1.848000,1,START a_bow,Note,59,B3,A,0.650958,0.306203,0.781465,0.104693,-1.540711,-2.353762,1.350285,1.256792,-2.950678,-0.486263,-2.149792,1.795836,3.881240,0.000000,0.000000,0.000000,0.000000,0.000000,0.000000
5982.102000,1.856000,1,START a_bow,Note,59,B3,A,0.642958,0.306547,0.780707,0.105006,-1.540545,-2.353673,1.350482,1.256145,-2.947752,-0.491601,-2.147632,1.795397,3.880701,0.000000,0.000000,0.000000,0.000000,0.000000,0.000000
5982.110000,1.864000,1,START a_bow,Note,59,B3,A,0.634958,0.306903,0.779922,0.105329,-1.540374,-2.353580,1.350686,1.255473,-2.944756,-0.497058,-2.145431,1.794943,3.880143,0.000000,0.000000,0.000000,0.000000,0.000000,0.000000
5982.118000,1.872000,1,START a_bow,Note,59,B3,A,0.626958,0.307269,0.779115,0.105661,-1.540198,-2.353485,1.350896,1.254782,-2.941707,-0.502603,-2.143204,1.794474,3.879569,0.000000,0.000000,0.000000,0.000000,0.000000,0.000000
5982.126000,1.880000,1,START a_bow,Note,59,B3,A,0.618958,0.307627,0.778324,0.105987,-1.540026,-2.353392,1.351102,1.254104,-2.938749,-0.507973,-2.141054,1.794014,3.879006,0.000000,0.000000,0.000000,0.000000,0.000000,0.000000
5982.142000,1.896000,1,START a_bow,Note,59,B3,A,0.602958,0.308309,0.776821,0.106605,-1.539698,-2.353214,1.351492,1.252812,-2.933205,-0.518013,-2.137057,1.793138,3.877935,0.000000,0.000000,0.000000,0.000000,0.000000,0.000000
5982.158000,1.912000,1,START a_bow,Note,59,B3,A,0.586958,0.308943,0.775422,0.107181,-1.539393,-2.353049,1.351856,1.251607,-2.928134,-0.527169,-2.133435,1.792319,3.876937,0.000000,0.000000,0.000000,0.000000,0.000000,0.000000
5982.166000,1.920000,1,START a_bow,Note,59,B3,A,0.578958,0.309242,0.774762,0.107453,-1.539249,-2.352971,1.352027,1.251037,-2.925769,-0.531431,-2.131758,1.791931,3.876466,0.000000,0.000000,0.000000,0.000000,0.000000,0.000000
5982.174000,1.928000,1,START a_bow,Note,59,B3,A,0.570958,0.309529,0.774128,0.107714,-1.539111,-2.352896,1.352192,1.250489,-2.923514,-0.535489,-2.130165,1.791558,3.876013,0.000000,0.000000,0.000000,0.000000,0.000000,0.000000
5982.182000,1.936000,1,START a_bow,Note,59,B3,A,0.562958,0.309805,0.773520,0.107965,-1.538978,-2.352824,1.352350,1.249963,-2.921366,-0.539349,-2.128654,1.791200,3.875578,0.000000,0.000000,0.000000,0.000000,0.000000,0.000000
5982.190000,1.944000,1,START a_bow,Note,59,B3,A,0.554958,0.310069,0.772938,0.108204,-1.538851,-2.352755,1.352501,1.249459,-2.919324,-0.543015,-2.127223,1.790857,3.875162,0.000000,0.000000,0.000000,0.000000,0.000000,0.000000
5982.198000,1.952000,1,START a_bow,Note,59,B3,A,0.546958,0.310321,0.772382,0.108433,-1.538730,-2.352690,1.352646,1.248977,-2.917386,-0.546491,-2.125870,1.790528,3.874764,0.000000,0.000000,0.000000,0.000000,0.000000,0.000000
5982.206000,1.960000,1,START a_bow,Note,59,B3,A,0.538958,0.310561,0.771852,0.108651,-1.538614,-2.352627,1.352783,1.248517,-2.915549,-0.549781,-2.124592,1.790215,3.874385,0.000000,0.000000,0.000000,0.000000,0.000000,0.000000
5982.214000,1.968000,1,START a_bow,Note,59,B3,A,0.530958,0.310789,0.771348,0.108859,-1.538505,-2.352568,1.352914,1.248080,-2.913812,-0.552889,-2.123387,1.789917,3.874024,0.000000,0.000000,0.000000,0.000000,0.000000,0.000000
5982.222000,1.976000,1,START a_bow,Note,59,B3,A,0.522958,0.311006,0.770870,0.109055,-1.538400,-2.352511,1.353038,1.247664,-2.912173,-0.555819,-2.122255,1.789634,3.873682,0.000000,0.000000,0.000000,0.000000,0.000000,0.000000
5982.230000,1.984000,1,START a_bow,Note,59,B3,A,0.514958,0.311211,0.770419,0.109241,-1.538302,-2.352458,1.353155,1.247272,-2.910631,-0.558572,-2.121192,1.789365,3.873358,0.000000,0.000000,0.000000,0.000000,0.000000,0.000000
5982.238000,1.992000,1,START a_bow,Note,59,B3,A,0.506958,0.311403,0.769994,0.109416,-1.538209,-2.352407,1.353266,1.246901,-2.909185,-0.561153,-2.120199,1.789113,3.873053,0.000000,0.000000,0.000000,0.000000,0.000000,0.000000
5982.246000,2.000000,1,START a_bow,Note,59,B3,A,0.498958,0.311584,0.769594,0.109581,-1.538122,-2.352360,1.353370,1.246553,-2.907833,-0.563563,-2.119272,1.788875,3.872767,0.000000,0.000000,0.000000,0.000000,0.000000,0.000000
5982.254000,2.008000,1,START a_bow,Note,59,B3,A,0.490958,0.311754,0.769221,0.109734,-1.538041,-2.352316,1.353466,1.246228,-2.906574,-0.565806,-2.118412,1.788653,3.872499,0.000000,0.000000,0.000000,0.000000,0.000000,0.000000
5982.262000,2.016000,1,START a_bow,Note,59,B3,A,0.482958,0.311911,0.768874,0.109877,-1.537965,-2.352275,1.353557,1.245925,-2.905408,-0.567883,-2.117616,1.788446,3.872250,0.000000,0.000000,0.000000,0.000000,0.000000,0.000000
5982.270000,2.024000,1,START a_bow,Note,59,B3,A,0.474958,0.312056,0.768553,0.110010,-1.537895,-2.352237,1.353640,1.245645,-2.904332,-0.569796,-2.116884,1.788254,3.872019,0.000000,0.000000,0.000000,0.000000,0.000000,0.000000
5982.278000,2.032000,1,START a_bow,Note,59,B3,A,0.466958,0.312190,0.768258,0.110131,-1.537831,-2.352202,1.353717,1.245387,-2.903347,-0.571547,-2.116215,1.788078,3.871808,0.000000,0.000000,0.000000,0.000000,0.000000,0.000000
5982.286000,2.040000,1,START a_bow,Note,59,B3,A,0.458958,0.312312,0.767989,0.110242,-1.537772,-2.352170,1.353786,1.245152,-2.902452,-0.573139,-2.115608,1.787917,3.871615,0.000000,0.000000,0.000000,0.000000,0.000000,0.000000
5982.294000,2.048000,1,START a_bow,Note,59,B3,A,0.450958,0.312422,0.767746,0.110342,-1.537719,-2.352141,1.353849,1.244940,-2.901646,-0.574571,-2.115063,1.787772,3.871440,0.000000,0.000000,0.000000,0.000000,0.000000,0.000000
5982.302000,2.056000,1,START a_bow,Note,59,B3,A,0.442958,0.312520,0.767529,0.110431,-1.537672,-2.352116,1.353906,1.244750,-2.900927,-0.575846,-2.114577,1.787643,3.871284,0.000000,0.000000,0.000000,0.000000,0.000000,0.000000
5982.310000,2.064000,1,START a_bow,Note,59,B3,A,0.434958,0.312607,0.767339,0.110509,-1.537630,-2.352093,1.353955,1.244584,-2.900297,-0.576965,-2.114152,1.787529,3.871148,0.000000,0.000000,0.000000,0.000000,0.000000,0.000000
5982.318000,2.072000,1,START a_bow,Note,59,B3,A,0.426958,0.312681,0.767174,0.110577,-1.537594,-2.352074,1.353998,1.244440,-2.899754,-0.577929,-2.113785,1.787430,3.871029,0.000000,0.000000,0.000000,0.000000,0.000000,0.000000
5982.326000,2.080000,1,START a_bow,Note,59,B3,A,0.418958,0.312744,0.767036,0.110634,-1.537564,-2.352057,1.354034,1.244318,-2.899297,-0.578739,-2.113478,1.787347,3.870930,0.000000,0.000000,0.000000,0.000000,0.000000,0.000000
5982.334000,2.088000,1,START a_bow,Note,59,B3,A,0.410958,0.312795,0.766924,0.110680,-1.537540,-2.352044,1.354063,1.244220,-2.898927,-0.579395,-2.113229,1.787280,3.870849,0.000000,0.000000,0.000000,0.000000,0.000000,0.000000
5982.342000,2.096000,1,START a_bow,Note,59,B3,A,0.402958,0.312834,0.766837,0.110716,-1.537521,-2.352034,1.354085,1.244145,-2.898643,-0.579898,-2.113038,1.787228,3.870787,0.000000,0.000000,0.000000,0.000000,0.000000,0.000000
5982.350000,2.104000,1,START a_bow,Note,59,B3,A,0.394958,0.312861,0.766777,0.110741,-1.537508,-2.352027,1.354101,1.244092,-2.898446,-0.580248,-2.112905,1.787192,3.870744,0.000000,0.000000,0.000000,0.000000,0.000000,0.000000
5982.358000,2.112000,1,START a_bow,Note,59,B3,A,0.386958,0.312877,0.766743,0.110755,-1.537500,-2.352023,1.354110,1.244062,-2.898334,-0.580446,-2.112830,1.787172,3.870719,0.000000,0.000000,0.000000,0.000000,0.000000,0.000000
5982.366000,2.120000,1,START a_bow,Note,59,B3,A,0.378958,0.312880,0.766735,0.110758,-1.537498,-2.352022,1.354112,1.244055,-2.898306,-0.580495,-2.112811,1.787167,3.870713,0.000000,0.000000,0.000000,0.000000,0.000000,0.000000
5982.374000,2.128000,2,END a_bow,Note,59,B3,A,0.370958,0.312880,0.766735,0.110758,-1.537498,-2.352022,1.354112,1.244055,-2.898306,-0.580495,-2.112811,1.787167,3.870713,0.000000,0.000000,0.000000,0.000000,0.000000,0.000000
5982.382000,2.136000,2,END a_bow,Note,59,B3,A,0.362958,0.312880,0.766735,0.110758,-1.537498,-2.352022,1.354112,1.244055,-2.898306,-0.580495,-2.112811,1.787167,3.870713,0.000000,0.000000,0.000000,0.000000,0.000000,0.000000
5982.390000,2.144000,2,END a_bow,Note,59,B3,A,0.354958,0.312880,0.766735,0.110758,-1.537498,-2.352022,1.354112,1.244055,-2.898306,-0.580495,-2.112811,1.787167,3.870713,0.000000,0.000000,0.000000,0.000000,0.000000,0.000000
5982.398000,2.152000,1,START a_bow,Note,59,B3,A,0.846958,0.312878,0.766740,0.110756,-1.537500,-2.352022,1.354110,1.244059,-2.898323,-0.580466,-2.112823,1.787170,3.870717,0.000000,0.000000,0.000000,0.000000,0.000000,0.000000
5982.414000,2.168000,1,START a_bow,Note,59,B3,A,0.830958,0.312840,0.766825,0.110721,-1.537518,-2.352032,1.354088,1.244134,-2.898602,-0.579972,-2.113010,1.787221,3.870778,0.000000,0.000000,0.000000,0.000000,0.000000,0.000000
5982.422000,2.176000,1,START a_bow,Note,59,B3,A,0.822958,0.312803,0.766906,0.110687,-1.537536,-2.352042,1.354067,1.244205,-2.898870,-0.579496,-2.113191,1.787270,3.870837,0.000000,0.000000,0.000000,0.000000,0.000000,0.000000
5982.438000,2.192000,1,START a_bow,Note,59,B3,A,0.806958,0.312693,0.767148,0.110588,-1.537589,-2.352070,1.354005,1.244416,-2.899666,-0.578085,-2.113726,1.787414,3.871010,0.000000,0.000000,0.000000,0.000000,0.000000,0.000000
5982.446000,2.200000,1,START a_bow,Note,59,B3,A,0.798958,0.312621,0.767308,0.110522,-1.537623,-2.352089,1.353963,1.244556,-2.900193,-0.577149,-2.114082,1.787510,3.871125,0.000000,0.000000,0.000000,0.000000,0.000000,0.000000
5982.462000,2.216000,1,START a_bow,Note,59,B3,A,0.782958,0.312441,0.767706,0.110358,-1.537710,-2.352136,1.353860,1.244904,-2.901511,-0.574811,-2.114971,1.787748,3.871411,0.000000,0.000000,0.000000,0.000000,0.000000,0.000000
5982.470000,2.224000,1,START a_bow,Note,59,B3,A,0.774958,0.312333,0.767944,0.110260,-1.537762,-2.352164,1.353798,1.245113,-2.902301,-0.573406,-2.115506,1.787891,3.871582,0.000000,0.000000,0.000000,0.000000,0.000000,0.000000
5982.478000,2.232000,1,START a_bow,Note,59,B3,A,0.766958,0.312213,0.768208,0.110152,-1.537820,-2.352196,1.353729,1.245343,-2.903181,-0.571844,-2.116102,1.788049,3.871772,0.000000,0.000000,0.000000,0.000000,0.000000,0.000000
5982.486000,2.240000,1,START a_bow,Note,59,B3,A,0.758958,0.312081,0.768498,0.110032,-1.537883,-2.352230,1.353653,1.245597,-2.904150,-0.570121,-2.116760,1.788222,3.871980,0.000000,0.000000,0.000000,0.000000,0.000000,0.000000
5982.494000,2.248000,1,START a_bow,Note,59,B3,A,0.750958,0.311938,0.768815,0.109902,-1.537952,-2.352267,1.353571,1.245873,-2.905209,-0.568237,-2.117480,1.788411,3.872208,0.000000,0.000000,0.000000,0.000000,0.000000,0.000000
5982.502000,2.256000,1,START a_bow,Note,59,B3,A,0.742958,0.311783,0.769157,0.109761,-1.538027,-2.352308,1.353482,1.246172,-2.906359,-0.566190,-2.118264,1.788615,3.872453,0.000000,0.000000,0.000000,0.000000,0.000000,0.000000
5982.510000,2.264000,1,START a_bow,Note,59,B3,A,0.734958,0.311616,0.769526,0.109609,-1.538108,-2.352351,1.353386,1.246493,-2.907601,-0.563977,-2.119113,1.788835,3.872718,0.000000,0.000000,0.000000,0.000000,0.000000,0.000000
5982.518000,2.272000,1,START a_bow,Note,59,B3,A,0.726958,0.311437,0.769920,0.109447,-1.538194,-2.352398,1.353284,1.246837,-2.908936,-0.561597,-2.120027,1.789070,3.873001,0.000000,0.000000,0.000000,0.000000,0.000000,0.000000
5982.534000,2.288000,1,START a_bow,Note,59,B3,A,0.710958,0.311043,0.770788,0.109089,-1.538383,-2.352500,1.353058,1.247593,-2.911890,-0.556325,-2.122058,1.789586,3.873623,0.000000,0.000000,0.000000,0.000000,0.000000,0.000000
5982.542000,2.296000,1,START a_bow,Note,59,B3,A,0.702958,0.310829,0.771261,0.108895,-1.538486,-2.352556,1.352935,1.248004,-2.913511,-0.553427,-2.123178,1.789867,3.873962,0.000000,0.000000,0.000000,0.000000,0.000000,0.000000
5982.550000,2.304000,1,START a_bow,Note,59,B3,A,0.694958,0.310603,0.771760,0.108689,-1.538595,-2.352615,1.352805,1.248437,-2.915230,-0.550351,-2.124369,1.790162,3.874319,0.000000,0.000000,0.000000,0.000000,0.000000,0.000000
5982.566000,2.320000,1,START a_bow,Note,59,B3,A,0.678958,0.310115,0.772836,0.108246,-1.538830,-2.352741,1.352525,1.249371,-2.918969,-0.543652,-2.126973,1.790799,3.875090,0.000000,0.000000,0.000000,0.000000,0.000000,0.000000
5982.574000,2.328000,1,START a_bow,Note,59,B3,A,0.670958,0.309853,0.773414,0.108008,-1.538956,-2.352810,1.352375,1.249871,-2.920993,-0.540021,-2.128390,1.791140,3.875503,0.000000,0.000000,0.000000,0.000000,0.000000,0.000000
5982.582000,2.336000,1,START a_bow,Note,59,B3,A,0.662958,0.309580,0.774017,0.107760,-1.539088,-2.352881,1.352218,1.250393,-2.923121,-0.536196,-2.129886,1.791496,3.875934,0.000000,0.000000,0.000000,0.000000,0.000000,0.000000
5982.590000,2.344000,1,START a_bow,Note,59,B3,A,0.654958,0.309294,0.774646,0.107501,-1.539225,-2.352955,1.352054,1.250937,-2.925357,-0.532174,-2.131463,1.791866,3.876384,0.000000,0.000000,0.000000,0.000000,0.000000,0.000000
5982.598000,2.352000,1,START a_bow,Note,59,B3,A,0.646958,0.308997,0.775302,0.107231,-1.539369,-2.353032,1.351884,1.251503,-2.927702,-0.527949,-2.133125,1.792251,3.876852,0.000000,0.000000,0.000000,0.000000,0.000000,0.000000
5982.606000,2.360000,1,START a_bow,Note,59,B3,A,0.638958,0.308688,0.775984,0.106950,-1.539517,-2.353112,1.351706,1.252091,-2.930159,-0.523517,-2.134874,1.792651,3.877339,0.000000,0.000000,0.000000,0.000000,0.000000,0.000000
5982.614000,2.368000,1,START a_bow,Note,59,B3,A,0.630958,0.308367,0.776692,0.106659,-1.539672,-2.353196,1.351522,1.252701,-2.932731,-0.518870,-2.136714,1.793065,3.877844,0.000000,0.000000,0.000000,0.000000,0.000000,0.000000
5982.622000,2.376000,1,START a_bow,Note,59,B3,A,0.622958,0.308035,0.777425,0.106357,-1.539832,-2.353282,1.351331,1.253332,-2.935421,-0.514004,-2.138646,1.793494,3.878367,0.000000,0.000000,0.000000,0.000000,0.000000,0.000000
5982.630000,2.384000,1,START a_bow,Note,59,B3,A,0.614958,0.307690,0.778185,0.106044,-1.539998,-2.353372,1.351133,1.253985,-2.938232,-0.508912,-2.140676,1.793938,3.878909,0.000000,0.000000,0.000000,0.000000,0.000000,0.000000
5982.638000,2.392000,1,START a_bow,Note,59,B3,A,0.606958,0.307334,0.778972,0.105720,-1.540169,-2.353464,1.350929,1.254659,-2.941167,-0.503585,-2.142806,1.794395,3.879469,0.000000,0.000000,0.000000,0.000000,0.000000,0.000000
5982.646000,2.400000,1,START a_bow,Note,59,B3,A,0.598958,0.306968,0.779779,0.105388,-1.540345,-2.353559,1.350718,1.255351,-2.944211,-0.498052,-2.145027,1.794864,3.880043,0.000000,0.000000,0.000000,0.000000,0.000000,0.000000
5982.654000,2.408000,1,START a_bow,Note,59,B3,A,0.590958,0.306610,0.780568,0.105063,-1.540518,-2.353652,1.350513,1.256026,-2.947219,-0.492575,-2.147234,1.795322,3.880604,0.000000,0.000000,0.000000,0.000000,0.000000,0.000000
5982.662000,2.416000,1,START a_bow,Note,59,B3,A,0.582958,0.306264,0.781331,0.104749,-1.540684,-2.353742,1.350314,1.256678,-2.950157,-0.487215,-2.149401,1.795763,3.881147,0.000000,0.000000,0.000000,0.000000,0.000000,0.000000
5982.670000,2.424000,1,START a_bow,Note,59,B3,A,0.574958,0.305930,0.782068,0.104445,-1.540845,-2.353829,1.350122,1.257307,-2.953024,-0.481978,-2.151526,1.796189,3.881670,0.000000,0.000000,0.000000,0.000000,0.000000,0.000000
5982.678000,2.432000,1,START a_bow,Note,59,B3,A,0.566958,0.305608,0.782780,0.104152,-1.541000,-2.353912,1.349937,1.257913,-2.955817,-0.476868,-2.153607,1.796599,3.882175,0.000000,0.000000,0.000000,0.000000,0.000000,0.000000
5982.686000,2.440000,1,START a_bow,Note,59,B3,A,0.558958,0.305297,0.783464,0.103870,-1.541150,-2.353993,1.349758,1.258496,-2.958535,-0.471888,-2.155641,1.796993,3.882661,0.000000,0.000000,0.000000,0.000000,0.000000,0.000000
5982.694000,2.448000,1,START a_bow,Note,59,B3,A,0.550958,0.304999,0.784123,0.103599,-1.541293,-2.354070,1.349587,1.259056,-2.961174,-0.467045,-2.157626,1.797371,3.883128,0.000000,0.000000,0.000000,0.000000,0.000000,0.000000
5982.702000,2.456000,1,START a_bow,Note,59,B3,A,0.542958,0.304712,0.784756,0.103339,-1.541431,-2.354145,1.349422,1.259593,-2.963733,-0.462342,-2.159559,1.797734,3.883577,0.000000,0.000000,0.000000,0.000000,0.000000,0.000000
5982.710000,2.464000,1,START a_bow,Note,59,B3,A,0.534958,0.304437,0.785363,0.103089,-1.541564,-2.354216,1.349264,1.260107,-2.966210,-0.457784,-2.161438,1.798081,3.884006,0.000000,0.000000,0.000000,0.000000,0.000000,0.000000
5982.718000,2.472000,1,START a_bow,Note,59,B3,A,0.526958,0.304174,0.785943,0.102850,-1.541690,-2.354284,1.349113,1.260599,-2.968602,-0.453376,-2.163261,1.798413,3.884417,0.000000,0.000000,0.000000,0.000000,0.000000,0.000000
5982.726000,2.480000,1,START a_bow,Note,59,B3,A,0.518958,0.303922,0.786498,0.102622,-1.541811,-2.354349,1.348968,1.261068,-2.970907,-0.449124,-2.165023,1.798730,3.884810,0.000000,0.000000,0.000000,0.000000,0.000000,0.000000
5982.734000,2.488000,1,START a_bow,Note,59,B3,A,0.510958,0.303683,0.787026,0.102404,-1.541927,-2.354411,1.348830,1.261515,-2.973122,-0.445031,-2.166725,1.799031,3.885183,0.000000,0.000000,0.000000,0.000000,0.000000,0.000000
5982.742000,2.496000,1,START a_bow,Note,59,B3,A,0.502958,0.303455,0.787529,0.102197,-1.542036,-2.354470,1.348700,1.261940,-2.975246,-0.441103,-2.168361,1.799317,3.885539,0.000000,0.000000,0.000000,0.000000,0.000000,0.000000
5982.750000,2.504000,1,START a_bow,Note,59,B3,A,0.494958,0.303239,0.788005,0.102001,-1.542140,-2.354526,1.348575,1.262341,-2.977277,-0.437344,-2.169931,1.799588,3.885875,0.000000,0.000000,0.000000,0.000000,0.000000,0.000000
5982.758000,2.512000,1,START a_bow,Note,59,B3,A,0.486958,0.303035,0.788455,0.101816,-1.542238,-2.354579,1.348458,1.262721,-2.979211,-0.433759,-2.171432,1.799843,3.886193,0.000000,0.000000,0.000000,0.000000,0.000000,0.000000
5982.766000,2.520000,1,START a_bow,Note,59,B3,A,0.478958,0.302843,0.788879,0.101641,-1.542331,-2.354629,1.348348,1.263078,-2.981046,-0.430353,-2.172861,1.800084,3.886493,0.000000,0.000000,0.000000,0.000000,0.000000,0.000000
5982.774000,2.528000,1,START a_bow,Note,59,B3,A,0.470958,0.302663,0.789277,0.101477,-1.542418,-2.354676,1.348244,1.263413,-2.982781,-0.427131,-2.174215,1.800309,3.886773,0.000000,0.000000,0.000000,0.000000,0.000000,0.000000
5982.782000,2.536000,1,START a_bow,Note,59,B3,A,0.462958,0.302494,0.789649,0.101324,-1.542499,-2.354719,1.348147,1.263726,-2.984414,-0.424096,-2.175493,1.800520,3.887036,0.000000,0.000000,0.000000,0.000000,0.000000,0.000000
5982.790000,2.544000,1,START a_bow,Note,59,B3,A,0.454958,0.302337,0.789994,0.101182,-1.542574,-2.354760,1.348057,1.264017,-2.985942,-0.421254,-2.176693,1.800715,3.887280,0.000000,0.000000,0.000000,0.000000,0.000000,0.000000
5982.798000,2.552000,1,START a_bow,Note,59,B3,A,0.446958,0.302193,0.790314,0.101050,-1.542644,-2.354798,1.347973,1.264286,-2.987363,-0.418608,-2.177811,1.800896,3.887505,0.000000,0.000000,0.000000,0.000000,0.000000,0.000000
5982.806000,2.560000,1,START a_bow,Note,59,B3,A,0.438958,0.302060,0.790608,0.100930,-1.542708,-2.354832,1.347897,1.264532,-2.988675,-0.416162,-2.178846,1.801061,3.887712,0.000000,0.000000,0.000000,0.000000,0.000000,0.000000
5982.814000,2.568000,1,START a_bow,Note,59,B3,A,0.430958,0.301938,0.790875,0.100819,-1.542766,-2.354863,1.347827,1.264757,-2.989878,-0.413921,-2.179796,1.801212,3.887901,0.000000,0.000000,0.000000,0.000000,0.000000,0.000000
5982.822000,2.576000,1,START a_bow,Note,59,B3,A,0.422958,0.301829,0.791117,0.100720,-1.542819,-2.354892,1.347764,1.264959,-2.990968,-0.411887,-2.180659,1.801348,3.888071,0.000000,0.000000,0.000000,0.000000,0.000000,0.000000
5982.830000,2.584000,1,START a_bow,Note,59,B3,A,0.414958,0.301731,0.791332,0.100631,-1.542866,-2.354917,1.347708,1.265140,-2.991944,-0.410064,-2.181434,1.801470,3.888223,0.000000,0.000000,0.000000,0.000000,0.000000,0.000000
5982.838000,2.592000,1,START a_bow,Note,59,B3,A,0.406958,0.301646,0.791521,0.100554,-1.542907,-2.354939,1.347659,1.265299,-2.992806,-0.408455,-2.182118,1.801576,3.888356,0.000000,0.000000,0.000000,0.000000,0.000000,0.000000
5982.846000,2.600000,1,START a_bow,Note,59,B3,A,0.398958,0.301572,0.791684,0.100486,-1.542943,-2.354958,1.347616,1.265435,-2.993551,-0.407062,-2.182711,1.801668,3.888471,0.000000,0.000000,0.000000,0.000000,0.000000,0.000000
5982.854000,2.608000,1,START a_bow,Note,59,B3,A,0.390958,0.301510,0.791821,0.100430,-1.542972,-2.354975,1.347581,1.265550,-2.994179,-0.405889,-2.183211,1.801745,3.888567,0.000000,0.000000,0.000000,0.000000,0.000000,0.000000
5982.862000,2.616000,1,START a_bow,Note,59,B3,A,0.382958,0.301459,0.791932,0.100384,-1.542997,-2.354988,1.347552,1.265643,-2.994689,-0.404936,-2.183617,1.801807,3.888645,0.000000,0.000000,0.000000,0.000000,0.000000,0.000000
5982.870000,2.624000,1,START a_bow,Note,59,B3,A,0.374958,0.301421,0.792017,0.100349,-1.543015,-2.354998,1.347529,1.265714,-2.995079,-0.404206,-2.183928,1.801855,3.888705,0.000000,0.000000,0.000000,0.000000,0.000000,0.000000
5982.878000,2.632000,1,START a_bow,Note,59,B3,A,0.366958,0.301394,0.792075,0.100325,-1.543028,-2.355004,1.347514,1.265763,-2.995350,-0.403700,-2.184144,1.801888,3.888746,0.000000,0.000000,0.000000,0.000000,0.000000,0.000000
5982.886000,2.640000,1,START a_bow,Note,59,B3,A,0.358958,0.301379,0.792108,0.100312,-1.543035,-2.355008,1.347506,1.265791,-2.995500,-0.403418,-2.184264,1.801906,3.888769,0.000000,0.000000,0.000000,0.000000,0.000000,0.000000
5982.894000,2.648000,2,END a_bow,Note,59,B3,A,0.350958,0.301376,0.792115,0.100309,-1.543037,-2.355009,1.347504,1.265797,-2.995534,-0.403355,-2.184291,1.801911,3.888775,0.000000,0.000000,0.000000,0.000000,0.000000,0.000000
5982.902000,2.656000,2,END a_bow,Note,59,B3,A,0.342958,0.301376,0.792115,0.100309,-1.543037,-2.355009,1.347504,1.265797,-2.995534,-0.403355,-2.184291,1.801911,3.888775,0.000000,0.000000,0.000000,0.000000,0.000000,0.000000
5982.910000,2.664000,2,END a_bow,Note,59,B3,A,0.334958,0.301376,0.792115,0.100309,-1.543037,-2.355009,1.347504,1.265797,-2.995534,-0.403355,-2.184291,1.801911,3.888775,0.000000,0.000000,0.000000,0.000000,0.000000,0.000000
5982.918000,2.672000,2,END a_bow,Note,59,B3,A,0.326958,0.301376,0.792115,0.100309,-1.543037,-2.355009,1.347504,1.265797,-2.995534,-0.403355,-2.184291,1.801911,3.888775,0.000000,0.000000,0.000000,0.000000,0.000000,0.000000
5982.926000,2.680000,1,START a_bow,Note,57,A3,A,1.318958,0.301381,0.792105,0.100313,-1.543034,-2.355008,1.347506,1.265788,-2.995488,-0.403441,-2.184255,1.801905,3.888768,0.000000,0.000000,0.000000,0.000000,0.000000,0.000000
5982.934000,2.688000,1,START a_bow,Note,57,A3,A,1.310958,0.301397,0.792070,0.100328,-1.543027,-2.355004,1.347516,1.265758,-2.995322,-0.403751,-2.184122,1.801885,3.888742,0.000000,0.000000,0.000000,0.000000,0.000000,0.000000
5982.942000,2.696000,1,START a_bow,Note,57,A3,A,1.302958,0.301425,0.792008,0.100353,-1.543013,-2.354996,1.347532,1.265706,-2.995037,-0.404285,-2.183894,1.801850,3.888699,0.000000,0.000000,0.000000,0.000000,0.000000,0.000000
5982.958000,2.712000,1,START a_bow,Note,57,A3,A,1.286958,0.301517,0.791805,0.100437,-1.542969,-2.354973,1.347585,1.265537,-2.994107,-0.406023,-2.183153,1.801736,3.888556,0.000000,0.000000,0.000000,0.000000,0.000000,0.000000
5982.966000,2.720000,1,START a_bow,Note,57,A3,A,1.278958,0.301580,0.791665,0.100494,-1.542938,-2.354956,1.347621,1.265419,-2.993464,-0.407224,-2.182642,1.801657,3.888457,0.000000,0.000000,0.000000,0.000000,0.000000,0.000000
5982.982000,2.736000,1,START a_bow,Note,57,A3,A,1.262958,0.301743,0.791306,0.100642,-1.542860,-2.354914,1.347715,1.265119,-2.991828,-0.410280,-2.181342,1.801455,3.888205,0.000000,0.000000,0.000000,0.000000,0.000000,0.000000
5982.998000,2.752000,1,START a_bow,Note,57,A3,A,1.246958,0.301953,0.790843,0.100833,-1.542759,-2.354860,1.347835,1.264730,-2.989733,-0.414190,-2.179682,1.801194,3.887878,0.000000,0.000000,0.000000,0.000000,0.000000,0.000000
5983.014000,2.768000,1,START a_bow,Note,57,A3,A,1.230958,0.302210,0.790276,0.101066,-1.542635,-2.354793,1.347983,1.264253,-2.987191,-0.418928,-2.177675,1.800874,3.887478,0.000000,0.000000,0.000000,0.000000,0.000000,0.000000
5983.022000,2.776000,1,START a_bow,Note,57,A3,A,1.222958,0.302356,0.789953,0.101199,-1.542565,-2.354755,1.348068,1.263982,-2.985756,-0.421599,-2.176547,1.800691,3.887250,0.000000,0.000000,0.000000,0.000000,0.000000,0.000000
5983.030000,2.784000,1,START a_bow,Note,57,A3,A,1.214958,0.302515,0.789604,0.101343,-1.542489,-2.354714,1.348159,1.263688,-2.984215,-0.424465,-2.175338,1.800494,3.887004,0.000000,0.000000,0.000000,0.000000,0.000000,0.000000
5983.038000,2.792000,1,START a_bow,Note,57,A3,A,1.206958,0.302685,0.789229,0.101497,-1.542407,-2.354670,1.348256,1.263373,-2.982570,-0.427523,-2.174050,1.800282,3.886739,0.000000,0.000000,0.000000,0.000000,0.000000,0.000000
5983.046000,2.800000,1,START a_bow,Note,57,A3,A,1.198958,0.302866,0.788827,0.101663,-1.542320,-2.354623,1.348361,1.263035,-2.980822,-0.430769,-2.172686,1.800054,3.886456,0.000000,0.000000,0.000000,0.000000,0.000000,0.000000
5983.054000,2.808000,1,START a_bow,Note,57,A3,A,1.190958,0.303060,0.788400,0.101838,-1.542226,-2.354573,1.348472,1.262675,-2.978974,-0.434197,-2.171248,1.799812,3.886154,0.000000,0.000000,0.000000,0.000000,0.000000,0.000000
5983.062000,2.816000,1,START a_bow,Note,57,A3,A,1.182958,0.303266,0.787947,0.102025,-1.542127,-2.354520,1.348591,1.262292,-2.977028,-0.437804,-2.169739,1.799555,3.885834,0.000000,0.000000,0.000000,0.000000,0.000000,0.000000
5983.070000,2.824000,1,START a_bow,Note,57,A3,A,1.174958,0.303483,0.787467,0.102223,-1.542023,-2.354463,1.348716,1.261888,-2.974986,-0.441584,-2.168160,1.799282,3.885495,0.000000,0.000000,0.000000,0.000000,0.000000,0.000000
5983.078000,2.832000,1,START a_bow,Note,57,A3,A,1.166958,0.303712,0.786962,0.102431,-1.541913,-2.354404,1.348847,1.261461,-2.972851,-0.445533,-2.166515,1.798994,3.885138,0.000000,0.000000,0.000000,0.000000,0.000000,0.000000
5983.086000,2.840000,1,START a_bow,Note,57,A3,A,1.158958,0.303953,0.786430,0.102650,-1.541797,-2.354341,1.348986,1.261011,-2.970624,-0.449646,-2.164806,1.798691,3.884762,0.000000,0.000000,0.000000,0.000000,0.000000,0.000000
5983.094000,2.848000,1,START a_bow,Note,57,A3,A,1.150958,0.304206,0.785872,0.102879,-1.541675,-2.354276,1.349131,1.260539,-2.968308,-0.453919,-2.163036,1.798373,3.884367,0.000000,0.000000,0.000000,0.000000,0.000000,0.000000
5983.102000,2.856000,1,START a_bow,Note,57,A3,A,1.142958,0.304471,0.785288,0.103120,-1.541548,-2.354207,1.349283,1.260044,-2.965905,-0.458345,-2.161207,1.798039,3.883954,0.000000,0.000000,0.000000,0.000000,0.000000,0.000000
5983.110000,2.864000,1,START a_bow,Note,57,A3,A,1.134958,0.304747,0.784678,0.103371,-1.541414,-2.354136,1.349442,1.259527,-2.963418,-0.462921,-2.159321,1.797690,3.883522,0.000000,0.000000,0.000000,0.000000,0.000000,0.000000
5983.118000,2.872000,1,START a_bow,Note,57,A3,A,1.126958,0.305035,0.784042,0.103633,-1.541276,-2.354061,1.349608,1.258987,-2.960849,-0.467642,-2.157381,1.797325,3.883071,0.000000,0.000000,0.000000,0.000000,0.000000,0.000000
5983.126000,2.880000,1,START a_bow,Note,57,A3,A,1.118958,0.305336,0.783380,0.103905,-1.541131,-2.353983,1.349780,1.258424,-2.958199,-0.472503,-2.155390,1.796944,3.882601,0.000000,0.000000,0.000000,0.000000,0.000000,0.000000
5983.134000,2.888000,1,START a_bow,Note,57,A3,A,1.110958,0.305647,0.782692,0.104188,-1.540981,-2.353902,1.349960,1.257838,-2.955472,-0.477499,-2.153350,1.796548,3.882113,0.000000,0.000000,0.000000,0.000000,0.000000,0.000000
5983.142000,2.896000,1,START a_bow,Note,57,A3,A,1.102958,0.305971,0.781978,0.104483,-1.540825,-2.353818,1.350146,1.257230,-2.952670,-0.482626,-2.151263,1.796137,3.881606,0.000000,0.000000,0.000000,0.000000,0.000000,0.000000
5983.150000,2.904000,1,START a_bow,Note,57,A3,A,1.094958,0.306307,0.781237,0.104787,-1.540664,-2.353731,1.350339,1.256598,-2.949794,-0.487879,-2.149133,1.795709,3.881080,0.000000,0.000000,0.000000,0.000000,0.000000,0.000000
5983.158000,2.912000,1,START a_bow,Note,57,A3,A,1.086958,0.306654,0.780471,0.105103,-1.540496,-2.353641,1.350538,1.255943,-2.946847,-0.493253,-2.146961,1.795265,3.880535,0.000000,0.000000,0.000000,0.000000,0.000000,0.000000
5983.166000,2.920000,1,START a_bow,Note,57,A3,A,1.078958,0.307014,0.779678,0.105429,-1.540324,-2.353547,1.350745,1.255265,-2.943830,-0.498744,-2.144749,1.794806,3.879971,0.000000,0.000000,0.000000,0.000000,0.000000,0.000000
5983.174000,2.928000,1,START a_bow,Note,57,A3,A,1.070958,0.307379,0.778872,0.105761,-1.540148,-2.353452,1.350954,1.254574,-2.940793,-0.504264,-2.142534,1.794337,3.879398,0.000000,0.000000,0.000000,0.000000,0.000000,0.000000
5983.182000,2.936000,1,START a_bow,Note,57,A3,A,1.062958,0.307734,0.778089,0.106084,-1.539977,-2.353360,1.351158,1.253902,-2.937874,-0.509561,-2.140417,1.793881,3.878840,0.000000,0.000000,0.000000,0.000000,0.000000,0.000000
5983.190000,2.944000,1,START a_bow,Note,57,A3,A,1.054958,0.308077,0.777332,0.106395,-1.539812,-2.353271,1.351355,1.253252,-2.935078,-0.514625,-2.138400,1.793440,3.878301,0.000000,0.000000,0.000000,0.000000,0.000000,0.000000
5983.198000,2.952000,1,START a_bow,Note,57,A3,A,1.046958,0.308408,0.776602,0.106696,-1.539652,-2.353185,1.351545,1.252623,-2.932404,-0.519463,-2.136479,1.793013,3.877780,0.000000,0.000000,0.000000,0.000000,0.000000,0.000000
5983.206000,2.960000,1,START a_bow,Note,57,A3,A,1.038958,0.308727,0.775897,0.106986,-1.539498,-2.353102,1.351729,1.252017,-2.929846,-0.524082,-2.134651,1.792600,3.877277,0.000000,0.000000,0.000000,0.000000,0.000000,0.000000
5983.214000,2.968000,1,START a_bow,Note,57,A3,A,1.030958,0.309035,0.775219,0.107265,-1.539350,-2.353022,1.351905,1.251431,-2.927403,-0.528488,-2.132913,1.792202,3.876793,0.000000,0.000000,0.000000,0.000000,0.000000,0.000000
5983.222000,2.976000,1,START a_bow,Note,57,A3,A,1.022958,0.309331,0.774566,0.107534,-1.539208,-2.352945,1.352075,1.250868,-2.925071,-0.532688,-2.131262,1.791819,3.876327,0.000000,0.000000,0.000000,0.000000,0.000000,0.000000
5983.230000,2.984000,1,START a_bow,Note,57,A3,A,1.014958,0.309615,0.773940,0.107792,-1.539071,-2.352872,1.352238,1.250327,-2.922849,-0.536685,-2.129694,1.791450,3.875879,0.000000,0.000000,0.000000,0.000000,0.000000,0.000000
5983.238000,2.992000,1,START a_bow,Note,57,A3,A,1.006958,0.309887,0.773340,0.108039,-1.538940,-2.352801,1.352394,1.249807,-2.920734,-0.540485,-2.128208,1.791096,3.875450,0.000000,0.000000,0.000000,0.000000,0.000000,0.000000
5983.246000,3.000000,1,START a_bow,Note,57,A3,A,0.998958,0.310147,0.772766,0.108275,-1.538815,-2.352733,1.352543,1.249310,-2.918724,-0.544092,-2.126801,1.790758,3.875040,0.000000,0.000000,0.000000,0.000000,0.000000,0.000000
5983.254000,3.008000,1,START a_bow,Note,57,A3,A,0.990958,0.310395,0.772218,0.108501,-1.538695,-2.352669,1.352686,1.248835,-2.916816,-0.547511,-2.125471,1.790434,3.874647,0.000000,0.000000,0.000000,0.000000,0.000000,0.000000
5983.262000,3.016000,1,START a_bow,Note,57,A3,A,0.982958,0.310632,0.771696,0.108716,-1.538581,-2.352607,1.352822,1.248382,-2.915010,-0.550746,-2.124216,1.790125,3.874274,0.000000,0.000000,0.000000,0.000000,0.000000,0.000000
5983.270000,3.024000,1,START a_bow,Note,57,A3,A,0.974958,0.310856,0.771200,0.108920,-1.538473,-2.352549,1.352951,1.247951,-2.913303,-0.553799,-2.123034,1.789831,3.873919,0.000000,0.000000,0.000000,0.000000,0.000000,0.000000
5983.278000,3.032000,1,START a_bow,Note,57,A3,A,0.966958,0.311069,0.770731,0.109113,-1.538371,-2.352493,1.353073,1.247543,-2.911694,-0.556674,-2.121923,1.789552,3.873582,0.000000,0.000000,0.000000,0.000000,0.000000,0.000000
5983.286000,3.040000,1,START a_bow,Note,57,A3,A,0.958958,0.311270,0.770287,0.109296,-1.538274,-2.352441,1.353188,1.247157,-2.910182,-0.559375,-2.120882,1.789288,3.873264,0.000000,0.000000,0.000000,0.000000,0.000000,0.000000
5983.294000,3.048000,1,START a_bow,Note,57,A3,A,0.950958,0.311460,0.769869,0.109468,-1.538183,-2.352392,1.353297,1.246793,-2.908764,-0.561903,-2.119909,1.789040,3.872965,0.000000,0.000000,0.000000,0.000000,0.000000,0.000000
5983.318000,3.072000,1,START a_bow,Note,57,A3,A,0.926958,0.311956,0.768774,0.109919,-1.537943,-2.352262,1.353582,1.245837,-2.905071,-0.568481,-2.117387,1.788387,3.872178,0.000000,0.000000,0.000000,0.000000,0.000000,0.000000
5983.342000,3.096000,1,START a_bow,Note,57,A3,A,0.902958,0.312347,0.767912,0.110273,-1.537755,-2.352161,1.353806,1.245085,-2.902198,-0.573591,-2.115436,1.787872,3.871560,0.000000,0.000000,0.000000,0.000000,0.000000,0.000000
5983.350000,3.104000,1,START a_bow,Note,57,A3,A,0.894958,0.312453,0.767678,0.110370,-1.537704,-2.352133,1.353867,1.244880,-2.901418,-0.574975,-2.114908,1.787732,3.871391,0.000000,0.000000,0.000000,0.000000,0.000000,0.000000
5983.358000,3.112000,1,START a_bow,Note,57,A3,A,0.886958,0.312548,0.767469,0.110456,-1.537659,-2.352108,1.353921,1.244697,-2.900727,-0.576203,-2.114441,1.787607,3.871241,0.000000,0.000000,0.000000,0.000000,0.000000,0.000000
5983.366000,3.120000,1,START a_bow,Note,57,A3,A,0.878958,0.312631,0.767286,0.110531,-1.537619,-2.352087,1.353969,1.244537,-2.900123,-0.577275,-2.114034,1.787497,3.871110,0.000000,0.000000,0.000000,0.000000,0.000000,0.000000
5983.374000,3.128000,1,START a_bow,Note,57,A3,A,0.870958,0.312702,0.767130,0.110596,-1.537585,-2.352068,1.354009,1.244400,-2.899606,-0.578191,-2.113686,1.787403,3.870997,0.000000,0.000000,0.000000,0.000000,0.000000,0.000000
5983.382000,3.136000,1,START a_bow,Note,57,A3,A,0.862958,0.312761,0.766999,0.110649,-1.537556,-2.352053,1.354043,1.244286,-2.899176,-0.578954,-2.113396,1.787325,3.870903,0.000000,0.000000,0.000000,0.000000,0.000000,0.000000
5983.390000,3.144000,1,START a_bow,Note,57,A3,A,0.854958,0.312808,0.766895,0.110692,-1.537533,-2.352041,1.354070,1.244195,-2.898832,-0.579564,-2.113165,1.787263,3.870828,0.000000,0.000000,0.000000,0.000000,0.000000,0.000000
5983.414000,3.168000,1,START a_bow,Note,57,A3,A,0.830958,0.312879,0.766738,0.110757,-1.537499,-2.352022,1.354111,1.244058,-2.898317,-0.580476,-2.112819,1.787169,3.870716,0.000000,0.000000,0.000000,0.000000,0.000000,0.000000
5983.422000,3.176000,2,END a_bow,Note,57,A3,A,0.822958,0.312880,0.766735,0.110758,-1.537498,-2.352022,1.354112,1.244055,-2.898306,-0.580495,-2.112811,1.787167,3.870713,0.000000,0.000000,0.000000,0.000000,0.000000,0.000000
5983.430000,3.184000,2,END a_bow,Note,57,A3,A,0.814958,0.312880,0.766735,0.110758,-1.537498,-2.352022,1.354112,1.244055,-2.898306,-0.580495,-2.112811,1.787167,3.870713,0.000000,0.000000,0.000000,0.000000,0.000000,0.000000
5983.454000,3.208000,1,START a_bow,Transition,transition,transition A->D,A-D,0.990958,0.312873,0.766751,0.110751,-1.537502,-2.352024,1.354108,1.244069,-2.898361,-0.580399,-2.112848,1.787177,3.870725,0.000000,0.000000,0.000000,0.000000,0.000000,0.000000
5983.462000,3.216000,1,START a_bow,Transition,transition,transition A->D,A-D,0.982958,0.312854,0.766794,0.110734,-1.537511,-2.352029,1.354097,1.244106,-2.898500,-0.580152,-2.112942,1.787202,3.870756,0.000000,0.000000,0.000000,0.000000,0.000000,0.000000
5983.470000,3.224000,1,START a_bow,Transition,transition,transition A->D,A-D,0.974958,0.312823,0.766862,0.110706,-1.537526,-2.352037,1.354079,1.244166,-2.898725,-0.579753,-2.113093,1.787243,3.870805,0.000000,0.000000,0.000000,0.000000,0.000000,0.000000
5983.478000,3.232000,1,START a_bow,Transition,transition,transition A->D,A-D,0.966958,0.312780,0.766957,0.110667,-1.537547,-2.352048,1.354054,1.244249,-2.899037,-0.579201,-2.113303,1.787300,3.870873,0.000000,0.000000,0.000000,0.000000,0.000000,0.000000
5983.486000,3.240000,1,START a_bow,Transition,transition,transition A->D,A-D,0.958958,0.312725,0.767078,0.110617,-1.537573,-2.352062,1.354023,1.244355,-2.899434,-0.578495,-2.113570,1.787372,3.870960,0.000000,0.000000,0.000000,0.000000,0.000000,0.000000
5983.494000,3.248000,1,START a_bow,Transition,transition,transition A->D,A-D,0.950958,0.312659,0.767224,0.110556,-1.537605,-2.352080,1.353985,1.244483,-2.899919,-0.577636,-2.113896,1.787460,3.871065,0.000000,0.000000,0.000000,0.000000,0.000000,0.000000
5983.502000,3.256000,1,START a_bow,Transition,transition,transition A->D,A-D,0.942958,0.312580,0.767397,0.110485,-1.537643,-2.352100,1.353940,1.244635,-2.900490,-0.576623,-2.114282,1.787564,3.871190,0.000000,0.000000,0.000000,0.000000,0.000000,0.000000
5983.510000,3.264000,1,START a_bow,Transition,transition,transition A->D,A-D,0.934958,0.312490,0.767596,0.110403,-1.537686,-2.352123,1.353888,1.244809,-2.901148,-0.575454,-2.114726,1.787683,3.871333,0.000000,0.000000,0.000000,0.000000,0.000000,0.000000
5983.518000,3.272000,1,START a_bow,Transition,transition,transition A->D,A-D,0.926958,0.312388,0.767821,0.110311,-1.537736,-2.352150,1.353829,1.245006,-2.901895,-0.574128,-2.115231,1.787818,3.871494,0.000000,0.000000,0.000000,0.000000,0.000000,0.000000
5983.526000,3.280000,1,START a_bow,Transition,transition,transition A->D,A-D,0.918958,0.312274,0.768072,0.110207,-1.537790,-2.352180,1.353764,1.245225,-2.902730,-0.572645,-2.115796,1.787968,3.871675,0.000000,0.000000,0.000000,0.000000,0.000000,0.000000
5983.534000,3.288000,1,START a_bow,Transition,transition,transition A->D,A-D,0.910958,0.312149,0.768350,0.110093,-1.537851,-2.352212,1.353692,1.245467,-2.903654,-0.571002,-2.116423,1.788134,3.871874,0.000000,0.000000,0.000000,0.000000,0.000000,0.000000
5983.542000,3.296000,1,START a_bow,Transition,transition,transition A->D,A-D,0.902958,0.312011,0.768653,0.109968,-1.537917,-2.352248,1.353613,1.245732,-2.904668,-0.569199,-2.117112,1.788315,3.872092,0.000000,0.000000,0.000000,0.000000,0.000000,0.000000
5983.550000,3.304000,1,START a_bow,Transition,transition,transition A->D,A-D,0.894958,0.311862,0.768982,0.109833,-1.537989,-2.352287,1.353527,1.246020,-2.905772,-0.567234,-2.117864,1.788511,3.872328,0.000000,0.000000,0.000000,0.000000,0.000000,0.000000
5983.558000,3.312000,1,START a_bow,Transition,transition,transition A->D,A-D,0.886958,0.311701,0.769338,0.109686,-1.538067,-2.352329,1.353435,1.246330,-2.906968,-0.565104,-2.118680,1.788723,3.872583,0.000000,0.000000,0.000000,0.000000,0.000000,0.000000
5983.566000,3.320000,1,START a_bow,Transition,transition,transition A->D,A-D,0.878958,0.311528,0.769720,0.109529,-1.538150,-2.352374,1.353336,1.246663,-2.908257,-0.562808,-2.119561,1.788951,3.872857,0.000000,0.000000,0.000000,0.000000,0.000000,0.000000
5983.574000,3.328000,1,START a_bow,Transition,transition,transition A->D,A-D,0.870958,0.311343,0.770127,0.109361,-1.538239,-2.352422,1.353230,1.247018,-2.909639,-0.560343,-2.120509,1.789193,3.873149,0.000000,0.000000,0.000000,0.000000,0.000000,0.000000
5983.582000,3.336000,1,START a_bow,Transition,transition,transition A->D,A-D,0.862958,0.311146,0.770561,0.109183,-1.538334,-2.352473,1.353117,1.247395,-2.911116,-0.557707,-2.121525,1.789451,3.873460,0.000000,0.000000,0.000000,0.000000,0.000000,0.000000
5983.590000,3.344000,1,START a_bow,Transition,transition,transition A->D,A-D,0.854958,0.310938,0.771021,0.108993,-1.538434,-2.352527,1.352997,1.247795,-2.912688,-0.554898,-2.122609,1.789724,3.873790,0.000000,0.000000,0.000000,0.000000,0.000000,0.000000
5983.598000,3.352000,1,START a_bow,Transition,transition,transition A->D,A-D,0.846958,0.310717,0.771507,0.108793,-1.538540,-2.352585,1.352871,1.248218,-2.914358,-0.551912,-2.123764,1.790013,3.874138,0.000000,0.000000,0.000000,0.000000,0.000000,0.000000
5983.606000,3.360000,1,START a_bow,Transition,transition,transition A->D,A-D,0.838958,0.310485,0.772019,0.108582,-1.538652,-2.352645,1.352738,1.248662,-2.916127,-0.548746,-2.124992,1.790316,3.874505,0.000000,0.000000,0.000000,0.000000,0.000000,0.000000
5983.614000,3.368000,1,START a_bow,Transition,transition,transition A->D,A-D,0.830958,0.310241,0.772557,0.108361,-1.538769,-2.352709,1.352598,1.249129,-2.917997,-0.545396,-2.126294,1.790634,3.874890,0.000000,0.000000,0.000000,0.000000,0.000000,0.000000
5983.622000,3.376000,1,START a_bow,Transition,transition,transition A->D,A-D,0.822958,0.309986,0.773122,0.108129,-1.538893,-2.352775,1.352451,1.249618,-2.919968,-0.541860,-2.127671,1.790968,3.875294,0.000000,0.000000,0.000000,0.000000,0.000000,0.000000
5983.630000,3.384000,1,START a_bow,Transition,transition,transition A->D,A-D,0.814958,0.309718,0.773712,0.107886,-1.539021,-2.352845,1.352297,1.250129,-2.922044,-0.538133,-2.129128,1.791316,3.875716,0.000000,0.000000,0.000000,0.000000,0.000000,0.000000
5983.638000,3.392000,1,START a_bow,Transition,transition,transition A->D,A-D,0.806958,0.309438,0.774328,0.107632,-1.539156,-2.352917,1.352137,1.250663,-2.924225,-0.534210,-2.130664,1.791679,3.876157,0.000000,0.000000,0.000000,0.000000,0.000000,0.000000
5983.646000,3.400000,1,START a_bow,Transition,transition,transition A->D,A-D,0.798958,0.309147,0.774971,0.107367,-1.539296,-2.352993,1.351970,1.251218,-2.926516,-0.530087,-2.132284,1.792057,3.876616,0.000000,0.000000,0.000000,0.000000,0.000000,0.000000
5983.654000,3.408000,1,START a_bow,Transition,transition,transition A->D,A-D,0.790958,0.308844,0.775640,0.107092,-1.539442,-2.353072,1.351796,1.251795,-2.928916,-0.525759,-2.133989,1.792449,3.877093,0.000000,0.000000,0.000000,0.000000,0.000000,0.000000
5983.662000,3.416000,1,START a_bow,Transition,transition,transition A->D,A-D,0.782958,0.308529,0.776334,0.106806,-1.539594,-2.353154,1.351615,1.252393,-2.931431,-0.521221,-2.135783,1.792856,3.877589,0.000000,0.000000,0.000000,0.000000,0.000000,0.000000
5983.670000,3.424000,1,START a_bow,Transition,transition,transition A->D,A-D,0.774958,0.308202,0.777055,0.106509,-1.539751,-2.353239,1.351427,1.253014,-2.934061,-0.516465,-2.137668,1.793278,3.878103,0.000000,0.000000,0.000000,0.000000,0.000000,0.000000
5983.678000,3.432000,1,START a_bow,Transition,transition,transition A->D,A-D,0.766958,0.307864,0.777802,0.106202,-1.539914,-2.353326,1.351233,1.253656,-2.936811,-0.511487,-2.139649,1.793714,3.878636,0.000000,0.000000,0.000000,0.000000,0.000000,0.000000
5983.686000,3.440000,1,START a_bow,Transition,transition,transition A->D,A-D,0.758958,0.307514,0.778575,0.105883,-1.540083,-2.353418,1.351032,1.254319,-2.939683,-0.506278,-2.141728,1.794165,3.879186,0.000000,0.000000,0.000000,0.000000,0.000000,0.000000
5983.694000,3.448000,1,START a_bow,Transition,transition,transition A->D,A-D,0.750958,0.307151,0.779374,0.105554,-1.540257,-2.353512,1.350824,1.255004,-2.942682,-0.500832,-2.143910,1.794629,3.879755,0.000000,0.000000,0.000000,0.000000,0.000000,0.000000
5983.702000,3.456000,1,START a_bow,Transition,transition,transition A->D,A-D,0.742958,0.306788,0.780177,0.105224,-1.540432,-2.353606,1.350615,1.255691,-2.945723,-0.495299,-2.146136,1.795095,3.880326,0.000000,0.000000,0.000000,0.000000,0.000000,0.000000
5983.710000,3.464000,1,START a_bow,Transition,transition,transition A->D,A-D,0.734958,0.306436,0.780953,0.104904,-1.540602,-2.353697,1.350413,1.256355,-2.948697,-0.489880,-2.148323,1.795544,3.880878,0.000000,0.000000,0.000000,0.000000,0.000000,0.000000
5983.718000,3.472000,1,START a_bow,Transition,transition,transition A->D,A-D,0.726958,0.306096,0.781703,0.104596,-1.540765,-2.353786,1.350217,1.256995,-2.951600,-0.484581,-2.150469,1.795978,3.881411,0.000000,0.000000,0.000000,0.000000,0.000000,0.000000
5983.726000,3.480000,1,START a_bow,Transition,transition,transition A->D,A-D,0.718958,0.305768,0.782427,0.104297,-1.540923,-2.353871,1.350029,1.257613,-2.954430,-0.479407,-2.152573,1.796396,3.881925,0.000000,0.000000,0.000000,0.000000,0.000000,0.000000
5983.734000,3.488000,1,START a_bow,Transition,transition,transition A->D,A-D,0.710958,0.305451,0.783125,0.104010,-1.541076,-2.353953,1.349847,1.258207,-2.957186,-0.474361,-2.154630,1.796798,3.882420,0.000000,0.000000,0.000000,0.000000,0.000000,0.000000
5983.742000,3.496000,1,START a_bow,Transition,transition,transition A->D,A-D,0.702958,0.305147,0.783797,0.103733,-1.541222,-2.354032,1.349672,1.258778,-2.959864,-0.469449,-2.156640,1.797184,3.882897,0.000000,0.000000,0.000000,0.000000,0.000000,0.000000
5983.750000,3.504000,1,START a_bow,Transition,transition,transition A->D,A-D,0.694958,0.304854,0.784443,0.103468,-1.541363,-2.354108,1.349504,1.259327,-2.962464,-0.464675,-2.158599,1.797555,3.883355,0.000000,0.000000,0.000000,0.000000,0.000000,0.000000
5983.758000,3.512000,1,START a_bow,Transition,transition,transition A->D,A-D,0.686958,0.304573,0.785063,0.103212,-1.541498,-2.354181,1.349342,1.259853,-2.964982,-0.460044,-2.160506,1.797910,3.883794,0.000000,0.000000,0.000000,0.000000,0.000000,0.000000
5983.766000,3.520000,1,START a_bow,Transition,transition,transition A->D,A-D,0.678958,0.304304,0.785656,0.102968,-1.541628,-2.354250,1.349187,1.260356,-2.967417,-0.455561,-2.162357,1.798249,3.884214,0.000000,0.000000,0.000000,0.000000,0.000000,0.000000
5983.774000,3.528000,1,START a_bow,Transition,transition,transition A->D,A-D,0.670958,0.304047,0.786224,0.102734,-1.541752,-2.354317,1.349040,1.260837,-2.969765,-0.451230,-2.164150,1.798573,3.884616,0.000000,0.000000,0.000000,0.000000,0.000000,0.000000
5983.782000,3.536000,1,START a_bow,Transition,transition,transition A->D,A-D,0.662958,0.303801,0.786765,0.102511,-1.541870,-2.354381,1.348898,1.261295,-2.972026,-0.447057,-2.165882,1.798882,3.884999,0.000000,0.000000,0.000000,0.000000,0.000000,0.000000
5983.790000,3.544000,1,START a_bow,Transition,transition,transition A->D,A-D,0.654958,0.303568,0.787281,0.102299,-1.541982,-2.354441,1.348764,1.261730,-2.974196,-0.443046,-2.167551,1.799176,3.885363,0.000000,0.000000,0.000000,0.000000,0.000000,0.000000
5983.798000,3.552000,1,START a_bow,Transition,transition,transition A->D,A-D,0.646958,0.303346,0.787770,0.102098,-1.542089,-2.354499,1.348637,1.262143,-2.976273,-0.439202,-2.169155,1.799454,3.885709,0.000000,0.000000,0.000000,0.000000,0.000000,0.000000
5983.806000,3.560000,1,START a_bow,Transition,transition,transition A->D,A-D,0.638958,0.303136,0.788233,0.101907,-1.542190,-2.354553,1.348516,1.262534,-2.978256,-0.435529,-2.170690,1.799717,3.886036,0.000000,0.000000,0.000000,0.000000,0.000000,0.000000
5983.814000,3.568000,1,START a_bow,Transition,transition,transition A->D,A-D,0.630958,0.302938,0.788670,0.101727,-1.542285,-2.354605,1.348402,1.262903,-2.980141,-0.432034,-2.172155,1.799965,3.886345,0.000000,0.000000,0.000000,0.000000,0.000000,0.000000
5983.846000,3.600000,1,START a_bow,Transition,transition,transition A->D,A-D,0.598958,0.302264,0.790158,0.101115,-1.542610,-2.354779,1.348014,1.264154,-2.986666,-0.419906,-2.177262,1.800807,3.887395,0.000000,0.000000,0.000000,0.000000,0.000000,0.000000
5983.878000,3.632000,1,START a_bow,Transition,transition,transition A->D,A-D,0.566958,0.301779,0.791227,0.100674,-1.542843,-2.354905,1.347735,1.265052,-2.991470,-0.410949,-2.181058,1.801411,3.888149,0.000000,0.000000,0.000000,0.000000,0.000000,0.000000
5983.886000,3.640000,1,START a_bow,Transition,transition,transition A->D,A-D,0.558958,0.301687,0.791430,0.100591,-1.542887,-2.354929,1.347683,1.265222,-2.992390,-0.409232,-2.181787,1.801525,3.888292,0.000000,0.000000,0.000000,0.000000,0.000000,0.000000
5983.894000,3.648000,1,START a_bow,Transition,transition,transition A->D,A-D,0.550958,0.301607,0.791606,0.100519,-1.542925,-2.354949,1.347637,1.265370,-2.993193,-0.407731,-2.182426,1.801624,3.888416,0.000000,0.000000,0.000000,0.000000,0.000000,0.000000
5983.902000,3.656000,1,START a_bow,Transition,transition,transition A->D,A-D,0.542958,0.301539,0.791756,0.100457,-1.542958,-2.354967,1.347598,1.265495,-2.993880,-0.406448,-2.182972,1.801708,3.888521,0.000000,0.000000,0.000000,0.000000,0.000000,0.000000
5983.910000,3.664000,1,START a_bow,Transition,transition,transition A->D,A-D,0.534958,0.301483,0.791880,0.100406,-1.542985,-2.354981,1.347565,1.265599,-2.994449,-0.405385,-2.183426,1.801778,3.888609,0.000000,0.000000,0.000000,0.000000,0.000000,0.000000
5983.918000,3.672000,1,START a_bow,Transition,transition,transition A->D,A-D,0.526958,0.301439,0.791978,0.100366,-1.543007,-2.354993,1.347540,1.265681,-2.994899,-0.404543,-2.183784,1.801833,3.888678,0.000000,0.000000,0.000000,0.000000,0.000000,0.000000
5983.926000,3.680000,1,START a_bow,Transition,transition,transition A->D,A-D,0.518958,0.301406,0.792049,0.100336,-1.543022,-2.355001,1.347521,1.265741,-2.995229,-0.403925,-2.184048,1.801873,3.888728,0.000000,0.000000,0.000000,0.000000,0.000000,0.000000
5983.934000,3.688000,1,START a_bow,Transition,transition,transition A->D,A-D,0.510958,0.301385,0.792095,0.100317,-1.543032,-2.355007,1.347509,1.265780,-2.995440,-0.403531,-2.184216,1.801899,3.888760,0.000000,0.000000,0.000000,0.000000,0.000000,0.000000
5983.942000,3.696000,1,START a_bow,Transition,transition,transition A->D,A-D,0.502958,0.301376,0.792115,0.100309,-1.543036,-2.355009,1.347504,1.265796,-2.995530,-0.403362,-2.184288,1.801910,3.888774,0.000000,0.000000,0.000000,0.000000,0.000000,0.000000
5983.950000,3.704000,2,END a_bow,Transition,transition,transition A->D,A-D,0.494958,0.301376,0.792115,0.100309,-1.543037,-2.355009,1.347504,1.265797,-2.995534,-0.403355,-2.184291,1.801911,3.888775,0.000000,0.000000,0.000000,0.000000,0.000000,0.000000
5983.958000,3.712000,2,END a_bow,Transition,transition,transition A->D,A-D,0.486958,0.301376,0.792115,0.100309,-1.543037,-2.355009,1.347504,1.265797,-2.995534,-0.403355,-2.184291,1.801911,3.888775,0.000000,0.000000,0.000000,0.000000,0.000000,0.000000
5983.966000,3.720000,2,END a_bow,Transition,transition,transition A->D,A-D,0.478958,0.301376,0.792115,0.100309,-1.543037,-2.355009,1.347504,1.265797,-2.995534,-0.403355,-2.184291,1.801911,3.888775,0.000000,0.000000,0.000000,0.000000,0.000000,0.000000
5983.974000,3.728000,1,START a_bow,Transition,transition,transition A->D,A-D,0.470958,0.301377,0.792113,0.100310,-1.543036,-2.355009,1.347504,1.265795,-2.995525,-0.403372,-2.184284,1.801909,3.888773,0.000000,0.000000,0.000000,0.000000,0.000000,0.000000
5983.982000,3.736000,1,START a_bow,Transition,transition,transition A->D,A-D,0.462958,0.301388,0.792089,0.100320,-1.543031,-2.355006,1.347511,1.265775,-2.995412,-0.403583,-2.184194,1.801896,3.888756,0.000000,0.000000,0.000000,0.000000,0.000000,0.000000
5983.990000,3.744000,1,START a_bow,Transition,transition,transition A->D,A-D,0.454958,0.301412,0.792036,0.100341,-1.543019,-2.355000,1.347524,1.265731,-2.995169,-0.404037,-2.184000,1.801866,3.888719,0.000000,0.000000,0.000000,0.000000,0.000000,0.000000
5983.998000,3.752000,1,START a_bow,Transition,transition,transition A->D,A-D,0.446958,0.301448,0.791956,0.100375,-1.543002,-2.354990,1.347546,1.265663,-2.994798,-0.404731,-2.183704,1.801821,3.888662,0.000000,0.000000,0.000000,0.000000,0.000000,0.000000
5984.006000,3.760000,1,START a_bow,Transition,transition,transition A->D,A-D,0.438958,0.301498,0.791847,0.100419,-1.542978,-2.354978,1.347574,1.265572,-2.994299,-0.405664,-2.183307,1.801759,3.888586,0.000000,0.000000,0.000000,0.000000,0.000000,0.000000
5984.014000,3.768000,1,START a_bow,Transition,transition,transition A->D,A-D,0.430958,0.301560,0.791711,0.100476,-1.542948,-2.354962,1.347610,1.265458,-2.993672,-0.406836,-2.182808,1.801682,3.888490,0.000000,0.000000,0.000000,0.000000,0.000000,0.000000
5984.022000,3.776000,1,START a_bow,Transition,transition,transition A->D,A-D,0.422958,0.301634,0.791546,0.100543,-1.542913,-2.354943,1.347653,1.265319,-2.992919,-0.408242,-2.182209,1.801589,3.888374,0.000000,0.000000,0.000000,0.000000,0.000000,0.000000
5984.030000,3.784000,1,START a_bow,Transition,transition,transition A->D,A-D,0.414958,0.301722,0.791353,0.100623,-1.542871,-2.354920,1.347703,1.265158,-2.992041,-0.409882,-2.181512,1.801481,3.888238,0.000000,0.000000,0.000000,0.000000,0.000000,0.000000
5984.038000,3.792000,1,START a_bow,Transition,transition,transition A->D,A-D,0.406958,0.301822,0.791132,0.100714,-1.542823,-2.354895,1.347761,1.264973,-2.991040,-0.411752,-2.180717,1.801356,3.888082,0.000000,0.000000,0.000000,0.000000,0.000000,0.000000
5984.046000,3.800000,1,START a_bow,Transition,transition,transition A->D,A-D,0.398958,0.301934,0.790884,0.100816,-1.542768,-2.354866,1.347826,1.264764,-2.989916,-0.413849,-2.179828,1.801216,3.887907,0.000000,0.000000,0.000000,0.000000,0.000000,0.000000
5984.054000,3.808000,1,START a_bow,Transition,transition,transition A->D,A-D,0.390958,0.302060,0.790607,0.100930,-1.542708,-2.354833,1.347899,1.264532,-2.988672,-0.416168,-2.178845,1.801059,3.887712,0.000000,0.000000,0.000000,0.000000,0.000000,0.000000
5984.062000,3.816000,1,START a_bow,Transition,transition,transition A->D,A-D,0.382958,0.302198,0.790302,0.101055,-1.542642,-2.354798,1.347979,1.264275,-2.987309,-0.418707,-2.177770,1.800887,3.887497,0.000000,0.000000,0.000000,0.000000,0.000000,0.000000
5984.070000,3.824000,1,START a_bow,Transition,transition,transition A->D,A-D,0.374958,0.302349,0.789969,0.101193,-1.542569,-2.354759,1.348066,1.263996,-2.985830,-0.421461,-2.176607,1.800698,3.887263,0.000000,0.000000,0.000000,0.000000,0.000000,0.000000
5984.078000,3.832000,1,START a_bow,Transition,transition,transition A->D,A-D,0.366958,0.302513,0.789608,0.101341,-1.542491,-2.354717,1.348160,1.263692,-2.984236,-0.424426,-2.175356,1.800494,3.887008,0.000000,0.000000,0.000000,0.000000,0.000000,0.000000
5984.086000,3.840000,1,START a_bow,Transition,transition,transition A->D,A-D,0.358958,0.302689,0.789219,0.101501,-1.542406,-2.354672,1.348262,1.263365,-2.982530,-0.427596,-2.174022,1.800273,3.886734,0.000000,0.000000,0.000000,0.000000,0.000000,0.000000
5984.094000,3.848000,1,START a_bow,Transition,transition,transition A->D,A-D,0.350958,0.302878,0.788802,0.101673,-1.542315,-2.354623,1.348371,1.263014,-2.980714,-0.430968,-2.172605,1.800036,3.886439,0.000000,0.000000,0.000000,0.000000,0.000000,0.000000
5984.102000,3.856000,1,START a_bow,Transition,transition,transition A->D,A-D,0.342958,0.303080,0.788357,0.101856,-1.542218,-2.354571,1.348488,1.262639,-2.978791,-0.434536,-2.171110,1.799783,3.886125,0.000000,0.000000,0.000000,0.000000,0.000000,0.000000
5984.118000,3.872000,1,START a_bow,Transition,transition,transition A->D,A-D,0.326958,0.303521,0.787383,0.102257,-1.542006,-2.354458,1.348743,1.261817,-2.974631,-0.442239,-2.167891,1.799228,3.885437,0.000000,0.000000,0.000000,0.000000,0.000000,0.000000
