Praneshv25/Robot-Cello-RL/nn_predicted_log.csv
event,string,bow_dir,tcp_x,tcp_y,tcp_z,tcp_rx,tcp_ry,tcp_rz,from,to,q0,q1,q2,q3,q4,q5,timestamp
note,G,up,0.27,0.272,0.152,0.0,-0.052866242834671784,-2.4227626539681686,,,-2.077160433283093,0.0769592416556012,1.7757281960088815,-4.228725449334602,0.630393005343775,-0.4744383166396515,0.0
note,G,up,0.27,0.272,0.152,0.0,-0.052866242834671784,-2.4227626539681686,,,-2.077160433283093,0.0769592416556012,1.7757281960088815,-4.228725449334602,0.630393005343775,-0.4744383166396515,0.01
note,G,up,0.27,0.272,0.152,0.0,-0.052866242834671784,-2.4227626539681686,,,-2.077160433283093,0.0769592416556012,1.7757281960088815,-4.228725449334602,0.630393005343775,-0.4744383166396515,0.02
note,G,up,0.27,0.272,0.152,0.0,-0.052866242834671784,-2.4227626539681686,,,-2.077160433283093,0.0769592416556012,1.7757281960088815,-4.228725449334602,0.630393005343775,-0.4744383166396515,0.03
note,G,up,0.27,0.272,0.15200000000000002,0.0,-0.052866242834671784,-2.4227626539681686,,,-2.077160433283093,0.0769592416556012,1.7757281960088815,-4.228725449334602,0.630393005343775,-0.4744383166396515,0.04
note,G,up,0.27,0.272,0.152,0.0,-0.052866242834671784,-2.4227626539681686,,,-2.077160433283093,0.0769592416556012,1.7757281960088815,-4.228725449334602,0.630393005343775,-0.4744383166396515,0.05
note,G,up,0.27,0.272,0.152,0.0,-0.052866242834671784,-2.4227626539681686,,,-2.077160433283093,0.0769592416556012,1.7757281960088815,-4.228725449334602,0.630393005343775,-0.4744383166396515,0.06
note,G,up,0.27,0.272,0.15199999999999997,0.0,-0.052866242834671784,-2.4227626539681686,,,-2.077160433283093,0.0769592416556012,1.7757281960088815,-4.228725449334602,0.630393005343775,-0.4744383166396515,0.07
note,G,up,0.27,0.272,0.15200000000000002,0.0,-0.052866242834671784,-2.4227626539681686,,,-2.077160433283093,0.0769592416556012,1.7757281960088815,-4.228725449334602,0.630393005343775,-0.4744383166396515,0.08
note,G,up,0.27,0.272,0.152,0.0,-0.052866242834671784,-2.4227626539681686,,,-2.077160433283093,0.0769592416556012,1.7757281960088815,-4.228725449334602,0.630393005343775,-0.4744383166396515,0.09
note,G,up,0.27,0.272,0.152,0.0,-0.052866242834671784,-2.4227626539681686,,,-2.077160433283093,0.0769592416556012,1.7757281960088815,-4.228725449334602,0.630393005343775,-0.4744383166396515,0.1
note,G,up,0.27,0.272,0.15200000000000002,0.0,-0.052866242834671784,-2.4227626539681686,,,-2.077160433283093,0.0769592416556012,1.7757281960088815,-4.228725449334602,0.630393005343775,-0.4744383166396515,0.11
note,G,up,0.27,0.272,0.152,0.0,-0.052866242834671784,-2.4227626539681686,,,-2.077160433283093,0.0769592416556012,1.7757281960088815,-4.228725449334602,0.630393005343775,-0.4744383166396515,0.12
note,G,up,0.27,0.272,0.152,0.0,-0.052866242834671784,-2.4227626539681686,,,-2.077160433283093,0.0769592416556012,1.7757281960088815,-4.228725449334602,0.630393005343775,-0.4744383166396515,0.13
note,G,up,0.27,0.272,0.152,0.0,-0.052866242834671784,-2.4227626539681686,,,-2.077160433283093,0.0769592416556012,1.7757281960088815,-4.228725449334602,0.630393005343775,-0.4744383166396515,0.14
note,G,up,0.27,0.272,0.152,0.0,-0.052866242834671784,-2.4227626539681686,,,-2.077160433283093,0.0769592416556012,1.7757281960088815,-4.228725449334602,0.630393005343775,-0.4744383166396515,0.15
note,G,up,0.27,0.272,0.152,0.0,-0.052866242834671784,-2.4227626539681686,,,-2.077160433283093,0.0769592416556012,1.7757281960088815,-4.228725449334602,0.630393005343775,-0.4744383166396515,0.16
note,G,up,0.27,0.272,0.152,0.0,-0.052866242834671784,-2.4227626539681686,,,-2.077160433283093,0.0769592416556012,1.7757281960088815,-4.228725449334602,0.630393005343775,-0.4744383166396515,0.17
note,G,up,0.27,0.272,0.152,0.0,-0.052866242834671784,-2.4227626539681686,,,-2.077160433283093,0.0769592416556012,1.7757281960088815,-4.228725449334602,0.630393005343775,-0.4744383166396515,0.18
note,G,up,0.27,0.272,0.152,0.0,-0.052866242834671784,-2.4227626539681686,,,-2.077160433283093,0.0769592416556012,1.7757281960088815,-4.228725449334602,0.630393005343775,-0.4744383166396515,0.19
note,G,up,0.27,0.272,0.152,0.0,-0.052866242834671784,-2.4227626539681686,,,-2.077160433283093,0.0769592416556012,1.7757281960088815,-4.228725449334602,0.630393005343775,-0.4744383166396515,0.2
note,G,up,0.27,0.272,0.152,0.0,-0.052866242834671784,-2.4227626539681686,,,-2.077160433283093,0.0769592416556012,1.7757281960088815,-4.228725449334602,0.630393005343775,-0.4744383166396515,0.21
note,G,up,0.27,0.272,0.152,0.0,-0.052866242834671784,-2.4227626539681686,,,-2.077160433283093,0.0769592416556012,1.7757281960088815,-4.228725449334602,0.630393005343775,-0.4744383166396515,0.22
note,G,up,0.27,0.272,0.152,0.0,-0.052866242834671784,-2.4227626539681686,,,-2.077160433283093,0.0769592416556012,1.7757281960088815,-4.228725449334602,0.630393005343775,-0.4744383166396515,0.23
note,G,up,0.27,0.272,0.152,0.0,-0.052866242834671784,-2.4227626539681686,,,-2.077160433283093,0.0769592416556012,1.7757281960088815,-4.228725449334602,0.630393005343775,-0.4744383166396515,0.24
cross,,,0.27,0.272,0.152,0.0,-0.052866242834671784,-2.4227626539681686,G,D,-2.077160433283093,0.0769592416556012,1.7757281960088815,-4.228725449334602,0.630393005343775,-0.4744383166396515,0.25
cross,,,0.2795,0.28750000000000003,0.16549999999999998,-6.141329678133189e-07,-0.0527701678164072,-2.4185071292987743,G,D,-2.0654675973342576,0.03744740737846064,1.8021804574879225,-4.207351196904241,0.6421015562899153,-0.4592009817995675,0.26
cross,,,0.28900000000000003,0.30300000000000005,0.179,-8.188410418608072e-07,-0.05267409105827281,-2.414251626264054,G,D,-2.0583805455942263,0.013473335023426847,1.7944540785320817,-4.168241688124192,0.6501112494547474,-0.4490120528705006,0.27
cross,,,0.2985,0.3185,0.1925,-6.141267461234889e-07,-0.052578014300153963,-2.409996144785314,G,D,-2.0537156041413738,-0.003971150139366775,1.7738892279921066,-4.126605598830743,0.656763655412838,-0.44163685762341354,0.28
cross,,,0.308,0.334,0.206,0.0,-0.05248193928190914,-2.40574068478347,G,D,-2.050253097975164,-0.019461773572788665,1.754667154898091,-4.084071107815195,0.6612050305054287,-0.43781857579079686,0.29
note,D,transition,0.308,0.334,0.206,0.0,-0.05248193928190914,-2.40574068478347,,,-2.050253097975164,-0.019461773572788665,1.754667154898091,-4.084071107815195,0.6612050305054287,-0.43781857579079686,0.3
note,D,transition,0.308,0.334,0.20600000000000002,0.0,-0.05248193928190914,-2.40574068478347,,,-2.050253097975164,-0.019461773572788665,1.754667154898091,-4.084071107815195,0.6612050305054287,-0.43781857579079686,0.31
note,D,transition,0.308,0.334,0.206,0.0,-0.05248193928190914,-2.40574068478347,,,-2.050253097975164,-0.019461773572788665,1.754667154898091,-4.084071107815195,0.6612050305054287,-0.43781857579079686,0.32
note,D,transition,0.308,0.33399999999999996,0.206,0.0,-0.05248193928190914,-2.40574068478347,,,-2.050253097975164,-0.019461773572788665,1.754667154898091,-4.084071107815195,0.6612050305054287,-0.43781857579079686,0.33
note,D,transition,0.308,0.334,0.206,0.0,-0.05248193928190914,-2.40574068478347,,,-2.050253097975164,-0.019461773572788665,1.754667154898091,-4.084071107815195,0.6612050305054287,-0.43781857579079686,0.34
note,D,transition,0.308,0.334,0.206,0.0,-0.05248193928190914,-2.40574068478347,,,-2.050253097975164,-0.019461773572788665,1.754667154898091,-4.084071107815195,0.6612050305054287,-0.43781857579079686,0.35000000000000003
note,D,transition,0.308,0.334,0.206,0.0,-0.05248193928190914,-2.40574068478347,,,-2.050253097975164,-0.019461773572788665,1.754667154898091,-4.084071107815195,0.6612050305054287,-0.43781857579079686,0.36
note,D,transition,0.30799999999999994,0.334,0.20599999999999996,0.0,-0.05248193928190914,-2.40574068478347,,,-2.050253097975164,-0.019461773572788665,1.754667154898091,-4.084071107815195,0.6612050305054287,-0.43781857579079686,0.37
note,D,transition,0.308,0.334,0.206,0.0,-0.05248193928190914,-2.40574068478347,,,-2.050253097975164,-0.019461773572788665,1.754667154898091,-4.084071107815195,0.6612050305054287,-0.43781857579079686,0.38
note,D,transition,0.308,0.334,0.20600000000000002,0.0,-0.05248193928190914,-2.40574068478347,,,-2.050253097975164,-0.019461773572788665,1.754667154898091,-4.084071107815195,0.6612050305054287,-0.43781857579079686,0.39
note,D,transition,0.308,0.334,0.206,0.0,-0.05248193928190914,-2.40574068478347,,,-2.050253097975164,-0.019461773572788665,1.754667154898091,-4.084071107815195,0.6612050305054287,-0.43781857579079686,0.4
note,D,transition,0.308,0.334,0.206,0.0,-0.05248193928190914,-2.40574068478347,,,-2.050253097975164,-0.019461773572788665,1.754667154898091,-4.084071107815195,0.6612050305054287,-0.43781857579079686,0.41000000000000003
note,D,transition,0.308,0.334,0.206,0.0,-0.05248193928190914,-2.40574068478347,,,-2.050253097975164,-0.019461773572788665,1.754667154898091,-4.084071107815195,0.6612050305054287,-0.43781857579079686,0.42
note,D,transition,0.308,0.334,0.206,0.0,-0.05248193928190914,-2.40574068478347,,,-2.050253097975164,-0.019461773572788665,1.754667154898091,-4.084071107815195,0.6612050305054287,-0.43781857579079686,0.43
note,D,transition,0.308,0.334,0.206,0.0,-0.05248193928190914,-2.40574068478347,,,-2.050253097975164,-0.019461773572788665,1.754667154898091,-4.084071107815195,0.6612050305054287,-0.43781857579079686,0.44
note,D,transition,0.308,0.334,0.206,0.0,-0.05248193928190914,-2.40574068478347,,,-2.050253097975164,-0.019461773572788665,1.754667154898091,-4.084071107815195,0.6612050305054287,-0.43781857579079686,0.45
note,D,transition,0.308,0.334,0.20600000000000002,0.0,-0.05248193928190914,-2.40574068478347,,,-2.050253097975164,-0.019461773572788665,1.754667154898091,-4.084071107815195,0.6612050305054287,-0.43781857579079686,0.46
note,D,transition,0.308,0.334,0.206,0.0,-0.05248193928190914,-2.40574068478347,,,-2.050253097975164,-0.019461773572788665,1.754667154898091,-4.084071107815195,0.6612050305054287,-0.43781857579079686,0.47000000000000003
note,D,transition,0.308,0.334,0.206,0.0,-0.05248193928190914,-2.40574068478347,,,-2.050253097975164,-0.019461773572788665,1.754667154898091,-4.084071107815195,0.6612050305054287,-0.43781857579079686,0.48
note,D,transition,0.308,0.334,0.206,0.0,-0.05248193928190914,-2.40574068478347,,,-2.050253097975164,-0.019461773572788665,1.754667154898091,-4.084071107815195,0.6612050305054287,-0.43781857579079686,0.49
note,D,down,0.308,0.334,0.206,0.0,-0.05248193928190914,-2.40574068478347,,,-2.050253097975164,-0.019461773572788665,1.754667154898091,-4.084071107815195,0.6612050305054287,-0.43781857579079686,0.5
note,D,down,0.30270833333333336,0.3292083333333334,0.20637499999999998,0.0,-0.05248193928190914,-2.40574068478347,,,-2.0574367407734866,-0.023094776972982456,1.762437042042496,-4.0856407117270725,0.657949449276297,-0.44754539314828934,0.51
note,D,down,0.29741666666666666,0.3244166666666667,0.20675,0.0,-0.05248193928190914,-2.40574068478347,,,-2.0646203488143215,-0.026727971217260116,1.770207018832894,-4.087210822780763,0.654693635356062,-0.45727248796694697,0.52
note,D,down,0.292125,0.319625,0.207125,0.0,-0.05248193928190914,-2.40574068478347,,,-2.0718039568551565,-0.030361165461537665,1.7779769657412943,-4.0887811874053615,0.6514380541269302,-0.46699888913269083,0.53
note,D,down,0.28683333333333333,0.31483333333333335,0.2075,0.0,-0.05248193928190914,-2.40574068478347,,,-2.0790486338018628,-0.033882047962531914,1.7856904057921568,-4.090181913093442,0.6482690339883024,-0.4768078349952485,0.54
note,D,down,0.28154166666666663,0.31004166666666666,0.207875,0.0,-0.05248193928190914,-2.40574068478347,,,-2.0866199963753695,-0.03739539212221821,1.7941137524609574,-4.0909261437043245,0.644887334181071,-0.48748551176780275,0.55
note,D,down,0.27625,0.30525,0.20825,0.0,-0.05248193928190914,-2.40574068478347,,,-2.0954512657414144,-0.04111637464501805,1.8025703577931318,-4.092581201011727,0.640448053308412,-0.49947308270391355,0.56
note,D,down,0.2709583333333333,0.3004583333333333,0.20862499999999998,0.0,-0.05248193928190914,-2.40574068478347,,,-2.104324087683993,-0.04399687982300915,1.8094494625878825,-4.093335574458874,0.6360343684571386,-0.5115000531255629,0.5700000000000001
note,D,down,0.26566666666666666,0.2956666666666667,0.209,0.0,-0.05248193928190914,-2.40574068478347,,,-2.1131968053541086,-0.0468772895789582,1.8163285076186382,-4.094090201476927,0.6316211489880721,-0.5235266073554632,0.58
note,D,down,0.260375,0.290875,0.209375,0.0,-0.05248193928190914,-2.40574068478347,,,-2.1220696794329186,-0.049757651623886456,1.8232074928853985,-4.094844574924074,0.6272074641367982,-0.5355534390465291,0.59
note,D,down,0.25508333333333333,0.28608333333333336,0.20975,0.0,-0.05248193928190914,-2.40574068478347,,,-2.1309423797242903,-0.052637918246772775,1.8300864781521589,-4.0955989483712205,0.6227940119766284,-0.5475802707375954,0.6
note,D,down,0.2497916666666667,0.2812916666666667,0.210125,0.0,-0.05248193928190914,-2.40574068478347,,,-2.1398465529207655,-0.05567796907877387,1.8368562745995418,-4.09613804011866,0.6184368710635062,-0.5596119579990622,0.61
note,D,down,0.2445,0.2765,0.2105,0.0,-0.05248193928190914,-2.40574068478347,,,-2.148949399916878,-0.05971980821736844,1.8429525905841104,-4.095348673886402,0.614491826094691,-0.5716806863261583,0.62
note,D,down,0.2392083333333333,0.27170833333333333,0.21087499999999998,0.0,-0.05248193928190914,-2.40574068478347,,,-2.1591795538899903,-0.06144804452873376,1.8451852838017926,-4.0922193553280035,0.6090515080947552,-0.5846908403886806,0.63
note,D,down,0.23391666666666666,0.2669166666666667,0.21125,0.0,-0.05248193928190914,-2.40574068478347,,,-2.1700891124749826,-0.061776487196857244,1.8450687440109959,-4.087648993307376,0.6026448239419655,-0.5982634082342,0.64
note,D,down,0.228625,0.262125,0.211625,0.0,-0.05248193928190914,-2.40574068478347,,,-2.180998688438719,-0.062105072998043576,1.8449521743382014,-4.083078631286748,0.5962381397891758,-0.6118359760797194,0.65
note,D,down,0.22333333333333333,0.25733333333333336,0.21199999999999997,0.0,-0.05248193928190914,-2.40574068478347,,,-2.1919532579702707,-0.062233558777424314,1.8448411029529728,-4.078699461729698,0.5897018466917343,-0.6254572383598296,0.66
note,D,down,0.21804166666666666,0.25254166666666666,0.21237499999999998,0.0,-0.05248193928190914,-2.40574068478347,,,-2.203007581491493,-0.06214720182953004,1.8448504261362366,-4.074671741449202,0.5829170394957497,-0.6391521665794497,0.67
note,D,down,0.21275,0.24775000000000003,0.21275,0.0,-0.05248193928190914,-2.40574068478347,,,-2.2141151187263692,-0.06193340874471576,1.8444365007049246,-4.070131807937367,0.5760335712718792,-0.652853476405882,0.68
note,D,down,0.20745833333333333,0.24295833333333333,0.213125,0.0,-0.05248193928190914,-2.40574068478347,,,-2.2251491438747806,-0.0613640731318863,1.8428847285674694,-4.064318948474379,0.5693067041606672,-0.6665189937419314,0.6900000000000001
note,D,down,0.20216666666666666,0.23816666666666664,0.2135,0.0,-0.05248193928190914,-2.40574068478347,,,-2.2361831603338196,-0.060794832941098775,1.8413323886720592,-4.0585060890113915,0.5625798370494552,-0.6801846498085633,0.7000000000000001
note,D,down,0.196875,0.233375,0.21387499999999998,0.0,-0.05248193928190914,-2.40574068478347,,,-2.2472172376184627,-0.060225497328269206,1.8397803475966252,-4.052693483119311,0.55585273724714,-0.6938500284140297,0.71
note,D,down,0.19158333333333333,0.22858333333333333,0.21425,0.0,-0.05248193928190914,-2.40574068478347,,,-2.2582512106306423,-0.059656304848502595,1.8382283065211913,-4.046880370085417,0.5491261028270316,-0.7075158232112446,0.72
note,D,down,0.18629166666666663,0.22379166666666667,0.214625,0.0,-0.05248193928190914,-2.40574068478347,,,-2.26928521840031,-0.059086921524652225,1.836676145917767,-4.04106751062243,0.5423990030247161,-0.721181340547294,0.73
note,D,down,0.181,0.219,0.215,0.0,-0.05248193928190914,-2.40574068478347,,,-2.2804201445354857,-0.05839673389579181,1.8350387917390703,-4.0350786729502595,0.535472137910042,-0.734933980689392,0.74
note,D,up,0.181,0.219,0.215,0.0,-0.05248193928190914,-2.40574068478347,,,-2.2804201445354857,-0.05839673389579181,1.8350387917390703,-4.0350786729502595,0.535472137910042,-0.734933980689392,0.75
note,D,up,0.18629166666666666,0.22379166666666667,0.214625,0.0,-0.05248193928190914,-2.40574068478347,,,-2.26928521840031,-0.059086921524652225,1.836676145917767,-4.04106751062243,0.5423990030247161,-0.721181340547294,0.76
note,D,up,0.19158333333333333,0.2285833333333333,0.21425,0.0,-0.05248193928190914,-2.40574068478347,,,-2.2582512106306423,-0.059656304848502595,1.8382283065211913,-4.046880370085417,0.5491261028270316,-0.7075158232112446,0.77
note,D,up,0.196875,0.233375,0.21387499999999998,0.0,-0.05248193928190914,-2.40574068478347,,,-2.2472172376184627,-0.060225497328269206,1.8397803475966252,-4.052693483119311,0.55585273724714,-0.6938500284140297,0.78
note,D,up,0.20216666666666666,0.23816666666666667,0.2135,0.0,-0.05248193928190914,-2.40574068478347,,,-2.2361831603338196,-0.060794832941098775,1.8413323886720592,-4.0585060890113915,0.5625798370494552,-0.6801846498085633,0.79
note,D,up,0.2074583333333333,0.24295833333333333,0.21312499999999998,0.0,-0.05248193928190914,-2.40574068478347,,,-2.2251491438747806,-0.0613640731318863,1.8428847285674694,-4.064318948474379,0.5693067041606672,-0.6665189937419314,0.8
note,D,up,0.21275,0.24775000000000003,0.21275,0.0,-0.05248193928190914,-2.40574068478347,,,-2.2141151187263692,-0.06193340874471576,1.8444365007049246,-4.070131807937367,0.5760335712718792,-0.652853476405882,0.81
note,D,up,0.21804166666666663,0.25254166666666666,0.21237499999999998,0.0,-0.05248193928190914,-2.40574068478347,,,-2.203007581491493,-0.06214720182953004,1.8448504261362366,-4.074671741449202,0.5829170394957497,-0.6391521665794497,0.8200000000000001
note,D,up,0.22333333333333333,0.25733333333333336,0.212,0.0,-0.05248193928190914,-2.40574068478347,,,-2.1919532579702707,-0.062233558777424314,1.8448411029529728,-4.078699461729698,0.5897018466917343,-0.6254572383598296,0.8300000000000001
note,D,up,0.228625,0.262125,0.211625,0.0,-0.05248193928190914,-2.40574068478347,,,-2.180998688438719,-0.062105072998043576,1.8449521743382014,-4.083078631286748,0.5962381397891758,-0.6118359760797194,0.84
note,D,up,0.23391666666666666,0.2669166666666667,0.21125,0.0,-0.05248193928190914,-2.40574068478347,,,-2.1700891124749826,-0.061776487196857244,1.8450687440109959,-4.087648993307376,0.6026448239419655,-0.5982634082342,0.85
note,D,up,0.23920833333333336,0.2717083333333334,0.210875,0.0,-0.05248193928190914,-2.40574068478347,,,-2.1591795538899903,-0.06144804452873376,1.8451852838017926,-4.0922193553280035,0.6090515080947552,-0.5846908403886806,0.86
note,D,up,0.2445,0.2765,0.2105,0.0,-0.05248193928190914,-2.40574068478347,,,-2.148949399916878,-0.05971980821736844,1.8429525905841104,-4.095348673886402,0.614491826094691,-0.5716806863261583,0.87
note,D,up,0.2497916666666667,0.28129166666666666,0.210125,0.0,-0.05248193928190914,-2.40574068478347,,,-2.1398465529207655,-0.05567796907877387,1.8368562745995418,-4.09613804011866,0.6184368710635062,-0.5596119579990622,0.88
note,D,up,0.25508333333333333,0.28608333333333336,0.20975,0.0,-0.05248193928190914,-2.40574068478347,,,-2.1309423797242903,-0.052637918246772775,1.8300864781521589,-4.0955989483712205,0.6227940119766284,-0.5475802707375954,0.89
note,D,up,0.260375,0.290875,0.209375,0.0,-0.05248193928190914,-2.40574068478347,,,-2.1220696794329186,-0.049757651623886456,1.8232074928853985,-4.094844574924074,0.6272074641367982,-0.5355534390465291,0.9
note,D,up,0.26566666666666666,0.2956666666666667,0.20899999999999996,0.0,-0.05248193928190914,-2.40574068478347,,,-2.1131968053541086,-0.0468772895789582,1.8163285076186382,-4.094090201476927,0.6316211489880721,-0.5235266073554632,0.91
note,D,up,0.27095833333333336,0.3004583333333334,0.208625,0.0,-0.05248193928190914,-2.40574068478347,,,-2.104324087683993,-0.04399687982300915,1.8094494625878825,-4.093335574458874,0.6360343684571386,-0.5115000531255629,0.92
note,D,up,0.27625,0.30525,0.20825,0.0,-0.05248193928190914,-2.40574068478347,,,-2.0954512657414144,-0.04111637464501805,1.8025703577931318,-4.092581201011727,0.640448053308412,-0.49947308270391355,0.93
note,D,up,0.28154166666666663,0.3100416666666667,0.207875,0.0,-0.05248193928190914,-2.40574068478347,,,-2.0866199963753695,-0.03739539212221821,1.7941137524609574,-4.0909261437043245,0.644887334181071,-0.48748551176780275,0.9400000000000001
note,D,up,0.28683333333333333,0.31483333333333335,0.2075,0.0,-0.05248193928190914,-2.40574068478347,,,-2.0790486338018628,-0.033882047962531914,1.7856904057921568,-4.090181913093442,0.6482690339883024,-0.4768078349952485,0.9500000000000001
note,D,up,0.292125,0.319625,0.207125,0.0,-0.05248193928190914,-2.40574068478347,,,-2.0718039568551565,-0.030361165461537665,1.7779769657412943,-4.0887811874053615,0.6514380541269302,-0.46699888913269083,0.96
note,D,up,0.29741666666666666,0.3244166666666667,0.20675,0.0,-0.05248193928190914,-2.40574068478347,,,-2.0646203488143215,-0.026727971217260116,1.770207018832894,-4.087210822780763,0.654693635356062,-0.45727248796694697,0.97
note,D,up,0.30270833333333336,0.3292083333333334,0.20637499999999998,0.0,-0.05248193928190914,-2.40574068478347,,,-2.0574367407734866,-0.023094776972982456,1.762437042042496,-4.0856407117270725,0.657949449276297,-0.44754539314828934,0.98
note,D,up,0.308,0.334,0.206,0.0,-0.05248193928190914,-2.40574068478347,,,-2.050253097975164,-0.019461773572788665,1.754667154898091,-4.084071107815195,0.6612050305054287,-0.43781857579079686,0.99
cross,,,0.308,0.334,0.206,0.0,-0.05248193928190914,-2.40574068478347,D,A,-2.050253097975164,-0.019461773572788665,1.754667154898091,-4.084071107815195,0.6612050305054287,-0.43781857579079686,1.0
cross,,,0.3185,0.3535,0.2185,2.710203361200314e-05,-0.056854811717706344,-2.4016171698835356,D,A,-2.0439062416929827,-0.037254024367184835,1.7401305790340575,-4.0415186132652785,0.6617816390599125,-0.4329374789627334,1.01
cross,,,0.32899999999999996,0.373,0.23099999999999998,3.614549551422819e-05,-0.06122775856925444,-2.3974927077225416,D,A,-2.0377224675430443,-0.05703210327497987,1.7309821158105199,-4.002026212416257,0.6644910942691191,-0.42864127027209387,1.02
cross,,,0.33949999999999997,0.3925,0.2435,2.7116568671825547e-05,-0.06560070545571195,-2.3933671397526517,D,A,-2.031735212228506,-0.07974345574992114,1.7170759006867062,-3.9560106999948514,0.666086889856953,-0.42366916618166073,1.03
cross,,,0.35,0.412,0.256,0.0,-0.06997357793639436,-2.3892403072112747,D,A,-2.0257756586316567,-0.10277933858926919,1.702746765650291,-3.9093511174706714,0.6675433034737881,-0.41862117646239216,1.04
note,A,transition,0.35,0.412,0.256,0.0,-0.06997357793639414,-2.3892403072112747,,,-2.0257756586316567,-0.10277933858926919,1.702746765650291,-3.9093511174706714,0.6675433034737881,-0.41862117646239216,1.05
note,A,transition,0.35,0.41200000000000003,0.256,0.0,-0.06997357793639414,-2.3892403072112747,,,-2.0257756586316567,-0.10277933858926919,1.702746765650291,-3.9093511174706714,0.6675433034737881,-0.41862117646239216,1.06
note,A,transition,0.35,0.412,0.256,0.0,-0.06997357793639414,-2.3892403072112747,,,-2.0257756586316567,-0.10277933858926919,1.702746765650291,-3.9093511174706714,0.6675433034737881,-0.41862117646239216,1.07
note,A,transition,0.35,0.412,0.256,0.0,-0.06997357793639414,-2.3892403072112747,,,-2.0257756586316567,-0.10277933858926919,1.702746765650291,-3.9093511174706714,0.6675433034737881,-0.41862117646239216,1.08
note,A,transition,0.35,0.412,0.256,0.0,-0.06997357793639414,-2.3892403072112747,,,-2.0257756586316567,-0.10277933858926919,1.702746765650291,-3.9093511174706714,0.6675433034737881,-0.41862117646239216,1.09
note,A,transition,0.35000000000000003,0.412,0.256,0.0,-0.06997357793639414,-2.3892403072112747,,,-2.0257756586316567,-0.10277933858926919,1.702746765650291,-3.9093511174706714,0.6675433034737881,-0.41862117646239216,1.1
note,A,transition,0.35,0.412,0.256,0.0,-0.06997357793639414,-2.3892403072112747,,,-2.0257756586316567,-0.10277933858926919,1.702746765650291,-3.9093511174706714,0.6675433034737881,-0.41862117646239216,1.11
note,A,transition,0.35,0.4119999999999999,0.256,0.0,-0.06997357793639414,-2.3892403072112747,,,-2.0257756586316567,-0.10277933858926919,1.702746765650291,-3.9093511174706714,0.6675433034737881,-0.41862117646239216,1.12
note,A,transition,0.35,0.412,0.256,0.0,-0.06997357793639414,-2.3892403072112747,,,-2.0257756586316567,-0.10277933858926919,1.702746765650291,-3.9093511174706714,0.6675433034737881,-0.41862117646239216,1.1300000000000001
note,A,transition,0.35,0.41200000000000003,0.256,0.0,-0.06997357793639414,-2.3892403072112747,,,-2.0257756586316567,-0.10277933858926919,1.702746765650291,-3.9093511174706714,0.6675433034737881,-0.41862117646239216,1.1400000000000001
note,A,transition,0.35,0.412,0.256,0.0,-0.06997357793639414,-2.3892403072112747,,,-2.0257756586316567,-0.10277933858926919,1.702746765650291,-3.9093511174706714,0.6675433034737881,-0.41862117646239216,1.1500000000000001
note,A,transition,0.35,0.412,0.256,0.0,-0.06997357793639414,-2.3892403072112747,,,-2.0257756586316567,-0.10277933858926919,1.702746765650291,-3.9093511174706714,0.6675433034737881,-0.41862117646239216,1.16
note,A,transition,0.35,0.412,0.256,0.0,-0.06997357793639414,-2.3892403072112747,,,-2.0257756586316567,-0.10277933858926919,1.702746765650291,-3.9093511174706714,0.6675433034737881,-0.41862117646239216,1.17
note,A,transition,0.35,0.412,0.256,0.0,-0.06997357793639414,-2.3892403072112747,,,-2.0257756586316567,-0.10277933858926919,1.702746765650291,-3.9093511174706714,0.6675433034737881,-0.41862117646239216,1.18
note,A,transition,0.35,0.412,0.256,0.0,-0.06997357793639414,-2.3892403072112747,,,-2.0257756586316567,-0.10277933858926919,1.702746765650291,-3.9093511174706714,0.6675433034737881,-0.41862117646239216,1.19
note,A,transition,0.35,0.412,0.256,0.0,-0.06997357793639414,-2.3892403072112747,,,-2.0257756586316567,-0.10277933858926919,1.702746765650291,-3.9093511174706714,0.6675433034737881,-0.41862117646239216,1.2
note,A,transition,0.35,0.41200000000000003,0.256,0.0,-0.06997357793639414,-2.3892403072112747,,,-2.0257756586316567,-0.10277933858926919,1.702746765650291,-3.9093511174706714,0.6675433034737881,-0.41862117646239216,1.21
note,A,transition,0.35,0.412,0.256,0.0,-0.06997357793639414,-2.3892403072112747,,,-2.0257756586316567,-0.10277933858926919,1.702746765650291,-3.9093511174706714,0.6675433034737881,-0.41862117646239216,1.22
note,A,transition,0.35,0.412,0.256,0.0,-0.06997357793639414,-2.3892403072112747,,,-2.0257756586316567,-0.10277933858926919,1.702746765650291,-3.9093511174706714,0.6675433034737881,-0.41862117646239216,1.23
note,A,transition,0.35,0.412,0.256,0.0,-0.06997357793639414,-2.3892403072112747,,,-2.0257756586316567,-0.10277933858926919,1.702746765650291,-3.9093511174706714,0.6675433034737881,-0.41862117646239216,1.24
note,A,down,0.35,0.412,0.256,0.0,-0.06997357793639414,-2.3892403072112747,,,-2.0257756586316567,-0.10277933858926919,1.702746765650291,-3.9093511174706714,0.6675433034737881,-0.41862117646239216,1.25
note,A,down,0.34479166666666666,0.40712499999999996,0.2565,0.0,-0.06997357793639414,-2.3892403072112747,,,-2.0330807788494565,-0.10595708342769156,1.7104733238981178,-3.9110315318687356,0.6635808066722095,-0.42825435067644024,1.26
note,A,down,0.3395833333333333,0.40225,0.257,0.0,-0.06997357793639414,-2.3892403072112747,,,-2.0403073471450766,-0.10881936299568506,1.7173083228643518,-3.9122684507511494,0.6599168525564276,-0.4379924052111459,1.27
note,A,down,0.334375,0.397375,0.2575,0.0,-0.06997357793639414,-2.3892403072112747,,,-2.047965916255198,-0.111581353997671,1.7253564412887845,-3.91322111664726,0.655755404861353,-0.44816579631493036,1.28
note,A,down,0.32916666666666666,0.39249999999999996,0.258,0.0,-0.06997357793639414,-2.3892403072112747,,,-2.0556244853653194,-0.1143434404216988,1.7334044401852267,-3.914173528972464,0.6515932590929676,-0.45833904868813136,1.29
note,A,down,0.3239583333333333,0.387625,0.2585,0.0,-0.06997357793639414,-2.3892403072112747,,,-2.063282950202978,-0.11710533600164291,1.741452439081669,-3.9151259412976684,0.6474315787067892,-0.4685124397919158,1.3
note,A,down,0.31875,0.38275,0.259,0.0,-0.06997357793639414,-2.3892403072112747,,,-2.0709414150406364,-0.11986713615954508,1.7495003782141159,-3.9160783536228725,0.6432698983206113,-0.4786858308956998,1.31
note,A,down,0.3135416666666666,0.37787499999999996,0.2595,0.0,-0.06997357793639414,-2.3892403072112747,,,-2.0785999146357823,-0.12262912716153107,1.7575484368745535,-3.9170307659480765,0.6391079852433297,-0.4888592219994843,1.32
note,A,down,0.30833333333333335,0.373,0.26,0.0,-0.06997357793639414,-2.3892403072112747,,,-2.0862584316096724,-0.12539102274147512,1.7655961668330171,-3.9179834318441875,0.6349458394749443,-0.4990324743726857,1.33
note,A,down,0.303125,0.36812500000000004,0.2605,0.0,-0.06997357793639414,-2.3892403072112747,,,-2.0939168964473307,-0.12815310916550293,1.7736441956114568,-3.9189358441693916,0.6307843917798697,-0.5092058654764697,1.34
note,A,down,0.2979166666666666,0.36324999999999996,0.261,0.0,-0.06997357793639414,-2.3892403072112747,,,-2.10157550031494,-0.13091505245646795,1.7816922542718945,-3.919888002923689,0.626622478702588,-0.5193792565802542,1.35
note,A,down,0.29270833333333335,0.358375,0.2615,0.0,-0.06997357793639414,-2.3892403072112747,,,-2.109233982531342,-0.13367690032539115,1.7897401635223438,-3.920840415248893,0.6224605656253064,-0.5295525089534556,1.36
note,A,down,0.2875,0.3535,0.262,0.0,-0.06997357793639414,-2.3892403072112747,,,-2.1168924647477443,-0.13643898674941896,1.7977880428907955,-3.921793081145004,0.6182986525480247,-0.5397260387878227,1.37
note,A,down,0.28229166666666666,0.34862499999999996,0.2625,0.0,-0.06997357793639414,-2.3892403072112747,,,-2.124550999100378,-0.13920078690732113,1.8058360417872377,-3.9227460006120216,0.6141367394707431,-0.5498992911610237,1.3800000000000001
note,A,down,0.27708333333333335,0.34375,0.263,0.0,-0.06997357793639414,-2.3892403072112747,,,-2.1322094639380365,-0.14196268248726523,1.8138841602116704,-3.923698159366319,0.6099750590845647,-0.5600726822648081,1.3900000000000001
note,A,down,0.271875,0.338875,0.2635,0.0,-0.06997357793639414,-2.3892403072112747,,,-2.139870500829784,-0.14472705904029798,1.8219286330323912,-3.9246561502514683,0.6058119825517654,-0.5702487092496669,1.4000000000000001
note,A,down,0.26666666666666666,0.33399999999999996,0.264,0.0,-0.06997357793639414,-2.3892403072112747,,,-2.1483955393505343,-0.1477722626625601,1.828984400197191,-3.926735685256527,0.6015230201319706,-0.5814159662492062,1.41
note,A,down,0.26145833333333335,0.329125,0.2645,0.0,-0.06997357793639414,-2.3892403072112747,,,-2.15698460116361,-0.1508643185073814,1.8361978247815403,-3.928963305671042,0.5971188756159407,-0.5926050039502577,1.42
note,A,down,0.25625,0.32425,0.265,0.0,-0.06997357793639414,-2.3892403072112747,,,-2.165726908739912,-0.15449598599898906,1.844187494018589,-3.9314247184614457,0.592892507102988,-0.6039046099258649,1.43
note,A,down,0.25104166666666666,0.31937499999999996,0.2655,0.0,-0.06997357793639414,-2.3892403072112747,,,-2.1747278467821167,-0.15874126493085483,1.8509420207651779,-3.932063970716994,0.5892206414896868,-0.6153243565862465,1.44
note,A,down,0.24583333333333332,0.3145,0.266,0.0,-0.06997357793639414,-2.3892403072112747,,,-2.1837696248723573,-0.16273677666812053,1.8565218563025332,-3.9317508106473382,0.585468264754573,-0.6267121952125656,1.45
note,A,down,0.24062499999999998,0.309625,0.2665,0.0,-0.06997357793639414,-2.3892403072112747,,,-2.1928112986901347,-0.16673219298334435,1.8621015723118979,-3.9314371434358693,0.5817158880194593,-0.6381000338388849,1.46
note,A,down,0.23541666666666666,0.30474999999999997,0.267,0.0,-0.06997357793639414,-2.3892403072112747,,,-2.2018530767803757,-0.17072765700958914,1.8676812584392652,-3.9311234762244003,0.5779635112843455,-0.6494881499263696,1.47
note,A,down,0.23020833333333332,0.299875,0.2675,0.0,-0.06997357793639414,-2.3892403072112747,,,-2.2108947853556407,-0.17472316874685484,1.873261123858618,-3.9308103161547447,0.5742111345492318,-0.6608759885526887,1.48
note,A,down,0.225,0.295,0.268,0.0,-0.06997357793639414,-2.3892403072112747,,,-2.2199365460671374,-0.17871848964003678,1.8788408697499805,-3.9304969025141823,0.570458757814118,-0.672263827179008,1.49
cross,,,0.225,0.295,0.268,0.0,-0.06997357793639414,-2.3892403072112747,A,D,-2.2199365460671374,-0.17871848964003678,1.8788408697499805,-3.9304969025141823,0.570458757814118,-0.672263827179008,1.5
cross,,,0.24575000000000002,0.30475,0.2525,2.7116568671825547e-05,-0.06560070545571195,-2.3933671397526517,A,D,-2.1745807530942116,-0.13657968655015923,1.850793596882899,-3.9722488737119503,0.594186269638473,-0.6115750238533213,1.51
cross,,,0.2665,0.3145,0.237,3.614549551422819e-05,-0.061227758569254664,-2.3974927077225416,A,D,-2.130380907268143,-0.09754935189630504,1.8221622504899422,-4.011671542561656,0.6176834172703587,-0.5511492537127762,1.52
cross,,,0.28725,0.32425,0.2215,2.710203361200314e-05,-0.056854811717706344,-2.4016171698835356,A,D,-2.0880734849955984,-0.058342629598050366,1.7851110536219088,-4.047450143912556,0.6412129089656315,-0.4922547917460647,1.53
cross,,,0.308,0.334,0.206,0.0,-0.05248193928190892,-2.40574068478347,A,D,-2.050253097975164,-0.019461773572788665,1.754667154898091,-4.084071107815195,0.6612050305054287,-0.43781857579079686,1.54
note,D,transition,0.308,0.334,0.206,0.0,-0.05248193928190914,-2.40574068478347,,,-2.050253097975164,-0.019461773572788665,1.754667154898091,-4.084071107815195,0.6612050305054287,-0.43781857579079686,1.55
note,D,transition,0.308,0.334,0.20600000000000002,0.0,-0.05248193928190914,-2.40574068478347,,,-2.050253097975164,-0.019461773572788665,1.754667154898091,-4.084071107815195,0.6612050305054287,-0.43781857579079686,1.56
note,D,transition,0.308,0.334,0.206,0.0,-0.05248193928190914,-2.40574068478347,,,-2.050253097975164,-0.019461773572788665,1.754667154898091,-4.084071107815195,0.6612050305054287,-0.43781857579079686,1.57
note,D,transition,0.308,0.33399999999999996,0.206,0.0,-0.05248193928190914,-2.40574068478347,,,-2.050253097975164,-0.019461773572788665,1.754667154898091,-4.084071107815195,0.6612050305054287,-0.43781857579079686,1.58
note,D,transition,0.308,0.334,0.206,0.0,-0.05248193928190914,-2.40574068478347,,,-2.050253097975164,-0.019461773572788665,1.754667154898091,-4.084071107815195,0.6612050305054287,-0.43781857579079686,1.59
note,D,transition,0.308,0.334,0.206,0.0,-0.05248193928190914,-2.40574068478347,,,-2.050253097975164,-0.019461773572788665,1.754667154898091,-4.084071107815195,0.6612050305054287,-0.43781857579079686,1.6
note,D,transition,0.308,0.334,0.206,0.0,-0.05248193928190914,-2.40574068478347,,,-2.050253097975164,-0.019461773572788665,1.754667154898091,-4.084071107815195,0.6612050305054287,-0.43781857579079686,1.61
note,D,transition,0.30799999999999994,0.334,0.20599999999999996,0.0,-0.05248193928190914,-2.40574068478347,,,-2.050253097975164,-0.019461773572788665,1.754667154898091,-4.084071107815195,0.6612050305054287,-0.43781857579079686,1.62
note,D,transition,0.308,0.334,0.206,0.0,-0.05248193928190914,-2.40574068478347,,,-2.050253097975164,-0.019461773572788665,1.754667154898091,-4.084071107815195,0.6612050305054287,-0.43781857579079686,1.6300000000000001
note,D,transition,0.308,0.334,0.20600000000000002,0.0,-0.05248193928190914,-2.40574068478347,,,-2.050253097975164,-0.019461773572788665,1.754667154898091,-4.084071107815195,0.6612050305054287,-0.43781857579079686,1.6400000000000001
note,D,transition,0.308,0.334,0.206,0.0,-0.05248193928190914,-2.40574068478347,,,-2.050253097975164,-0.019461773572788665,1.754667154898091,-4.084071107815195,0.6612050305054287,-0.43781857579079686,1.6500000000000001
note,D,transition,0.308,0.334,0.206,0.0,-0.05248193928190914,-2.40574068478347,,,-2.050253097975164,-0.019461773572788665,1.754667154898091,-4.084071107815195,0.6612050305054287,-0.43781857579079686,1.6600000000000001
note,D,transition,0.308,0.334,0.206,0.0,-0.05248193928190914,-2.40574068478347,,,-2.050253097975164,-0.019461773572788665,1.754667154898091,-4.084071107815195,0.6612050305054287,-0.43781857579079686,1.67
note,D,transition,0.308,0.334,0.206,0.0,-0.05248193928190914,-2.40574068478347,,,-2.050253097975164,-0.019461773572788665,1.754667154898091,-4.084071107815195,0.6612050305054287,-0.43781857579079686,1.68
note,D,transition,0.308,0.334,0.206,0.0,-0.05248193928190914,-2.40574068478347,,,-2.050253097975164,-0.019461773572788665,1.754667154898091,-4.084071107815195,0.6612050305054287,-0.43781857579079686,1.69
note,D,transition,0.308,0.334,0.206,0.0,-0.05248193928190914,-2.40574068478347,,,-2.050253097975164,-0.019461773572788665,1.754667154898091,-4.084071107815195,0.6612050305054287,-0.43781857579079686,1.7
note,D,transition,0.308,0.334,0.20600000000000002,0.0,-0.05248193928190914,-2.40574068478347,,,-2.050253097975164,-0.019461773572788665,1.754667154898091,-4.084071107815195,0.6612050305054287,-0.43781857579079686,1.71
note,D,transition,0.308,0.334,0.206,0.0,-0.05248193928190914,-2.40574068478347,,,-2.050253097975164,-0.019461773572788665,1.754667154898091,-4.084071107815195,0.6612050305054287,-0.43781857579079686,1.72
note,D,transition,0.308,0.334,0.206,0.0,-0.05248193928190914,-2.40574068478347,,,-2.050253097975164,-0.019461773572788665,1.754667154898091,-4.084071107815195,0.6612050305054287,-0.43781857579079686,1.73
note,D,transition,0.308,0.334,0.206,0.0,-0.05248193928190914,-2.40574068478347,,,-2.050253097975164,-0.019461773572788665,1.754667154898091,-4.084071107815195,0.6612050305054287,-0.43781857579079686,1.74
note,D,up,0.308,0.334,0.206,0.0,-0.05248193928190914,-2.40574068478347,,,-2.050253097975164,-0.019461773572788665,1.754667154898091,-4.084071107815195,0.6612050305054287,-0.43781857579079686,1.75
note,D,up,0.308,0.3340000000000001,0.206,0.0,-0.05248193928190914,-2.40574068478347,,,-2.050253097975164,-0.019461773572788665,1.754667154898091,-4.084071107815195,0.6612050305054287,-0.43781857579079686,1.76
note,D,up,0.308,0.334,0.206,0.0,-0.05248193928190914,-2.40574068478347,,,-2.050253097975164,-0.019461773572788665,1.754667154898091,-4.084071107815195,0.6612050305054287,-0.43781857579079686,1.77
note,D,up,0.308,0.334,0.206,0.0,-0.05248193928190914,-2.40574068478347,,,-2.050253097975164,-0.019461773572788665,1.754667154898091,-4.084071107815195,0.6612050305054287,-0.43781857579079686,1.78
note,D,up,0.308,0.3340000000000001,0.206,0.0,-0.05248193928190914,-2.40574068478347,,,-2.050253097975164,-0.019461773572788665,1.754667154898091,-4.084071107815195,0.6612050305054287,-0.43781857579079686,1.79
note,D,up,0.308,0.334,0.206,0.0,-0.05248193928190914,-2.40574068478347,,,-2.050253097975164,-0.019461773572788665,1.754667154898091,-4.084071107815195,0.6612050305054287,-0.43781857579079686,1.8
note,D,up,0.308,0.334,0.206,0.0,-0.05248193928190914,-2.40574068478347,,,-2.050253097975164,-0.019461773572788665,1.754667154898091,-4.084071107815195,0.6612050305054287,-0.43781857579079686,1.81
note,D,up,0.308,0.33399999999999996,0.20599999999999996,0.0,-0.05248193928190914,-2.40574068478347,,,-2.050253097975164,-0.019461773572788665,1.754667154898091,-4.084071107815195,0.6612050305054287,-0.43781857579079686,1.82
note,D,up,0.308,0.3340000000000001,0.206,0.0,-0.05248193928190914,-2.40574068478347,,,-2.050253097975164,-0.019461773572788665,1.754667154898091,-4.084071107815195,0.6612050305054287,-0.43781857579079686,1.83
note,D,up,0.308,0.334,0.20600000000000002,0.0,-0.05248193928190914,-2.40574068478347,,,-2.050253097975164,-0.019461773572788665,1.754667154898091,-4.084071107815195,0.6612050305054287,-0.43781857579079686,1.84
note,D,up,0.30799999999999994,0.334,0.20599999999999996,0.0,-0.05248193928190914,-2.40574068478347,,,-2.050253097975164,-0.019461773572788665,1.754667154898091,-4.084071107815195,0.6612050305054287,-0.43781857579079686,1.85
note,D,up,0.30800000000000005,0.3340000000000001,0.20600000000000002,0.0,-0.05248193928190914,-2.40574068478347,,,-2.050253097975164,-0.019461773572788665,1.754667154898091,-4.084071107815195,0.6612050305054287,-0.43781857579079686,1.86
note,D,up,0.308,0.334,0.206,0.0,-0.05248193928190914,-2.40574068478347,,,-2.050253097975164,-0.019461773572788665,1.754667154898091,-4.084071107815195,0.6612050305054287,-0.43781857579079686,1.87
note,D,up,0.308,0.334,0.206,0.0,-0.05248193928190914,-2.40574068478347,,,-2.050253097975164,-0.019461773572788665,1.754667154898091,-4.084071107815195,0.6612050305054287,-0.43781857579079686,1.8800000000000001
note,D,up,0.308,0.334,0.206,0.0,-0.05248193928190914,-2.40574068478347,,,-2.050253097975164,-0.019461773572788665,1.754667154898091,-4.084071107815195,0.6612050305054287,-0.43781857579079686,1.8900000000000001
note,D,up,0.308,0.334,0.20600000000000002,0.0,-0.05248193928190914,-2.40574068478347,,,-2.050253097975164,-0.019461773572788665,1.754667154898091,-4.084071107815195,0.6612050305054287,-0.43781857579079686,1.9000000000000001
note,D,up,0.308,0.334,0.20599999999999996,0.0,-0.05248193928190914,-2.40574068478347,,,-2.050253097975164,-0.019461773572788665,1.754667154898091,-4.084071107815195,0.6612050305054287,-0.43781857579079686,1.9100000000000001
note,D,up,0.308,0.334,0.206,0.0,-0.05248193928190914,-2.40574068478347,,,-2.050253097975164,-0.019461773572788665,1.754667154898091,-4.084071107815195,0.6612050305054287,-0.43781857579079686,1.92
note,D,up,0.308,0.334,0.206,0.0,-0.05248193928190914,-2.40574068478347,,,-2.050253097975164,-0.019461773572788665,1.754667154898091,-4.084071107815195,0.6612050305054287,-0.43781857579079686,1.93
note,D,up,0.308,0.334,0.20600000000000002,0.0,-0.05248193928190914,-2.40574068478347,,,-2.050253097975164,-0.019461773572788665,1.754667154898091,-4.084071107815195,0.6612050305054287,-0.43781857579079686,1.94
note,D,up,0.308,0.334,0.206,0.0,-0.05248193928190914,-2.40574068478347,,,-2.050253097975164,-0.019461773572788665,1.754667154898091,-4.084071107815195,0.6612050305054287,-0.43781857579079686,1.95
note,D,up,0.308,0.334,0.206,0.0,-0.05248193928190914,-2.40574068478347,,,-2.050253097975164,-0.019461773572788665,1.754667154898091,-4.084071107815195,0.6612050305054287,-0.43781857579079686,1.96
note,D,up,0.308,0.3340000000000001,0.206,0.0,-0.05248193928190914,-2.40574068478347,,,-2.050253097975164,-0.019461773572788665,1.754667154898091,-4.084071107815195,0.6612050305054287,-0.43781857579079686,1.97
note,D,up,0.308,0.334,0.206,0.0,-0.05248193928190914,-2.40574068478347,,,-2.050253097975164,-0.019461773572788665,1.754667154898091,-4.084071107815195,0.6612050305054287,-0.43781857579079686,1.98
note,D,up,0.308,0.334,0.206,0.0,-0.05248193928190914,-2.40574068478347,,,-2.050253097975164,-0.019461773572788665,1.754667154898091,-4.084071107815195,0.6612050305054287,-0.43781857579079686,1.99
cross,,,0.308,0.334,0.206,0.0,-0.05248193928190914,-2.40574068478347,D,A,-2.050253097975164,-0.019461773572788665,1.754667154898091,-4.084071107815195,0.6612050305054287,-0.43781857579079686,2.0
cross,,,0.3185,0.3535,0.2185,2.710203361200314e-05,-0.056854811717706344,-2.4016171698835356,D,A,-2.0439062416929827,-0.037254024367184835,1.7401305790340575,-4.0415186132652785,0.6617816390599125,-0.4329374789627334,2.0100000000000002
cross,,,0.32899999999999996,0.373,0.23099999999999998,3.614549551422819e-05,-0.06122775856925444,-2.3974927077225416,D,A,-2.0377224675430443,-0.05703210327497987,1.7309821158105199,-4.002026212416257,0.6644910942691191,-0.42864127027209387,2.02
cross,,,0.33949999999999997,0.3925,0.2435,2.7116568671825547e-05,-0.06560070545571195,-2.3933671397526517,D,A,-2.031735212228506,-0.07974345574992114,1.7170759006867062,-3.9560106999948514,0.666086889856953,-0.42366916618166073,2.0300000000000002
cross,,,0.35,0.412,0.256,0.0,-0.06997357793639436,-2.3892403072112747,D,A,-2.0257756586316567,-0.10277933858926919,1.702746765650291,-3.9093511174706714,0.6675433034737881,-0.41862117646239216,2.04
note,A,transition,0.35,0.412,0.256,0.0,-0.06997357793639414,-2.3892403072112747,,,-2.0257756586316567,-0.10277933858926919,1.702746765650291,-3.9093511174706714,0.6675433034737881,-0.41862117646239216,2.05
note,A,transition,0.35,0.41200000000000003,0.256,0.0,-0.06997357793639414,-2.3892403072112747,,,-2.0257756586316567,-0.10277933858926919,1.702746765650291,-3.9093511174706714,0.6675433034737881,-0.41862117646239216,2.06
note,A,transition,0.35,0.412,0.256,0.0,-0.06997357793639414,-2.3892403072112747,,,-2.0257756586316567,-0.10277933858926919,1.702746765650291,-3.9093511174706714,0.6675433034737881,-0.41862117646239216,2.07
note,A,transition,0.35,0.412,0.256,0.0,-0.06997357793639414,-2.3892403072112747,,,-2.0257756586316567,-0.10277933858926919,1.702746765650291,-3.9093511174706714,0.6675433034737881,-0.41862117646239216,2.08
note,A,transition,0.35,0.412,0.256,0.0,-0.06997357793639414,-2.3892403072112747,,,-2.0257756586316567,-0.10277933858926919,1.702746765650291,-3.9093511174706714,0.6675433034737881,-0.41862117646239216,2.09
note,A,transition,0.35000000000000003,0.412,0.256,0.0,-0.06997357793639414,-2.3892403072112747,,,-2.0257756586316567,-0.10277933858926919,1.702746765650291,-3.9093511174706714,0.6675433034737881,-0.41862117646239216,2.1
note,A,transition,0.35,0.412,0.256,0.0,-0.06997357793639414,-2.3892403072112747,,,-2.0257756586316567,-0.10277933858926919,1.702746765650291,-3.9093511174706714,0.6675433034737881,-0.41862117646239216,2.11
note,A,transition,0.35,0.4119999999999999,0.256,0.0,-0.06997357793639414,-2.3892403072112747,,,-2.0257756586316567,-0.10277933858926919,1.702746765650291,-3.9093511174706714,0.6675433034737881,-0.41862117646239216,2.12
note,A,transition,0.35,0.412,0.256,0.0,-0.06997357793639414,-2.3892403072112747,,,-2.0257756586316567,-0.10277933858926919,1.702746765650291,-3.9093511174706714,0.6675433034737881,-0.41862117646239216,2.13
note,A,transition,0.35,0.41200000000000003,0.256,0.0,-0.06997357793639414,-2.3892403072112747,,,-2.0257756586316567,-0.10277933858926919,1.702746765650291,-3.9093511174706714,0.6675433034737881,-0.41862117646239216,2.14
note,A,transition,0.35,0.412,0.256,0.0,-0.06997357793639414,-2.3892403072112747,,,-2.0257756586316567,-0.10277933858926919,1.702746765650291,-3.9093511174706714,0.6675433034737881,-0.41862117646239216,2.15
note,A,transition,0.35,0.412,0.256,0.0,-0.06997357793639414,-2.3892403072112747,,,-2.0257756586316567,-0.10277933858926919,1.702746765650291,-3.9093511174706714,0.6675433034737881,-0.41862117646239216,2.16
note,A,transition,0.35,0.412,0.256,0.0,-0.06997357793639414,-2.3892403072112747,,,-2.0257756586316567,-0.10277933858926919,1.702746765650291,-3.9093511174706714,0.6675433034737881,-0.41862117646239216,2.17
note,A,transition,0.35,0.412,0.256,0.0,-0.06997357793639414,-2.3892403072112747,,,-2.0257756586316567,-0.10277933858926919,1.702746765650291,-3.9093511174706714,0.6675433034737881,-0.41862117646239216,2.18
note,A,transition,0.35,0.412,0.256,0.0,-0.06997357793639414,-2.3892403072112747,,,-2.0257756586316567,-0.10277933858926919,1.702746765650291,-3.9093511174706714,0.6675433034737881,-0.41862117646239216,2.19
note,A,transition,0.35,0.412,0.256,0.0,-0.06997357793639414,-2.3892403072112747,,,-2.0257756586316567,-0.10277933858926919,1.702746765650291,-3.9093511174706714,0.6675433034737881,-0.41862117646239216,2.2
note,A,transition,0.35,0.41200000000000003,0.256,0.0,-0.06997357793639414,-2.3892403072112747,,,-2.0257756586316567,-0.10277933858926919,1.702746765650291,-3.9093511174706714,0.6675433034737881,-0.41862117646239216,2.21
note,A,transition,0.35,0.412,0.256,0.0,-0.06997357793639414,-2.3892403072112747,,,-2.0257756586316567,-0.10277933858926919,1.702746765650291,-3.9093511174706714,0.6675433034737881,-0.41862117646239216,2.22
note,A,transition,0.35,0.412,0.256,0.0,-0.06997357793639414,-2.3892403072112747,,,-2.0257756586316567,-0.10277933858926919,1.702746765650291,-3.9093511174706714,0.6675433034737881,-0.41862117646239216,2.23
note,A,transition,0.35,0.412,0.256,0.0,-0.06997357793639414,-2.3892403072112747,,,-2.0257756586316567,-0.10277933858926919,1.702746765650291,-3.9093511174706714,0.6675433034737881,-0.41862117646239216,2.24
note,A,down,0.35,0.412,0.256,0.0,-0.06997357793639414,-2.3892403072112747,,,-2.0257756586316567,-0.10277933858926919,1.702746765650291,-3.9093511174706714,0.6675433034737881,-0.41862117646239216,2.25
note,A,down,0.34479166666666666,0.40712499999999996,0.2565,0.0,-0.06997357793639414,-2.3892403072112747,,,-2.0330807788494565,-0.10595708342769156,1.7104733238981178,-3.9110315318687356,0.6635808066722095,-0.42825435067644024,2.2600000000000002
note,A,down,0.3395833333333333,0.40225,0.257,0.0,-0.06997357793639414,-2.3892403072112747,,,-2.0403073471450766,-0.10881936299568506,1.7173083228643518,-3.9122684507511494,0.6599168525564276,-0.4379924052111459,2.27
note,A,down,0.334375,0.397375,0.2575,0.0,-0.06997357793639414,-2.3892403072112747,,,-2.047965916255198,-0.111581353997671,1.7253564412887845,-3.91322111664726,0.655755404861353,-0.44816579631493036,2.2800000000000002
note,A,down,0.32916666666666666,0.39249999999999996,0.258,0.0,-0.06997357793639414,-2.3892403072112747,,,-2.0556244853653194,-0.1143434404216988,1.7334044401852267,-3.914173528972464,0.6515932590929676,-0.45833904868813136,2.29
note,A,down,0.3239583333333333,0.387625,0.2585,0.0,-0.06997357793639414,-2.3892403072112747,,,-2.063282950202978,-0.11710533600164291,1.741452439081669,-3.9151259412976684,0.6474315787067892,-0.4685124397919158,2.3000000000000003
note,A,down,0.31875,0.38275,0.259,0.0,-0.06997357793639414,-2.3892403072112747,,,-2.0709414150406364,-0.11986713615954508,1.7495003782141159,-3.9160783536228725,0.6432698983206113,-0.4786858308956998,2.31
note,A,down,0.3135416666666666,0.37787499999999996,0.2595,0.0,-0.06997357793639414,-2.3892403072112747,,,-2.0785999146357823,-0.12262912716153107,1.7575484368745535,-3.9170307659480765,0.6391079852433297,-0.4888592219994843,2.32
note,A,down,0.30833333333333335,0.373,0.26,0.0,-0.06997357793639414,-2.3892403072112747,,,-2.0862584316096724,-0.12539102274147512,1.7655961668330171,-3.9179834318441875,0.6349458394749443,-0.4990324743726857,2.33
note,A,down,0.303125,0.36812500000000004,0.2605,0.0,-0.06997357793639414,-2.3892403072112747,,,-2.0939168964473307,-0.12815310916550293,1.7736441956114568,-3.9189358441693916,0.6307843917798697,-0.5092058654764697,2.34
note,A,down,0.2979166666666666,0.36324999999999996,0.261,0.0,-0.06997357793639414,-2.3892403072112747,,,-2.10157550031494,-0.13091505245646795,1.7816922542718945,-3.919888002923689,0.626622478702588,-0.5193792565802542,2.35
note,A,down,0.29270833333333335,0.358375,0.2615,0.0,-0.06997357793639414,-2.3892403072112747,,,-2.109233982531342,-0.13367690032539115,1.7897401635223438,-3.920840415248893,0.6224605656253064,-0.5295525089534556,2.36
note,A,down,0.2875,0.3535,0.262,0.0,-0.06997357793639414,-2.3892403072112747,,,-2.1168924647477443,-0.13643898674941896,1.7977880428907955,-3.921793081145004,0.6182986525480247,-0.5397260387878227,2.37
note,A,down,0.28229166666666666,0.34862499999999996,0.2625,0.0,-0.06997357793639414,-2.3892403072112747,,,-2.124550999100378,-0.13920078690732113,1.8058360417872377,-3.9227460006120216,0.6141367394707431,-0.5498992911610237,2.38
note,A,down,0.27708333333333335,0.34375,0.263,0.0,-0.06997357793639414,-2.3892403072112747,,,-2.1322094639380365,-0.14196268248726523,1.8138841602116704,-3.923698159366319,0.6099750590845647,-0.5600726822648081,2.39
note,A,down,0.271875,0.338875,0.2635,0.0,-0.06997357793639414,-2.3892403072112747,,,-2.139870500829784,-0.14472705904029798,1.8219286330323912,-3.9246561502514683,0.6058119825517654,-0.5702487092496669,2.4
note,A,down,0.26666666666666666,0.33399999999999996,0.264,0.0,-0.06997357793639414,-2.3892403072112747,,,-2.1483955393505343,-0.1477722626625601,1.828984400197191,-3.926735685256527,0.6015230201319706,-0.5814159662492062,2.41
note,A,down,0.26145833333333335,0.329125,0.2645,0.0,-0.06997357793639414,-2.3892403072112747,,,-2.15698460116361,-0.1508643185073814,1.8361978247815403,-3.928963305671042,0.5971188756159407,-0.5926050039502577,2.42
note,A,down,0.25625,0.32425,0.265,0.0,-0.06997357793639414,-2.3892403072112747,,,-2.165726908739912,-0.15449598599898906,1.844187494018589,-3.9314247184614457,0.592892507102988,-0.6039046099258649,2.43
note,A,down,0.25104166666666666,0.31937499999999996,0.2655,0.0,-0.06997357793639414,-2.3892403072112747,,,-2.1747278467821167,-0.15874126493085483,1.8509420207651779,-3.932063970716994,0.5892206414896868,-0.6153243565862465,2.44
note,A,down,0.24583333333333332,0.3145,0.266,0.0,-0.06997357793639414,-2.3892403072112747,,,-2.1837696248723573,-0.16273677666812053,1.8565218563025332,-3.9317508106473382,0.585468264754573,-0.6267121952125656,2.45
note,A,down,0.24062499999999998,0.309625,0.2665,0.0,-0.06997357793639414,-2.3892403072112747,,,-2.1928112986901347,-0.16673219298334435,1.8621015723118979,-3.9314371434358693,0.5817158880194593,-0.6381000338388849,2.46
note,A,down,0.23541666666666666,0.30474999999999997,0.267,0.0,-0.06997357793639414,-2.3892403072112747,,,-2.2018530767803757,-0.17072765700958914,1.8676812584392652,-3.9311234762244003,0.5779635112843455,-0.6494881499263696,2.47
note,A,down,0.23020833333333332,0.299875,0.2675,0.0,-0.06997357793639414,-2.3892403072112747,,,-2.2108947853556407,-0.17472316874685484,1.873261123858618,-3.9308103161547447,0.5742111345492318,-0.6608759885526887,2.48
note,A,down,0.225,0.295,0.268,0.0,-0.06997357793639414,-2.3892403072112747,,,-2.2199365460671374,-0.17871848964003678,1.8788408697499805,-3.9304969025141823,0.570458757814118,-0.672263827179008,2.49
note,A,up,0.225,0.295,0.268,0.0,-0.06997357793639414,-2.3892403072112747,,,-2.2199365460671374,-0.17871848964003678,1.8788408697499805,-3.9304969025141823,0.570458757814118,-0.672263827179008,2.5
note,A,up,0.22755102040816327,0.2973877551020408,0.2677551020408164,0.0,-0.06997357793639414,-2.3892403072112747,,,-2.2155078512581152,-0.1767615744053252,1.8761078622458087,-3.930650566483584,0.5722967848407003,-0.6666860253637192,2.5100000000000002
note,A,up,0.23010204081632654,0.29977551020408155,0.2675102040816326,0.0,-0.06997357793639414,-2.3892403072112747,,,-2.2110792781003004,-0.17480465917061355,1.873374914505632,-3.930803723311173,0.5741348118672824,-0.6611082235484305,2.52
note,A,up,0.2326530612244898,0.3021632653061224,0.26726530612244903,0.0,-0.06997357793639414,-2.3892403072112747,,,-2.2066506875637413,-0.1728477439359019,1.8706421460574412,-3.9309576408514815,0.575972606202761,-0.6555304217331419,2.5300000000000002
note,A,up,0.23520408163265305,0.30455102040816323,0.26702040816326533,0.0,-0.06997357793639414,-2.3892403072112747,,,-2.202222149163414,-0.17089073327914844,1.8679090190252787,-3.9311107976790702,0.5778104005382396,-0.6499527586484362,2.54
note,A,up,0.23775510204081635,0.3069387755102041,0.26677551020408163,0.0,-0.06997357793639414,-2.3892403072112747,,,-2.1977935238693673,-0.1689337703334159,1.8651761908130926,-3.9312642080775655,0.5796481948737182,-0.6443750955637304,2.5500000000000003
note,A,up,0.2403061224489796,0.3093265306122449,0.26653061224489794,0.0,-0.06997357793639414,-2.3892403072112747,,,-2.1933648638178327,-0.16697680738768333,1.8624430637809302,-3.9314178720469677,0.5814862219003003,-0.6387972937484416,2.56
note,A,up,0.24285714285714285,0.31171428571428567,0.2662857142857143,0.0,-0.06997357793639414,-2.3892403072112747,,,-2.188936360174993,-0.1650198921529717,1.8597102953327393,-3.9315715360163694,0.5833240162357791,-0.6332196306637359,2.57
note,A,up,0.24540816326530612,0.31410204081632653,0.26604081632653065,0.0,-0.06997357793639414,-2.3892403072112747,,,-2.184507682744715,-0.16306288149621817,1.8569773774745602,-3.931725453556678,0.5851618105712575,-0.6276418288484473,2.58
note,A,up,0.2479591836734694,0.31648979591836734,0.26579591836734695,0.0,-0.06997357793639414,-2.3892403072112747,,,-2.180079074829412,-0.16110596626150658,1.854244489498379,-3.9318788639551734,0.58699983759784,-0.6220638883025758,2.59
note,A,up,0.25051020408163266,0.31887755102040816,0.26555102040816325,0.0,-0.06997357793639414,-2.3892403072112747,,,-2.175650484292853,-0.15914905102679494,1.851511631404195,-3.932032527924575,0.5888376319333184,-0.6164863639484528,2.6
note,A,up,0.25306122448979596,0.32126530612244897,0.2653061224489796,0.0,-0.06997357793639414,-2.3892403072112747,,,-2.17122187637755,-0.15719204037004147,1.8487785043720326,-3.932185938323071,0.5906756589599005,-0.6109085621331642,2.61
note,A,up,0.25561224489795914,0.3236530612244898,0.2650612244897959,0.0,-0.06997357793639414,-2.3892403072112747,,,-2.1668235422340256,-0.15508378577692078,1.8452001052726221,-3.9316323930339543,0.5924480670952943,-0.6053038465847966,2.62
note,A,up,0.25816326530612244,0.3260408163265306,0.2648163265306122,0.0,-0.06997357793639414,-2.3892403072112747,,,-2.162471539821592,-0.1529088311765316,1.8410294150979853,-3.9305620702371793,0.5942881883418081,-0.599713281555883,2.63
note,A,up,0.26071428571428573,0.3284285714285714,0.26457142857142857,0.0,-0.06997357793639414,-2.3892403072112747,,,-2.1582220719978444,-0.15131537849931054,1.8372561554919629,-3.9293086692458363,0.5964689693638525,-0.594206371068446,2.64
note,A,up,0.26326530612244897,0.3308163265306122,0.2643265306122449,0.0,-0.06997357793639414,-2.3892403072112747,,,-2.1539792428542457,-0.149769255154858,1.833628122394472,-3.928125507395623,0.5986969866799079,-0.5887156920592065,2.65
note,A,up,0.26581632653061227,0.333204081632653,0.2640816326530613,0.0,-0.06997357793639414,-2.3892403072112747,,,-2.1497879416861476,-0.14826836185825282,1.8301362017962322,-3.9270744559877495,0.6008233179837323,-0.5832398572223347,2.66
note,A,up,0.2683673469387755,0.33559183673469384,0.2638367346938776,0.0,-0.06997357793639414,-2.3892403072112747,,,-2.1456106477855887,-0.14677982571607007,1.8266810659370873,-3.926059158077708,0.6029219590462396,-0.5777680455723666,2.67
note,A,up,0.27091836734693875,0.33797959183673465,0.2635918367346939,0.0,-0.06997357793639414,-2.3892403072112747,,,-2.141433440778749,-0.14529119415184544,1.823226318543912,-3.925044367309479,0.6050208327998501,-0.5722959564612329,2.68
note,A,up,0.27346938775510204,0.34036734693877546,0.26334693877551024,0.0,-0.06997357793639414,-2.3892403072112747,,,-2.1375235014735035,-0.14387918648724407,1.8194684481666743,-3.9243589651489286,0.6070873624900739,-0.567131571782928,2.69
note,A,up,0.27602040816326534,0.3427551020408163,0.26310204081632654,0.0,-0.06997357793639414,-2.3892403072112747,,,-2.133772438644489,-0.14252657904370802,1.815526594329966,-3.9238923946807778,0.6091255038656698,-0.5621489241681958,2.7
note,A,up,0.2785714285714286,0.3451428571428571,0.26285714285714284,0.0,-0.06997357793639414,-2.3892403072112747,,,-2.130021341057988,-0.14117363762302543,1.8115845313192742,-3.923426077783533,0.6111638779323694,-0.5571659990922981,2.71
note,A,up,0.2811224489795918,0.3475306122448979,0.2626122448979592,0.0,-0.06997357793639414,-2.3892403072112747,,,-2.126270278228974,-0.1398209824684684,1.8076427073645638,-3.9229592537444753,0.613202717381276,-0.5521830740164009,2.72
note,A,up,0.28367346938775506,0.3499183673469387,0.2623673469387755,0.0,-0.06997357793639414,-2.3892403072112747,,,-2.122519111127497,-0.1384681364698277,1.803700973055846,-3.922492936847231,0.6152410914479756,-0.5472001489405032,2.73
note,A,up,0.28622448979591836,0.3523061224489796,0.2621224489795918,0.0,-0.06997357793639414,-2.3892403072112747,,,-2.1187680482984828,-0.13711543360424977,1.7997593283931212,-3.9220263663790798,0.6172794655146747,-0.5422175013257715,2.74
note,A,up,0.28877551020408165,0.3546938775510204,0.2618775510204082,0.0,-0.06997357793639414,-2.3892403072112747,,,-2.115016968090725,-0.13576263531662996,1.7958172952644271,-3.921560049481835,0.6193178395813743,-0.5372347149804564,2.75
note,A,up,0.2913265306122449,0.35708163265306125,0.2616326530612245,0.0,-0.06997357793639414,-2.3892403072112747,,,-2.1112658531254795,-0.13440983702901022,1.7918756506017024,-3.9210934790136838,0.6213564463391776,-0.5322516511739761,2.7600000000000002
note,A,up,0.29387755102040813,0.359469387755102,0.2613877551020408,0.0,-0.06997357793639414,-2.3892403072112747,,,-2.1075146860240026,-0.1330570387413904,1.7879336174730085,-3.920626908545533,0.6233950530969805,-0.5272688648286614,2.77
note,A,up,0.29642857142857143,0.3618571428571428,0.2611428571428571,0.0,-0.06997357793639414,-2.3892403072112747,,,-2.10376367533122,-0.1317042404537706,1.7839918532822931,-3.9201603380773817,0.6254331944725764,-0.5222860784833467,2.7800000000000002
note,A,up,0.29897959183673467,0.3642448979591837,0.2608979591836735,0.0,-0.06997357793639414,-2.3892403072112747,,,-2.100012421336024,-0.1303514421661508,1.780049730507606,-3.9196937676092305,0.6274718012303793,-0.517303153407449,2.79
note,A,up,0.30153061224489797,0.36663265306122444,0.26065306122448983,0.0,-0.06997357793639414,-2.3892403072112747,,,-2.096261462779473,-0.12899864387853105,1.776108026080886,-3.9192269435701728,0.6295101752970789,-0.5123203670621344,2.8000000000000003
note,A,up,0.3040816326530612,0.36902040816326526,0.26040816326530614,0.0,-0.06997357793639414,-2.3892403072112747,,,-2.092510295677996,-0.12764584559091124,1.772166232008173,-3.9187611338147414,0.6315487820548822,-0.5073373032556541,2.81
note,A,up,0.30663265306122445,0.37140816326530607,0.26016326530612244,0.0,-0.06997357793639414,-2.3892403072112747,,,-2.088759163334007,-0.12629295188124956,1.7682241391154836,-3.91829456334659,0.6335871561215813,-0.5023545169103394,2.82
note,A,up,0.30918367346938774,0.3737959183673469,0.2599183673469388,0.0,-0.06997357793639414,-2.3892403072112747,,,-2.085008083126249,-0.12494024901567163,1.764282404806766,-3.9178279928784394,0.6356255301882809,-0.4973715918344417,2.83
note,A,up,0.311734693877551,0.37618367346938775,0.25967346938775515,0.0,-0.06997357793639414,-2.3892403072112747,,,-2.081256916024772,-0.12358740301703092,1.7603405808520554,-3.917361422410288,0.6376641369460843,-0.49238852802796096,2.84
note,A,up,0.3142857142857143,0.37857142857142856,0.25942857142857145,0.0,-0.06997357793639414,-2.3892403072112747,,,-2.0775059227107335,-0.1222345570183902,1.7563987568973447,-3.9168951055130434,0.6397025110127834,-0.4874057416826463,2.85
note,A,up,0.3168367346938775,0.38095918367346937,0.25918367346938775,0.0,-0.06997357793639414,-2.3892403072112747,,,-2.073754790366744,-0.12088185415281227,1.7524569030606365,-3.9164282814739857,0.6417411177705867,-0.4824230940679146,2.86
note,A,up,0.31938775510204076,0.3833469387755102,0.25893877551020406,0.0,-0.06997357793639414,-2.3892403072112747,,,-2.0700036580227548,-0.11952900815417156,1.7485149595779355,-3.915961711005835,0.6437792591461826,-0.47744003026143433,2.87
note,A,up,0.32193877551020406,0.385734693877551,0.2586938775510204,0.0,-0.06997357793639414,-2.3892403072112747,,,-2.0662525256787654,-0.11817630528859363,1.74457319538722,-3.91549539410859,0.6458178659039855,-0.47245724391611965,2.88
note,A,up,0.3244897959183673,0.3881224489795918,0.2584489795918367,0.0,-0.06997357793639414,-2.3892403072112747,,,-2.0625015323647267,-0.11682345928995291,1.7406315208424976,-3.9150290772113454,0.6478562399706851,-0.4674741801096389,2.89
note,A,up,0.3270408163265306,0.3905102040816326,0.25820408163265307,0.0,-0.06997357793639414,-2.3892403072112747,,,-2.058750330505762,-0.11547066100233311,1.736689457831806,-3.9145622531722877,0.6498948467284884,-0.46249139376432424,2.9
note,A,up,0.3295918367346939,0.39289795918367343,0.2579591836734694,0.0,-0.06997357793639414,-2.3892403072112747,,,-2.0549992676767483,-0.11411791042573427,1.732747335057119,-3.91409542913323,0.6519329881040843,-0.4575087461495926,2.91
note,A,up,0.33214285714285713,0.39528571428571424,0.25771428571428573,0.0,-0.06997357793639414,-2.3892403072112747,,,-2.051248135332759,-0.11276496900505167,1.7288056605123965,-3.913629365806892,0.6539715948618872,-0.45252568234311186,2.92
note,A,up,0.33469387755102037,0.39767346938775505,0.2574693877551021,0.0,-0.06997357793639414,-2.3892403072112747,,,-2.047497037746257,-0.11141236156151563,1.724863926203679,-3.9131625417678344,0.6560099689285868,-0.4475428959977972,2.93
note,A,up,0.33724489795918366,0.40006122448979586,0.2572244897959184,0.0,-0.06997357793639414,-2.3892403072112747,,,-2.0437459401597557,-0.11005946785185394,1.7209220126029754,-3.91269622487059,0.6580485756863896,-0.44255997092189947,2.94
note,A,up,0.3397959183673469,0.40244897959183673,0.2569795918367347,0.0,-0.06997357793639414,-2.3892403072112747,,,-2.0399948078157664,-0.10870662185321323,1.7169797404183003,-3.912229654402439,0.6600869497530892,-0.4375769071154192,2.95
note,A,up,0.3423469387755102,0.40483673469387754,0.256734693877551,0.0,-0.06997357793639414,-2.3892403072112747,,,-2.0364764116093506,-0.10735148572556757,1.71379578368774,-3.9116870126623065,0.6618249196051647,-0.4328001356856821,2.96
note,A,up,0.34489795918367344,0.40722448979591835,0.25648979591836735,0.0,-0.06997357793639414,-2.3892403072112747,,,-2.0329316692272656,-0.10589233957228139,1.7103156963605657,-3.910997299796344,0.663661783176229,-0.4280580469016648,2.97
note,A,up,0.3474489795918367,0.40961224489795917,0.25624489795918365,0.0,-0.06997357793639414,-2.3892403072112747,,,-2.0293537334444367,-0.10433605378036953,1.7065315597074024,-3.910174715775321,0.6656024269794569,-0.4233396810473198,2.98
note,A,up,0.35,0.412,0.256,0.0,-0.06997357793639414,-2.3892403072112747,,,-2.0257756586316567,-0.10277933858926919,1.702746765650291,-3.9093511174706714,0.6675433034737881,-0.41862117646239216,2.99
cross,,,0.35,0.412,0.256,0.0,-0.06997357793639414,-2.3892403072112747,A,G,-2.0257756586316567,-0.10277933858926919,1.702746765650291,-3.9093511174706714,0.6675433034737881,-0.41862117646239216,3.0
cross,,,0.32999999999999996,0.377,0.23,5.388098973724276e-05,-0.06569689426468917,-2.397624354513332,A,G,-2.034711356869467,-0.058857240669866195,1.7338374900950284,-4.0012487640166094,0.6602177221532588,-0.4269762258163632,3.0100000000000002
cross,,,0.31,0.34199999999999997,0.20400000000000001,7.18222965876425e-05,-0.06141991022751547,-2.406005889135714,A,G,-2.044128932916614,-0.0220679403803975,1.758473822577475,-4.081756005437901,0.6520209453412091,-0.43434212611439715,3.02
cross,,,0.29000000000000004,0.307,0.178,5.385265316015797e-05,-0.05714292632860629,-2.41438521955774,A,G,-2.0551185206170133,0.012016145021998992,1.7963019812661511,-4.167746210572689,0.645521417438121,-0.4467338192384389,3.0300000000000002
cross,,,0.27,0.272,0.152,0.0,-0.052866242834671784,-2.4227626539681686,A,G,-2.077160433283093,0.0769592416556012,1.7757281960088815,-4.228725449334602,0.630393005343775,-0.4744383166396515,3.04
note,G,transition,0.27,0.272,0.152,0.0,-0.052866242834671784,-2.4227626539681686,,,-2.077160433283093,0.0769592416556012,1.7757281960088815,-4.228725449334602,0.630393005343775,-0.4744383166396515,3.0500000000000003
note,G,transition,0.27,0.2720000000000001,0.15200000000000002,0.0,-0.052866242834671784,-2.4227626539681686,,,-2.077160433283093,0.0769592416556012,1.7757281960088815,-4.228725449334602,0.630393005343775,-0.4744383166396515,3.06
note,G,transition,0.27,0.272,0.15200000000000002,0.0,-0.052866242834671784,-2.4227626539681686,,,-2.077160433283093,0.0769592416556012,1.7757281960088815,-4.228725449334602,0.630393005343775,-0.4744383166396515,3.0700000000000003
note,G,transition,0.27,0.272,0.152,0.0,-0.052866242834671784,-2.4227626539681686,,,-2.077160433283093,0.0769592416556012,1.7757281960088815,-4.228725449334602,0.630393005343775,-0.4744383166396515,3.08
note,G,transition,0.27,0.272,0.152,0.0,-0.052866242834671784,-2.4227626539681686,,,-2.077160433283093,0.0769592416556012,1.7757281960088815,-4.228725449334602,0.630393005343775,-0.4744383166396515,3.09
note,G,transition,0.27,0.272,0.152,0.0,-0.052866242834671784,-2.4227626539681686,,,-2.077160433283093,0.0769592416556012,1.7757281960088815,-4.228725449334602,0.630393005343775,-0.4744383166396515,3.1
note,G,transition,0.27,0.272,0.152,0.0,-0.052866242834671784,-2.4227626539681686,,,-2.077160433283093,0.0769592416556012,1.7757281960088815,-4.228725449334602,0.630393005343775,-0.4744383166396515,3.11
note,G,transition,0.27,0.272,0.15199999999999997,0.0,-0.052866242834671784,-2.4227626539681686,,,-2.077160433283093,0.0769592416556012,1.7757281960088815,-4.228725449334602,0.630393005343775,-0.4744383166396515,3.12
note,G,transition,0.27,0.272,0.152,0.0,-0.052866242834671784,-2.4227626539681686,,,-2.077160433283093,0.0769592416556012,1.7757281960088815,-4.228725449334602,0.630393005343775,-0.4744383166396515,3.13
note,G,transition,0.27,0.272,0.15200000000000002,0.0,-0.052866242834671784,-2.4227626539681686,,,-2.077160433283093,0.0769592416556012,1.7757281960088815,-4.228725449334602,0.630393005343775,-0.4744383166396515,3.14
note,G,transition,0.27,0.272,0.152,0.0,-0.052866242834671784,-2.4227626539681686,,,-2.077160433283093,0.0769592416556012,1.7757281960088815,-4.228725449334602,0.630393005343775,-0.4744383166396515,3.15
note,G,transition,0.27,0.272,0.152,0.0,-0.052866242834671784,-2.4227626539681686,,,-2.077160433283093,0.0769592416556012,1.7757281960088815,-4.228725449334602,0.630393005343775,-0.4744383166396515,3.16
note,G,transition,0.27,0.272,0.152,0.0,-0.052866242834671784,-2.4227626539681686,,,-2.077160433283093,0.0769592416556012,1.7757281960088815,-4.228725449334602,0.630393005343775,-0.4744383166396515,3.17
note,G,transition,0.27,0.272,0.152,0.0,-0.052866242834671784,-2.4227626539681686,,,-2.077160433283093,0.0769592416556012,1.7757281960088815,-4.228725449334602,0.630393005343775,-0.4744383166396515,3.18
note,G,transition,0.27,0.272,0.152,0.0,-0.052866242834671784,-2.4227626539681686,,,-2.077160433283093,0.0769592416556012,1.7757281960088815,-4.228725449334602,0.630393005343775,-0.4744383166396515,3.19
note,G,transition,0.27,0.272,0.152,0.0,-0.052866242834671784,-2.4227626539681686,,,-2.077160433283093,0.0769592416556012,1.7757281960088815,-4.228725449334602,0.630393005343775,-0.4744383166396515,3.2
note,G,transition,0.27,0.272,0.15200000000000002,0.0,-0.052866242834671784,-2.4227626539681686,,,-2.077160433283093,0.0769592416556012,1.7757281960088815,-4.228725449334602,0.630393005343775,-0.4744383166396515,3.21
note,G,transition,0.27,0.272,0.15200000000000002,0.0,-0.052866242834671784,-2.4227626539681686,,,-2.077160433283093,0.0769592416556012,1.7757281960088815,-4.228725449334602,0.630393005343775,-0.4744383166396515,3.22
note,G,transition,0.27,0.272,0.152,0.0,-0.052866242834671784,-2.4227626539681686,,,-2.077160433283093,0.0769592416556012,1.7757281960088815,-4.228725449334602,0.630393005343775,-0.4744383166396515,3.23
note,G,transition,0.27,0.272,0.152,0.0,-0.052866242834671784,-2.4227626539681686,,,-2.077160433283093,0.0769592416556012,1.7757281960088815,-4.228725449334602,0.630393005343775,-0.4744383166396515,3.24
note,G,down,0.27,0.272,0.152,0.0,-0.052866242834671784,-2.4227626539681686,,,-2.077160433283093,0.0769592416556012,1.7757281960088815,-4.228725449334602,0.630393005343775,-0.4744383166396515,3.25
note,G,down,0.2673877551020408,0.2697142857142857,0.15218367346938774,0.0,-0.052866242834671784,-2.4227626539681686,,,-2.0820253345626267,0.07805754935754827,1.7735794413225707,-4.2268223996805405,0.6274983280161788,-0.48081853614632,3.2600000000000002
note,G,down,0.26477551020408163,0.26742857142857146,0.1523673469387755,0.0,-0.052866242834671784,-2.4227626539681686,,,-2.086890270599649,0.0791557139264325,1.771430925692241,-4.224919857168292,0.6246034179974793,-0.48719861692240585,3.27
note,G,down,0.2621632653061225,0.2651428571428572,0.1525510204081633,0.0,-0.052866242834671784,-2.4227626539681686,,,-2.0917551892579267,0.08025397391735867,1.7692823502979158,-4.223016807514229,0.6217085079787799,-0.49357869769849216,3.2800000000000002
note,G,down,0.2595510204081633,0.2628571428571429,0.15273469387755104,0.0,-0.052866242834671784,-2.4227626539681686,,,-2.0966200210224852,0.08135228161930574,1.7671335657296072,-4.221113504289261,0.618814063342287,-0.49995877847457804,3.29
note,G,down,0.2569387755102041,0.26057142857142856,0.15291836734693878,0.0,-0.052866242834671784,-2.4227626539681686,,,-2.1014641720818683,0.08251800499383544,1.7648798057035888,-4.219094572730881,0.6159100783705509,-0.5062954365782222,3.3000000000000003
note,G,down,0.2543265306122449,0.2582857142857143,0.15310204081632653,0.0,-0.052866242834671784,-2.4227626539681686,,,-2.106306550509379,0.08382857902792684,1.7625393281204182,-4.2168119274296325,0.6129318649367965,-0.5125770186404632,3.31
note,G,down,0.2517142857142857,0.25600000000000006,0.15328571428571428,0.0,-0.052866242834671784,-2.4227626539681686,,,-2.1115212337662834,0.0851426836775675,1.7614109540075271,-4.214406553809589,0.6094724463009951,-0.5191885020287934,3.3200000000000003
note,G,down,0.24910204081632653,0.2537142857142857,0.15346938775510202,0.0,-0.052866242834671784,-2.4227626539681686,,,-2.1167840735223824,0.08653818332892504,1.760265188572009,-4.21211046925029,0.6060251276025759,-0.5258090029050111,3.33
note,G,down,0.24648979591836734,0.25142857142857145,0.1536530612244898,0.0,-0.052866242834671784,-2.4227626539681686,,,-2.1222285559091505,0.08823955833550334,1.7590553262515531,-4.210223140992437,0.6026222529049257,-0.5324612730847083,3.34
note,G,down,0.24387755102040817,0.24914285714285717,0.15383673469387754,0.0,-0.052866242834671784,-2.4227626539681686,,,-2.1276730904321504,0.08994102876412358,1.7578451053471253,-4.208335559163678,0.5992193782072759,-0.5391138207255715,3.35
note,G,down,0.24126530612244898,0.24685714285714289,0.1540204081632653,0.0,-0.052866242834671784,-2.4227626539681686,,,-2.1331175728189185,0.09164230834866005,1.756635422318655,-4.2064484844767325,0.5958167362007294,-0.5457662296358516,3.36
note,G,down,0.2386530612244898,0.24457142857142858,0.15420408163265306,0.0,-0.052866242834671784,-2.4227626539681686,,,-2.138562142099406,0.09334368335523835,1.7554252014142273,-4.204560902647973,0.5924140941941829,-0.5524186385461318,3.37
note,G,down,0.2360408163265306,0.2422857142857143,0.1543877551020408,0.0,-0.052866242834671784,-2.4227626539681686,,,-2.1440953777309906,0.09459318728253163,1.753905582306233,-4.2020627220761115,0.5891708455935367,-0.5590849205146999,3.38
note,G,down,0.23342857142857143,0.24000000000000002,0.15457142857142858,0.0,-0.052866242834671784,-2.4227626539681686,,,-2.1496430377199673,0.09576950250370908,1.7523357913242008,-4.199464888137955,0.5859531930142765,-0.5657534221725942,3.39
note,G,down,0.23081632653061224,0.23771428571428574,0.15475510204081633,0.0,-0.052866242834671784,-2.4227626539681686,,,-2.1551907324664312,0.09694581772488664,1.7507656118761994,-4.196867054199798,0.5827360058172231,-0.5724219238304884,3.4
note,G,down,0.2282040816326531,0.23542857142857146,0.15493877551020407,0.0,-0.052866242834671784,-2.4227626539681686,,,-2.1607384098341518,0.09812198981300124,1.7491957611301718,-4.1942699809743615,0.5795188186201699,-0.5790901480272166,3.41
note,G,down,0.2255918367346939,0.23314285714285718,0.15512244897959185,0.0,-0.052866242834671784,-2.4227626539681686,,,-2.1662860350656405,0.09929811419009493,1.7476257310921586,-4.191671893465298,0.5763011660409094,-0.5857586496851108,3.42
note,G,down,0.22297959183673471,0.2308571428571429,0.15530612244897962,0.0,-0.052866242834671784,-2.4227626539681686,,,-2.1718337471908487,0.10047438170025147,1.7460556114081522,-4.189074059527141,0.5730837461527525,-0.592427151343005,3.43
note,G,down,0.22036734693877552,0.2285714285714286,0.15548979591836737,0.0,-0.052866242834671784,-2.4227626539681686,,,-2.177381389801081,0.1016506014993871,1.7444856411341343,-4.186476479159891,0.5698663262645955,-0.5990953755397337,3.44
note,G,down,0.21775510204081633,0.2262857142857143,0.15567346938775511,0.0,-0.052866242834671784,-2.4227626539681686,,,-2.1829290497900575,0.10282677358750181,1.7429157605061092,-4.183878645221734,0.5666491390675423,-0.6057638771976279,3.45
note,G,down,0.21514285714285714,0.22400000000000003,0.15585714285714286,0.0,-0.052866242834671784,-2.4227626539681686,,,-2.1884767792940094,0.10400294567561641,1.7413456408221029,-4.181281064854484,0.5634317191793854,-0.6124323788555222,3.46
note,G,down,0.21253061224489794,0.22171428571428572,0.1560408163265306,0.0,-0.052866242834671784,-2.4227626539681686,,,-2.1940400627737024,0.10516022419944049,1.7398480148643718,-4.178533116939618,0.5601123805878936,-0.6191000481299191,3.47
note,G,down,0.20991836734693875,0.21942857142857142,0.15622448979591835,0.0,-0.052866242834671784,-2.4227626539681686,,,-2.199626442603966,0.10628935322091215,1.7384576353961714,-4.17556202662694,0.5566410947058131,-0.6257661913679042,3.48
note,G,down,0.2073061224489796,0.21714285714285717,0.15640816326530613,0.0,-0.052866242834671784,-2.4227626539681686,,,-2.2052127876767416,0.10741829139830017,1.7370671363999803,-4.1725911898851695,0.5531702742059399,-0.6324324733364726,3.49
note,G,down,0.20469387755102042,0.21485714285714286,0.15659183673469387,0.0,-0.052866242834671784,-2.4227626539681686,,,-2.210799167507005,0.10854746813079286,1.735676577639794,-4.169620606714305,0.5496992210149632,-0.6390986165744579,3.5
note,G,down,0.20208163265306123,0.21257142857142858,0.15677551020408165,0.0,-0.052866242834671784,-2.4227626539681686,,,-2.216381637119903,0.10966629157174246,1.7342865567555652,-4.166670562786875,0.5462356139392985,-0.6457556035939731,3.5100000000000002
note,G,down,0.19946938775510203,0.2102857142857143,0.1569591836734694,0.0,-0.052866242834671784,-2.4227626539681686,,,-2.221818889949232,0.11041029723221862,1.7328991057231335,-4.1644875708519224,0.5430428593081131,-0.6520754752970888,3.52
note,G,down,0.19685714285714284,0.20800000000000002,0.15714285714285714,0.0,-0.052866242834671784,-2.4227626539681686,,,-2.227256055884841,0.11115425518167399,1.731511893746683,-4.162304325346063,0.5398503373680312,-0.6583953470002046,3.5300000000000002
note,G,down,0.19424489795918365,0.20571428571428574,0.1573265306122449,0.0,-0.052866242834671784,-2.4227626539681686,,,-2.2326934477441203,0.11189802228704548,1.7301248909442157,-4.1601208262692975,0.5366572337001905,-0.6647154961644863,3.54
note,G,down,0.19163265306122448,0.20342857142857146,0.15751020408163266,0.0,-0.052866242834671784,-2.4227626539681686,,,-2.23813057023287,0.11264212336956358,1.7287376490857675,-4.157938087905251,0.5334644790690051,-0.6710352291370192,3.5500000000000003
note,G,down,0.18902040816326532,0.20114285714285715,0.1576938775510204,0.0,-0.052866242834671784,-2.4227626539681686,,,-2.2435678230621985,0.11338574734187234,1.7273505566373073,-4.155755095970298,0.5302719571289232,-0.6773551008401351,3.56
note,G,down,0.18640816326530613,0.19885714285714287,0.15787755102040815,0.0,-0.052866242834671784,-2.4227626539681686,,,-2.2490051454065028,0.11412975300234862,1.7259634343068497,-4.153572104035345,0.5270790861521861,-0.6836749725432509,3.5700000000000003
note,G,down,0.18379591836734693,0.1965714285714286,0.15806122448979593,0.0,-0.052866242834671784,-2.4227626539681686,,,-2.2544423460995997,0.11487375866282479,1.7245761625664038,-4.151389112100393,0.5238864478665524,-0.6899948442463668,3.58
note,G,down,0.18118367346938774,0.19428571428571428,0.15824489795918367,0.0,-0.052866242834671784,-2.4227626539681686,,,-2.2598796510651598,0.1156175734792173,1.7231891597639366,-4.149205866594533,0.5206935768898153,-0.6963147159494827,3.59
note,G,down,0.17857142857142855,0.192,0.15842857142857142,0.0,-0.052866242834671784,-2.4227626539681686,,,-2.265316834379513,0.11636148371765165,1.7218019776694837,-4.147022621088674,0.5175009386041816,-0.7026348651137642,3.6
note,G,down,0.17595918367346938,0.18971428571428572,0.1586122448979592,0.0,-0.052866242834671784,-2.4227626539681686,,,-2.2707540524513536,0.1171054416671069,1.7204147059290378,-4.144839882724627,0.5143080676274445,-0.7089545980862972,3.61
note,G,down,0.17334693877551022,0.18742857142857144,0.15879591836734694,0.0,-0.052866242834671784,-2.4227626539681686,,,-2.276191322659426,0.11784939961656227,1.7190275238345847,-4.142656383647862,0.5111151966507073,-0.7152744697894129,3.62
note,G,down,0.17073469387755102,0.18514285714285716,0.1589795918367347,0.0,-0.052866242834671784,-2.4227626539681686,,,-2.281628523352523,0.11859321443295479,1.7176402819761365,-4.140473391712908,0.5079225583650737,-0.7215943414925288,3.63
note,G,down,0.16812244897959183,0.18285714285714286,0.15916326530612246,0.0,-0.052866242834671784,-2.4227626539681686,,,-2.287065845696827,0.11933712467138913,1.716253309055667,-4.13829014620705,0.5047295710427848,-0.7279144906568105,3.64
note,G,down,0.16551020408163264,0.18057142857142858,0.1593469387755102,0.0,-0.052866242834671784,-2.4227626539681686,,,-2.292640286330069,0.12008251395147251,1.7152640057597932,-4.136314321702792,0.501799990049663,-0.7345216733970716,3.65
note,G,down,0.16289795918367345,0.1782857142857143,0.15953061224489798,0.0,-0.052866242834671784,-2.4227626539681686,,,-2.2986225539451235,0.12083172011323073,1.715455459718674,-4.134952645934328,0.49965132039990223,-0.7419827428749615,3.66
note,G,down,0.16028571428571428,0.17600000000000002,0.1597142857142857,0.0,-0.052866242834671784,-2.4227626539681686,,,-2.304604752045203,0.1215810694080518,1.715646883795557,-4.133591477307679,0.49750241805903817,-0.7494436736222685,3.67
note,G,down,0.1576734693877551,0.1737142857142857,0.15989795918367347,0.0,-0.052866242834671784,-2.4227626539681686,,,-2.310586845872819,0.12233046641389378,1.7158384274004306,-4.1322300551101225,0.4953537484092774,-0.7569044656389925,3.68
note,G,down,0.1550612244897959,0.17142857142857143,0.16008163265306122,0.0,-0.052866242834671784,-2.4227626539681686,,,-2.3165690613516423,0.123079672575652,1.7160297319493232,-4.13086837934166,0.4932050787595168,-0.7643656738474653,3.69
note,G,down,0.1524489795918367,0.16914285714285715,0.16026530612244896,0.0,-0.052866242834671784,-2.4227626539681686,,,-2.322551189936746,0.12382906958149409,1.7162211560262062,-4.12950721071501,0.49105640910975623,-0.7718263271336065,3.7
note,G,down,0.14983673469387754,0.16685714285714284,0.16044897959183674,0.0,-0.052866242834671784,-2.4227626539681686,,,-2.328515731233079,0.1246486494991329,1.7167913344231787,-4.128306806043148,0.4889217009262057,-0.7793394205800765,3.71
note,G,down,0.14722448979591837,0.1645714285714286,0.16063265306122448,0.0,-0.052866242834671784,-2.4227626539681686,,,-2.3350151207499885,0.12612435137668387,1.7172162265476247,-4.12746368277869,0.4866936836101501,-0.7873597130375571,3.72
note,G,down,0.14461224489795918,0.16228571428571428,0.16081632653061226,0.0,-0.052866242834671784,-2.4227626539681686,,,-2.341558287322644,0.12759299202313634,1.7175771413151228,-4.126809469839652,0.4844887027133413,-0.7954162141771697,3.73
note,G,down,0.142,0.16,0.161,0.0,-0.052866242834671784,-2.4227626539681686,,,-2.3480491264975814,0.12909674798099768,1.7177571205869098,-4.125968121571541,0.48229582175391483,-0.8034840912245782,3.74
note,G,up,0.142,0.16,0.161,0.0,-0.052866242834671784,-2.4227626539681686,,,-2.3480491264975814,0.12909674798099768,1.7177571205869098,-4.125968121571541,0.48229582175391483,-0.8034840912245782,3.75
note,G,up,0.14461224489795918,0.16228571428571428,0.16081632653061226,0.0,-0.052866242834671784,-2.4227626539681686,,,-2.341558287322644,0.12759299202313634,1.7175771413151228,-4.126809469839652,0.4844887027133413,-0.7954162141771697,3.7600000000000002
note,G,up,0.14722448979591835,0.1645714285714286,0.16063265306122448,0.0,-0.052866242834671784,-2.4227626539681686,,,-2.3350151207499885,0.12612435137668387,1.7172162265476247,-4.12746368277869,0.4866936836101501,-0.7873597130375571,3.77
note,G,up,0.14983673469387754,0.16685714285714284,0.16044897959183677,0.0,-0.052866242834671784,-2.4227626539681686,,,-2.328515731233079,0.1246486494991329,1.7167913344231787,-4.128306806043148,0.4889217009262057,-0.7793394205800765,3.7800000000000002
note,G,up,0.15244897959183673,0.16914285714285715,0.16026530612244896,0.0,-0.052866242834671784,-2.4227626539681686,,,-2.322551189936746,0.12382906958149409,1.7162211560262062,-4.12950721071501,0.49105640910975623,-0.7718263271336065,3.79
note,G,up,0.1550612244897959,0.17142857142857143,0.16008163265306122,0.0,-0.052866242834671784,-2.4227626539681686,,,-2.3165690613516423,0.123079672575652,1.7160297319493232,-4.13086837934166,0.4932050787595168,-0.7643656738474653,3.8000000000000003
note,G,up,0.1576734693877551,0.1737142857142857,0.15989795918367347,0.0,-0.052866242834671784,-2.4227626539681686,,,-2.310586845872819,0.12233046641389378,1.7158384274004306,-4.1322300551101225,0.4953537484092774,-0.7569044656389925,3.81
note,G,up,0.16028571428571428,0.17600000000000002,0.15971428571428573,0.0,-0.052866242834671784,-2.4227626539681686,,,-2.304604752045203,0.1215810694080518,1.715646883795557,-4.133591477307679,0.49750241805903817,-0.7494436736222685,3.8200000000000003
note,G,up,0.16289795918367345,0.17828571428571433,0.15953061224489798,0.0,-0.052866242834671784,-2.4227626539681686,,,-2.2986225539451235,0.12083172011323073,1.715455459718674,-4.134952645934328,0.49965132039990223,-0.7419827428749615,3.83
note,G,up,0.16551020408163264,0.1805714285714286,0.1593469387755102,0.0,-0.052866242834671784,-2.4227626539681686,,,-2.292640286330069,0.12008251395147251,1.7152640057597932,-4.136314321702792,0.501799990049663,-0.7345216733970716,3.84
note,G,up,0.16812244897959183,0.18285714285714286,0.15916326530612246,0.0,-0.052866242834671784,-2.4227626539681686,,,-2.287065845696827,0.11933712467138913,1.716253309055667,-4.13829014620705,0.5047295710427848,-0.7279144906568105,3.85
note,G,up,0.17073469387755102,0.18514285714285716,0.1589795918367347,0.0,-0.052866242834671784,-2.4227626539681686,,,-2.281628523352523,0.11859321443295479,1.7176402819761365,-4.140473391712908,0.5079225583650737,-0.7215943414925288,3.86
note,G,up,0.1733469387755102,0.18742857142857142,0.15879591836734694,0.0,-0.052866242834671784,-2.4227626539681686,,,-2.276191322659426,0.11784939961656227,1.7190275238345847,-4.142656383647862,0.5111151966507073,-0.7152744697894129,3.87
note,G,up,0.17595918367346938,0.18971428571428572,0.15861224489795916,0.0,-0.052866242834671784,-2.4227626539681686,,,-2.2707540524513536,0.1171054416671069,1.7204147059290378,-4.144839882724627,0.5143080676274445,-0.7089545980862972,3.88
note,G,up,0.17857142857142855,0.192,0.15842857142857142,0.0,-0.052866242834671784,-2.4227626539681686,,,-2.265316834379513,0.11636148371765165,1.7218019776694837,-4.147022621088674,0.5175009386041816,-0.7026348651137642,3.89
note,G,up,0.18118367346938774,0.19428571428571428,0.15824489795918367,0.0,-0.052866242834671784,-2.4227626539681686,,,-2.2598796510651598,0.1156175734792173,1.7231891597639366,-4.149205866594533,0.5206935768898153,-0.6963147159494827,3.9
note,G,up,0.18379591836734693,0.1965714285714286,0.15806122448979593,0.0,-0.052866242834671784,-2.4227626539681686,,,-2.2544423460995997,0.11487375866282479,1.7245761625664038,-4.151389112100393,0.5238864478665524,-0.6899948442463668,3.91
note,G,up,0.18640816326530613,0.1988571428571429,0.15787755102040818,0.0,-0.052866242834671784,-2.4227626539681686,,,-2.2490051454065028,0.11412975300234862,1.7259634343068497,-4.153572104035345,0.5270790861521861,-0.6836749725432509,3.92
note,G,up,0.18902040816326532,0.20114285714285718,0.15769387755102043,0.0,-0.052866242834671784,-2.4227626539681686,,,-2.2435678230621985,0.11338574734187234,1.7273505566373073,-4.155755095970298,0.5302719571289232,-0.6773551008401351,3.93
note,G,up,0.19163265306122448,0.20342857142857146,0.15751020408163266,0.0,-0.052866242834671784,-2.4227626539681686,,,-2.23813057023287,0.11264212336956358,1.7287376490857675,-4.157938087905251,0.5334644790690051,-0.6710352291370192,3.94
note,G,up,0.19424489795918365,0.20571428571428574,0.1573265306122449,0.0,-0.052866242834671784,-2.4227626539681686,,,-2.2326934477441203,0.11189802228704548,1.7301248909442157,-4.1601208262692975,0.5366572337001905,-0.6647154961644863,3.95
note,G,up,0.19685714285714284,0.20800000000000002,0.15714285714285714,0.0,-0.052866242834671784,-2.4227626539681686,,,-2.227256055884841,0.11115425518167399,1.731511893746683,-4.162304325346063,0.5398503373680312,-0.6583953470002046,3.96
note,G,up,0.19946938775510203,0.2102857142857143,0.1569591836734694,0.0,-0.052866242834671784,-2.4227626539681686,,,-2.221818889949232,0.11041029723221862,1.7328991057231335,-4.1644875708519224,0.5430428593081131,-0.6520754752970888,3.97
note,G,up,0.20208163265306123,0.21257142857142858,0.15677551020408165,0.0,-0.052866242834671784,-2.4227626539681686,,,-2.216381637119903,0.10966629157174246,1.7342865567555652,-4.166670562786875,0.5462356139392985,-0.6457556035939731,3.98
note,G,up,0.20469387755102042,0.21485714285714286,0.15659183673469387,0.0,-0.052866242834671784,-2.4227626539681686,,,-2.210799167507005,0.10854746813079286,1.735676577639794,-4.169620606714305,0.5496992210149632,-0.6390986165744579,3.99
note,G,up,0.2073061224489796,0.21714285714285717,0.15640816326530613,0.0,-0.052866242834671784,-2.4227626539681686,,,-2.2052127876767416,0.10741829139830017,1.7370671363999803,-4.1725911898851695,0.5531702742059399,-0.6324324733364726,4.0
note,G,up,0.2099183673469388,0.21942857142857147,0.15622448979591835,0.0,-0.052866242834671784,-2.4227626539681686,,,-2.199626442603966,0.10628935322091215,1.7384576353961714,-4.17556202662694,0.5566410947058131,-0.6257661913679042,4.01
note,G,up,0.21253061224489797,0.22171428571428575,0.1560408163265306,0.0,-0.052866242834671784,-2.4227626539681686,,,-2.1940400627737024,0.10516022419944049,1.7398480148643718,-4.178533116939618,0.5601123805878936,-0.6191000481299191,4.0200000000000005
note,G,up,0.21514285714285714,0.22400000000000003,0.15585714285714286,0.0,-0.052866242834671784,-2.4227626539681686,,,-2.1884767792940094,0.10400294567561641,1.7413456408221029,-4.181281064854484,0.5634317191793854,-0.6124323788555222,4.03
note,G,up,0.21775510204081633,0.2262857142857143,0.15567346938775511,0.0,-0.052866242834671784,-2.4227626539681686,,,-2.1829290497900575,0.10282677358750181,1.7429157605061092,-4.183878645221734,0.5666491390675423,-0.6057638771976279,4.04
note,G,up,0.22036734693877552,0.2285714285714286,0.15548979591836737,0.0,-0.052866242834671784,-2.4227626539681686,,,-2.177381389801081,0.1016506014993871,1.7444856411341343,-4.186476479159891,0.5698663262645955,-0.5990953755397337,4.05
note,G,up,0.22297959183673471,0.23085714285714287,0.1553061224489796,0.0,-0.052866242834671784,-2.4227626539681686,,,-2.1718337471908487,0.10047438170025147,1.7460556114081522,-4.189074059527141,0.5730837461527525,-0.592427151343005,4.0600000000000005
note,G,up,0.22559183673469388,0.23314285714285715,0.15512244897959182,0.0,-0.052866242834671784,-2.4227626539681686,,,-2.1662860350656405,0.09929811419009493,1.7476257310921586,-4.191671893465298,0.5763011660409094,-0.5857586496851108,4.07
note,G,up,0.22820408163265307,0.23542857142857146,0.15493877551020407,0.0,-0.052866242834671784,-2.4227626539681686,,,-2.1607384098341518,0.09812198981300124,1.7491957611301718,-4.1942699809743615,0.5795188186201699,-0.5790901480272166,4.08
note,G,up,0.23081632653061224,0.23771428571428574,0.15475510204081633,0.0,-0.052866242834671784,-2.4227626539681686,,,-2.1551907324664312,0.09694581772488664,1.7507656118761994,-4.196867054199798,0.5827360058172231,-0.5724219238304884,4.09
note,G,up,0.23342857142857143,0.24000000000000002,0.15457142857142858,0.0,-0.052866242834671784,-2.4227626539681686,,,-2.1496430377199673,0.09576950250370908,1.7523357913242008,-4.199464888137955,0.5859531930142765,-0.5657534221725942,4.1
note,G,up,0.23604081632653062,0.24228571428571433,0.1543877551020408,0.0,-0.052866242834671784,-2.4227626539681686,,,-2.1440953777309906,0.09459318728253163,1.753905582306233,-4.2020627220761115,0.5891708455935367,-0.5590849205146999,4.11
note,G,up,0.23865306122448982,0.2445714285714286,0.15420408163265306,0.0,-0.052866242834671784,-2.4227626539681686,,,-2.138562142099406,0.09334368335523835,1.7554252014142273,-4.204560902647973,0.5924140941941829,-0.5524186385461318,4.12
note,G,up,0.241265306122449,0.24685714285714289,0.15402040816326532,0.0,-0.052866242834671784,-2.4227626539681686,,,-2.1331175728189185,0.09164230834866005,1.756635422318655,-4.2064484844767325,0.5958167362007294,-0.5457662296358516,4.13
note,G,up,0.24387755102040817,0.24914285714285717,0.15383673469387754,0.0,-0.052866242834671784,-2.4227626539681686,,,-2.1276730904321504,0.08994102876412358,1.7578451053471253,-4.208335559163678,0.5992193782072759,-0.5391138207255715,4.14
note,G,up,0.24648979591836734,0.25142857142857145,0.1536530612244898,0.0,-0.052866242834671784,-2.4227626539681686,,,-2.1222285559091505,0.08823955833550334,1.7590553262515531,-4.210223140992437,0.6026222529049257,-0.5324612730847083,4.15
note,G,up,0.24910204081632653,0.2537142857142857,0.15346938775510202,0.0,-0.052866242834671784,-2.4227626539681686,,,-2.1167840735223824,0.08653818332892504,1.760265188572009,-4.21211046925029,0.6060251276025759,-0.5258090029050111,4.16
note,G,up,0.2517142857142857,0.256,0.1532857142857143,0.0,-0.052866242834671784,-2.4227626539681686,,,-2.1115212337662834,0.0851426836775675,1.7614109540075271,-4.214406553809589,0.6094724463009951,-0.5191885020287934,4.17
note,G,up,0.2543265306122449,0.2582857142857143,0.15310204081632653,0.0,-0.052866242834671784,-2.4227626539681686,,,-2.106306550509379,0.08382857902792684,1.7625393281204182,-4.2168119274296325,0.6129318649367965,-0.5125770186404632,4.18
note,G,up,0.2569387755102041,0.26057142857142856,0.15291836734693878,0.0,-0.052866242834671784,-2.4227626539681686,,,-2.1014641720818683,0.08251800499383544,1.7648798057035888,-4.219094572730881,0.6159100783705509,-0.5062954365782222,4.19
note,G,up,0.2595510204081633,0.2628571428571429,0.15273469387755104,0.0,-0.052866242834671784,-2.4227626539681686,,,-2.0966200210224852,0.08135228161930574,1.7671335657296072,-4.221113504289261,0.618814063342287,-0.49995877847457804,4.2
note,G,up,0.2621632653061225,0.2651428571428572,0.15255102040816326,0.0,-0.052866242834671784,-2.4227626539681686,,,-2.0917551892579267,0.08025397391735867,1.7692823502979158,-4.223016807514229,0.6217085079787799,-0.49357869769849216,4.21
note,G,up,0.26477551020408163,0.26742857142857146,0.15236734693877552,0.0,-0.052866242834671784,-2.4227626539681686,,,-2.086890270599649,0.0791557139264325,1.771430925692241,-4.224919857168292,0.6246034179974793,-0.48719861692240585,4.22
note,G,up,0.2673877551020408,0.2697142857142857,0.15218367346938774,0.0,-0.052866242834671784,-2.4227626539681686,,,-2.0820253345626267,0.07805754935754827,1.7735794413225707,-4.2268223996805405,0.6274983280161788,-0.48081853614632,4.23
note,G,up,0.27,0.272,0.152,0.0,-0.052866242834671784,-2.4227626539681686,,,-2.077160433283093,0.0769592416556012,1.7757281960088815,-4.228725449334602,0.630393005343775,-0.4744383166396515,4.24
note,G,down,0.27,0.272,0.152,0.0,-0.052866242834671784,-2.4227626539681686,,,-2.077160433283093,0.0769592416556012,1.7757281960088815,-4.228725449334602,0.630393005343775,-0.4744383166396515,4.25
note,G,down,0.2646666666666667,0.26733333333333337,0.152375,0.0,-0.052866242834671784,-2.4227626539681686,,,-2.087092958889114,0.07920146879551015,1.7713414291093086,-4.224840235903618,0.624482884005864,-0.4874644247192048,4.26
note,G,down,0.2593333333333333,0.26266666666666666,0.15275,0.0,-0.052866242834671784,-2.4227626539681686,,,-2.0970254323589037,0.08144379135746105,1.7669545725637426,-4.220954768901727,0.6185727626679531,-0.5004903940681755,4.2700000000000005
note,G,down,0.254,0.258,0.153125,0.0,-0.052866242834671784,-2.4227626539681686,,,-2.1069584619484965,0.08399280036198864,1.7623981057995708,-4.2165111923344005,0.6124995248664851,-0.5134037141838474,4.28
note,G,down,0.2486666666666667,0.25333333333333335,0.15350000000000003,0.0,-0.052866242834671784,-2.4227626539681686,,,-2.1176915046322544,0.08682168221532682,1.7600636046159284,-4.211795787755195,0.6054578266922315,-0.5269177377233913,4.29
note,G,down,0.24333333333333332,0.24866666666666667,0.15387499999999998,0.0,-0.052866242834671784,-2.4227626539681686,,,-2.1288072967704568,0.09029542622763631,1.757593170225021,-4.207942777829349,0.5985106011060011,-0.5404996005179634,4.3
note,G,down,0.23800000000000002,0.24400000000000002,0.15425,0.0,-0.052866242834671784,-2.4227626539681686,,,-2.1399345936370846,0.09371096279440383,1.7550833214792259,-4.204010907351549,0.5915838523368788,-0.5540836830018621,4.3100000000000005
note,G,down,0.23266666666666666,0.23933333333333331,0.15462499999999998,0.0,-0.052866242834671784,-2.4227626539681686,,,-2.1512610682869213,0.09611259245526005,1.7518778198283673,-4.1987074718399295,0.5850149824849464,-0.5676984249445769,4.32
note,G,down,0.22733333333333333,0.2346666666666667,0.15500000000000003,0.0,-0.052866242834671784,-2.4227626539681686,,,-2.1625875776942456,0.0985139835610116,1.7486721986495182,-4.1934035291864955,0.578446112633014,-0.5813128894261261,4.33
note,G,down,0.222,0.23,0.15537499999999999,0.0,-0.052866242834671784,-2.4227626539681686,,,-2.17391408710157,0.10091532695574212,1.7454669659366382,-4.188100093674875,0.5718772427810817,-0.594927908830007,4.34
note,G,down,0.21666666666666667,0.22533333333333333,0.15575,0.0,-0.052866242834671784,-2.4227626539681686,,,-2.1852405791301504,0.10331681348353561,1.7422617033417607,-4.182796658163255,0.5653083729291493,-0.6085423733115563,4.3500000000000005
note,G,down,0.21133333333333335,0.2206666666666667,0.156125,0.0,-0.052866242834671784,-2.4227626539681686,,,-2.196600473104401,0.10567774564353338,1.73921084102869,-4.177171694742062,0.5585212388221297,-0.622155173026111,4.36
note,G,down,0.20600000000000002,0.21600000000000003,0.1565,0.0,-0.052866242834671784,-2.4227626539681686,,,-2.208006003659989,0.10798295133107794,1.736371871960886,-4.171105771514283,0.5514348639560032,-0.6357653368595908,4.37
note,G,down,0.20066666666666666,0.21133333333333335,0.156875,0.0,-0.052866242834671784,-2.4227626539681686,,,-2.21932684759682,0.11006916343252615,1.7335349946329168,-4.165487654507568,0.5445062536580529,-0.6491789194571294,4.38
note,G,down,0.19533333333333333,0.20666666666666667,0.15725,0.0,-0.052866242834671784,-2.4227626539681686,,,-2.230427885181498,0.11158809149504512,1.7307028685425723,-4.161030892253098,0.5379876450844776,-0.6620819735096679,4.39
note,G,down,0.19,0.202,0.15762500000000002,0.0,-0.052866242834671784,-2.4227626539681686,,,-2.24152889669806,0.11310701955756419,1.7278706229242373,-4.156573622856815,0.5314691528564539,-0.6749851662927895,4.4
note,G,down,0.18466666666666665,0.19733333333333336,0.158,0.0,-0.052866242834671784,-2.4227626539681686,,,-2.2526299690402256,0.1146257567759994,1.7250387060078762,-4.152116607031439,0.5249506606284302,-0.687888220345328,4.41
note,G,down,0.17933333333333334,0.19266666666666665,0.15837500000000002,0.0,-0.052866242834671784,-2.4227626539681686,,,-2.2637309197311843,0.11614458941647654,1.722206579917532,-4.147659844776969,0.5184321684004067,-0.7007912743978668,4.42
note,G,down,0.174,0.188,0.15875,0.0,-0.052866242834671784,-2.4227626539681686,,,-2.274832026830838,0.11766342205695368,1.7193743641811945,-4.143202321809779,0.5119134434812795,-0.7136946059115712,4.43
note,G,down,0.16866666666666666,0.18333333333333332,0.15912500000000002,0.0,-0.052866242834671784,-2.4227626539681686,,,-2.2859330122792842,0.11918215927538889,1.7165422082088524,-4.138745052413497,0.5053950675988077,-0.7265976599641097,4.44
note,G,down,0.16333333333333333,0.17866666666666667,0.1595,0.0,-0.052866242834671784,-2.4227626539681686,,,-2.2976255006532424,0.120706955793483,1.7154234560992014,-4.135179845466646,0.500009315662644,-0.7407391619300217,4.45
note,G,down,0.15799999999999997,0.17400000000000002,0.159875,0.0,-0.052866242834671784,-2.4227626539681686,,,-2.309839125418884,0.12223671425775451,1.715814402274328,-4.132400201188455,0.4956223902882735,-0.7559719186608707,4.46
note,G,down,0.15266666666666667,0.16933333333333334,0.16025,0.0,-0.052866242834671784,-2.4227626539681686,,,-2.3220526632908056,0.12376666356610977,1.7162052588034618,-4.129620556910263,0.4912354649139028,-0.7712046753917194,4.47
note,G,down,0.14733333333333332,0.16466666666666668,0.16062500000000002,0.0,-0.052866242834671784,-2.4227626539681686,,,-2.334743543119921,0.12606180222823682,1.7171987754610027,-4.127498421992895,0.48678652736044836,-0.7870249561410667,4.48
