Praneshv25/Robot-Cello-RL/Data-Files/URSim-Data/allegro-bowings-sim.csv
timestamp_robot,time_elapsed_sec,event_flag,event_label,current_event_type,current_note_number,current_note_name,current_string,current_bowing,remaining_duration_sec,TCP_pose_x,TCP_pose_y,TCP_pose_z,TCP_pose_rx,TCP_pose_ry,TCP_pose_rz,q_base,q_shoulder,q_elbow,q_wrist1,q_wrist2,q_wrist3,TCP_force_x,TCP_force_y,TCP_force_z,TCP_force_rx,TCP_force_ry,TCP_force_rz
1392.990000,0.000000,1,START a_bow,Note,62,D4,A,up,0.498958,0.302286,0.788677,0.101720,-1.544000,-2.355000,1.346999,1.263549,-2.978133,-0.436213,-2.168728,1.800114,3.887962,0.000000,0.000000,0.000000,0.000000,0.000000,0.000000
1392.998000,0.008000,1,START a_bow,Note,62,D4,A,up,0.490958,0.302441,0.788196,0.101918,-1.544000,-2.355000,1.346999,1.263208,-2.975897,-0.440400,-2.166828,1.799853,3.887737,0.000000,0.000000,0.000000,0.000000,0.000000,0.000000
1393.006000,0.016000,1,START a_bow,Note,62,D4,A,up,0.482958,0.302607,0.787680,0.102130,-1.544000,-2.355000,1.346999,1.262843,-2.973520,-0.444844,-2.164815,1.799573,3.887495,0.000000,0.000000,0.000000,0.000000,0.000000,0.000000
1393.014000,0.024000,1,START a_bow,Note,62,D4,A,up,0.474958,0.302785,0.787128,0.102357,-1.544000,-2.355000,1.346999,1.262451,-2.971001,-0.449550,-2.162688,1.799274,3.887236,0.000000,0.000000,0.000000,0.000000,0.000000,0.000000
1393.022000,0.032000,1,START a_bow,Note,62,D4,A,up,0.466958,0.302975,0.786537,0.102600,-1.544000,-2.355000,1.346999,1.262032,-2.968335,-0.454524,-2.160443,1.798953,3.886958,0.000000,0.000000,0.000000,0.000000,0.000000,0.000000
1393.030000,0.040000,1,START a_bow,Note,62,D4,A,up,0.458958,0.303178,0.785907,0.102859,-1.544000,-2.355000,1.346999,1.261584,-2.965519,-0.459770,-2.158079,1.798610,3.886662,0.000000,0.000000,0.000000,0.000000,0.000000,0.000000
1393.038000,0.048000,1,START a_bow,Note,62,D4,A,up,0.450958,0.303394,0.785236,0.103134,-1.544000,-2.355000,1.346999,1.261106,-2.962550,-0.465294,-2.155596,1.798245,3.886346,0.000000,0.000000,0.000000,0.000000,0.000000,0.000000
1393.046000,0.056000,1,START a_bow,Note,62,D4,A,up,0.442958,0.303625,0.784521,0.103428,-1.544000,-2.355000,1.346999,1.260597,-2.959425,-0.471099,-2.152992,1.797855,3.886010,0.000000,0.000000,0.000000,0.000000,0.000000,0.000000
1393.054000,0.064000,1,START a_bow,Note,62,D4,A,up,0.434958,0.303869,0.783761,0.103740,-1.544000,-2.355000,1.346999,1.260054,-2.956142,-0.477189,-2.150266,1.797440,3.885651,0.000000,0.000000,0.000000,0.000000,0.000000,0.000000
1393.062000,0.072000,1,START a_bow,Note,62,D4,A,up,0.426958,0.304126,0.782965,0.104067,-1.544000,-2.355000,1.346999,1.259485,-2.952741,-0.483487,-2.147453,1.797005,3.885275,0.000000,0.000000,0.000000,0.000000,0.000000,0.000000
1393.070000,0.080000,1,START a_bow,Note,62,D4,A,up,0.418958,0.304392,0.782138,0.104407,-1.544000,-2.355000,1.346999,1.258893,-2.949249,-0.489941,-2.144578,1.796552,3.884884,0.000000,0.000000,0.000000,0.000000,0.000000,0.000000
1393.078000,0.088000,1,START a_bow,Note,62,D4,A,up,0.410958,0.304669,0.781279,0.104760,-1.544000,-2.355000,1.346999,1.258278,-2.945670,-0.496545,-2.141644,1.796081,3.884478,0.000000,0.000000,0.000000,0.000000,0.000000,0.000000
1393.086000,0.096000,1,START a_bow,Note,62,D4,A,up,0.402958,0.304955,0.780390,0.105126,-1.544000,-2.355000,1.346999,1.257639,-2.942007,-0.503293,-2.138654,1.795592,3.884056,0.000000,0.000000,0.000000,0.000000,0.000000,0.000000
1393.094000,0.104000,1,START a_bow,Note,62,D4,A,up,0.394958,0.305252,0.779469,0.105504,-1.544000,-2.355000,1.346999,1.256977,-2.938263,-0.510177,-2.135611,1.795085,3.883619,0.000000,0.000000,0.000000,0.000000,0.000000,0.000000
1393.102000,0.112000,1,START a_bow,Note,62,D4,A,up,0.386958,0.305558,0.778517,0.105895,-1.544000,-2.355000,1.346999,1.256291,-2.934440,-0.517193,-2.132518,1.794560,3.883166,0.000000,0.000000,0.000000,0.000000,0.000000,0.000000
1393.110000,0.120000,1,START a_bow,Note,62,D4,A,up,0.378958,0.305875,0.777535,0.106299,-1.544000,-2.355000,1.346999,1.255581,-2.930541,-0.524335,-2.129379,1.794017,3.882698,0.000000,0.000000,0.000000,0.000000,0.000000,0.000000
1393.118000,0.128000,1,START a_bow,Note,62,D4,A,up,0.370958,0.306201,0.776521,0.106715,-1.544000,-2.355000,1.346999,1.254848,-2.926569,-0.531596,-2.126197,1.793456,3.882214,0.000000,0.000000,0.000000,0.000000,0.000000,0.000000
1393.126000,0.136000,1,START a_bow,Note,62,D4,A,up,0.362958,0.306538,0.775476,0.107145,-1.544000,-2.355000,1.346999,1.254091,-2.922526,-0.538972,-2.122974,1.792876,3.881715,0.000000,0.000000,0.000000,0.000000,0.000000,0.000000
1393.134000,0.144000,1,START a_bow,Note,62,D4,A,up,0.354958,0.306885,0.774400,0.107587,-1.544000,-2.355000,1.346999,1.253309,-2.918414,-0.546458,-2.119714,1.792278,3.881200,0.000000,0.000000,0.000000,0.000000,0.000000,0.000000
1393.142000,0.152000,1,START a_bow,Note,62,D4,A,up,0.346958,0.307241,0.773293,0.108042,-1.544000,-2.355000,1.346999,1.252504,-2.914237,-0.554047,-2.116418,1.791661,3.880669,0.000000,0.000000,0.000000,0.000000,0.000000,0.000000
1393.150000,0.160000,1,START a_bow,Note,62,D4,A,up,0.338958,0.307608,0.772155,0.108509,-1.544000,-2.355000,1.346999,1.251674,-2.909995,-0.561737,-2.113090,1.791025,3.880122,0.000000,0.000000,0.000000,0.000000,0.000000,0.000000
1393.158000,0.168000,1,START a_bow,Note,62,D4,A,up,0.330958,0.307984,0.770985,0.108990,-1.544000,-2.355000,1.346999,1.250820,-2.905692,-0.569521,-2.109731,1.790371,3.879559,0.000000,0.000000,0.000000,0.000000,0.000000,0.000000
1393.166000,0.176000,1,START a_bow,Note,62,D4,A,up,0.322958,0.308369,0.769790,0.109481,-1.544000,-2.355000,1.346999,1.249944,-2.901348,-0.577362,-2.106360,1.789700,3.878982,0.000000,0.000000,0.000000,0.000000,0.000000,0.000000
1393.174000,0.184000,1,START a_bow,Note,62,D4,A,up,0.314958,0.308755,0.768593,0.109973,-1.544000,-2.355000,1.346999,1.249065,-2.897047,-0.585108,-2.103040,1.789027,3.878404,0.000000,0.000000,0.000000,0.000000,0.000000,0.000000
1393.182000,0.192000,1,START a_bow,Note,62,D4,A,up,0.306958,0.309141,0.767395,0.110465,-1.544000,-2.355000,1.346999,1.248184,-2.892797,-0.592746,-2.099778,1.788352,3.877823,0.000000,0.000000,0.000000,0.000000,0.000000,0.000000
1393.190000,0.200000,1,START a_bow,Note,62,D4,A,up,0.298958,0.309527,0.766197,0.110957,-1.544000,-2.355000,1.346999,1.247301,-2.888595,-0.600280,-2.096571,1.787675,3.877242,0.000000,0.000000,0.000000,0.000000,0.000000,0.000000
1393.198000,0.208000,1,START a_bow,Note,62,D4,A,up,0.290958,0.309913,0.764999,0.111449,-1.544000,-2.355000,1.346999,1.246415,-2.884440,-0.607713,-2.093417,1.786996,3.876660,0.000000,0.000000,0.000000,0.000000,0.000000,0.000000
1393.206000,0.216000,1,START a_bow,Note,62,D4,A,up,0.282958,0.310298,0.763801,0.111942,-1.544000,-2.355000,1.346999,1.245528,-2.880331,-0.615050,-2.090315,1.786316,3.876077,0.000000,0.000000,0.000000,0.000000,0.000000,0.000000
1393.214000,0.224000,1,START a_bow,Note,62,D4,A,up,0.274958,0.310684,0.762603,0.112434,-1.544000,-2.355000,1.346999,1.244639,-2.876265,-0.622293,-2.087263,1.785635,3.875492,0.000000,0.000000,0.000000,0.000000,0.000000,0.000000
1393.222000,0.232000,1,START a_bow,Note,62,D4,A,up,0.266958,0.311070,0.761406,0.112926,-1.544000,-2.355000,1.346999,1.243748,-2.872241,-0.629446,-2.084258,1.784952,3.874906,0.000000,0.000000,0.000000,0.000000,0.000000,0.000000
1393.230000,0.240000,1,START a_bow,Note,62,D4,A,up,0.258958,0.311456,0.760208,0.113418,-1.544000,-2.355000,1.346999,1.242854,-2.868258,-0.636511,-2.081300,1.784267,3.874319,0.000000,0.000000,0.000000,0.000000,0.000000,0.000000
1393.238000,0.248000,1,START a_bow,Note,62,D4,A,up,0.250958,0.311842,0.759010,0.113910,-1.544000,-2.355000,1.346999,1.241959,-2.864314,-0.643493,-2.078388,1.783580,3.873731,0.000000,0.000000,0.000000,0.000000,0.000000,0.000000
1393.246000,0.256000,1,START a_bow,Note,62,D4,A,up,0.242958,0.312227,0.757812,0.114402,-1.544000,-2.355000,1.346999,1.241062,-2.860408,-0.650392,-2.075518,1.782892,3.873142,0.000000,0.000000,0.000000,0.000000,0.000000,0.000000
1393.254000,0.264000,1,START a_bow,Note,62,D4,A,up,0.234958,0.312613,0.756614,0.114895,-1.544000,-2.355000,1.346999,1.240162,-2.856539,-0.657213,-2.072691,1.782203,3.872552,0.000000,0.000000,0.000000,0.000000,0.000000,0.000000
1393.262000,0.272000,1,START a_bow,Note,62,D4,A,up,0.226958,0.312999,0.755417,0.115387,-1.544000,-2.355000,1.346999,1.239261,-2.852705,-0.663956,-2.069905,1.781511,3.871960,0.000000,0.000000,0.000000,0.000000,0.000000,0.000000
1393.270000,0.280000,1,START a_bow,Note,62,D4,A,up,0.218958,0.313385,0.754219,0.115879,-1.544000,-2.355000,1.346999,1.238358,-2.848906,-0.670625,-2.067159,1.780818,3.871368,0.000000,0.000000,0.000000,0.000000,0.000000,0.000000
1393.278000,0.288000,1,START a_bow,Note,62,D4,A,up,0.210958,0.313771,0.753021,0.116371,-1.544000,-2.355000,1.346999,1.237452,-2.845141,-0.677222,-2.064451,1.780124,3.870774,0.000000,0.000000,0.000000,0.000000,0.000000,0.000000
1393.286000,0.296000,1,START a_bow,Note,62,D4,A,up,0.202958,0.314156,0.751823,0.116863,-1.544000,-2.355000,1.346999,1.236545,-2.841407,-0.683748,-2.061782,1.779427,3.870179,0.000000,0.000000,0.000000,0.000000,0.000000,0.000000
1393.294000,0.304000,1,START a_bow,Note,62,D4,A,up,0.194958,0.314542,0.750625,0.117355,-1.544000,-2.355000,1.346999,1.235635,-2.837706,-0.690207,-2.059148,1.778729,3.869582,0.000000,0.000000,0.000000,0.000000,0.000000,0.000000
1393.302000,0.312000,1,START a_bow,Note,62,D4,A,up,0.186958,0.314928,0.749428,0.117848,-1.544000,-2.355000,1.346999,1.234723,-2.834035,-0.696598,-2.056551,1.778030,3.868985,0.000000,0.000000,0.000000,0.000000,0.000000,0.000000
1393.310000,0.320000,1,START a_bow,Note,62,D4,A,up,0.178958,0.315314,0.748230,0.118340,-1.544000,-2.355000,1.346999,1.233810,-2.830393,-0.702925,-2.053988,1.777329,3.868386,0.000000,0.000000,0.000000,0.000000,0.000000,0.000000
1393.318000,0.328000,1,START a_bow,Note,62,D4,A,up,0.170958,0.315700,0.747032,0.118832,-1.544000,-2.355000,1.346999,1.232894,-2.826781,-0.709189,-2.051459,1.776626,3.867787,0.000000,0.000000,0.000000,0.000000,0.000000,0.000000
1393.326000,0.336000,1,START a_bow,Note,62,D4,A,up,0.162958,0.316085,0.745834,0.119324,-1.544000,-2.355000,1.346999,1.231976,-2.823197,-0.715392,-2.048964,1.775921,3.867186,0.000000,0.000000,0.000000,0.000000,0.000000,0.000000
1393.334000,0.344000,1,START a_bow,Note,62,D4,A,up,0.154958,0.316471,0.744636,0.119816,-1.544000,-2.355000,1.346999,1.231056,-2.819640,-0.721535,-2.046500,1.775215,3.866584,0.000000,0.000000,0.000000,0.000000,0.000000,0.000000
1393.342000,0.352000,1,START a_bow,Note,62,D4,A,up,0.146958,0.316857,0.743438,0.120309,-1.544000,-2.355000,1.346999,1.230134,-2.816110,-0.727619,-2.044068,1.774507,3.865980,0.000000,0.000000,0.000000,0.000000,0.000000,0.000000
1393.350000,0.360000,1,START a_bow,Note,62,D4,A,up,0.138958,0.317243,0.742241,0.120801,-1.544000,-2.355000,1.346999,1.229210,-2.812605,-0.733647,-2.041666,1.773797,3.865376,0.000000,0.000000,0.000000,0.000000,0.000000,0.000000
1393.358000,0.368000,1,START a_bow,Note,62,D4,A,up,0.130958,0.317629,0.741043,0.121293,-1.544000,-2.355000,1.346999,1.228284,-2.809127,-0.739619,-2.039295,1.773086,3.864770,0.000000,0.000000,0.000000,0.000000,0.000000,0.000000
1393.366000,0.376000,1,START a_bow,Note,62,D4,A,up,0.122958,0.318014,0.739845,0.121785,-1.544000,-2.355000,1.346999,1.227355,-2.805673,-0.745537,-2.036953,1.772373,3.864163,0.000000,0.000000,0.000000,0.000000,0.000000,0.000000
1393.374000,0.384000,1,START a_bow,Note,62,D4,A,up,0.114958,0.318400,0.738647,0.122277,-1.544000,-2.355000,1.346999,1.226425,-2.802243,-0.751402,-2.034640,1.771658,3.863555,0.000000,0.000000,0.000000,0.000000,0.000000,0.000000
1393.382000,0.392000,1,START a_bow,Note,62,D4,A,up,0.106958,0.318786,0.737449,0.122769,-1.544000,-2.355000,1.346999,1.225492,-2.798836,-0.757215,-2.032355,1.770942,3.862946,0.000000,0.000000,0.000000,0.000000,0.000000,0.000000
1393.390000,0.400000,1,START a_bow,Note,62,D4,A,up,0.098958,0.319172,0.736252,0.123262,-1.544000,-2.355000,1.346999,1.224557,-2.795453,-0.762977,-2.030097,1.770224,3.862335,0.000000,0.000000,0.000000,0.000000,0.000000,0.000000
1393.398000,0.408000,1,START a_bow,Note,62,D4,A,up,0.090958,0.319558,0.735054,0.123754,-1.544000,-2.355000,1.346999,1.223621,-2.792092,-0.768690,-2.027866,1.769504,3.861724,0.000000,0.000000,0.000000,0.000000,0.000000,0.000000
1393.406000,0.416000,1,START a_bow,Note,62,D4,A,up,0.082958,0.319944,0.733856,0.124246,-1.544000,-2.355000,1.346999,1.222682,-2.788753,-0.774354,-2.025662,1.768783,3.861111,0.000000,0.000000,0.000000,0.000000,0.000000,0.000000
1393.414000,0.424000,1,START a_bow,Note,62,D4,A,up,0.074958,0.320329,0.732658,0.124738,-1.544000,-2.355000,1.346999,1.221741,-2.785436,-0.779970,-2.023483,1.768060,3.860497,0.000000,0.000000,0.000000,0.000000,0.000000,0.000000
1393.422000,0.432000,1,START a_bow,Note,62,D4,A,up,0.066958,0.320715,0.731460,0.125230,-1.544000,-2.355000,1.346999,1.220797,-2.782139,-0.785541,-2.021330,1.767335,3.859881,0.000000,0.000000,0.000000,0.000000,0.000000,0.000000
1393.430000,0.440000,1,START a_bow,Note,62,D4,A,up,0.058958,0.321101,0.730262,0.125722,-1.544000,-2.355000,1.346999,1.219852,-2.778863,-0.791065,-2.019201,1.766608,3.859265,0.000000,0.000000,0.000000,0.000000,0.000000,0.000000
1393.438000,0.448000,1,START a_bow,Note,62,D4,A,up,0.050958,0.321487,0.729065,0.126215,-1.544000,-2.355000,1.346999,1.218905,-2.775607,-0.796545,-2.017097,1.765880,3.858647,0.000000,0.000000,0.000000,0.000000,0.000000,0.000000
1393.446000,0.456000,1,START a_bow,Note,62,D4,A,up,0.042958,0.321873,0.727867,0.126707,-1.544000,-2.355000,1.346999,1.217955,-2.772371,-0.801982,-2.015017,1.765150,3.858028,0.000000,0.000000,0.000000,0.000000,0.000000,0.000000
1393.454000,0.464000,1,START a_bow,Note,62,D4,A,up,0.034958,0.322258,0.726669,0.127199,-1.544000,-2.355000,1.346999,1.217003,-2.769154,-0.807375,-2.012960,1.764418,3.857408,0.000000,0.000000,0.000000,0.000000,0.000000,0.000000
1393.462000,0.472000,1,START a_bow,Note,62,D4,A,up,0.026958,0.322644,0.725471,0.127691,-1.544000,-2.355000,1.346999,1.216049,-2.765956,-0.812726,-2.010926,1.763684,3.856786,0.000000,0.000000,0.000000,0.000000,0.000000,0.000000
1393.470000,0.480000,1,START a_bow,Note,62,D4,A,up,0.018958,0.323030,0.724273,0.128183,-1.544000,-2.355000,1.346999,1.215093,-2.762776,-0.818037,-2.008915,1.762949,3.856163,0.000000,0.000000,0.000000,0.000000,0.000000,0.000000
1393.478000,0.488000,1,START a_bow,Note,62,D4,A,up,0.010958,0.323416,0.723076,0.128675,-1.544000,-2.355000,1.346999,1.214135,-2.759615,-0.823306,-2.006926,1.762212,3.855539,0.000000,0.000000,0.000000,0.000000,0.000000,0.000000
1393.486000,0.496000,1,START a_bow,Note,62,D4,A,up,0.002958,0.323802,0.721878,0.129168,-1.544000,-2.355000,1.346999,1.213174,-2.756471,-0.828536,-2.004959,1.761473,3.854914,0.000000,0.000000,0.000000,0.000000,0.000000,0.000000
1393.494000,0.504000,1,START a_bow,Note,62,D4,A,up,0.494958,0.324187,0.720680,0.129660,-1.544000,-2.355000,1.346999,1.212211,-2.753344,-0.833726,-2.003013,1.760733,3.854288,0.000000,0.000000,0.000000,0.000000,0.000000,0.000000
1393.502000,0.512000,1,START a_bow,Note,62,D4,A,up,0.486958,0.324573,0.719482,0.130152,-1.544000,-2.355000,1.346999,1.211246,-2.750235,-0.838879,-2.001088,1.759990,3.853660,0.000000,0.000000,0.000000,0.000000,0.000000,0.000000
1393.510000,0.520000,1,START a_bow,Note,62,D4,A,up,0.478958,0.324959,0.718284,0.130644,-1.544000,-2.355000,1.346999,1.210279,-2.747142,-0.843993,-1.999184,1.759246,3.853031,0.000000,0.000000,0.000000,0.000000,0.000000,0.000000
1393.518000,0.528000,1,START a_bow,Note,62,D4,A,up,0.470958,0.325345,0.717087,0.131136,-1.544000,-2.355000,1.346999,1.209310,-2.744066,-0.849071,-1.997301,1.758500,3.852401,0.000000,0.000000,0.000000,0.000000,0.000000,0.000000
1393.526000,0.536000,1,START a_bow,Note,62,D4,A,up,0.462958,0.325731,0.715889,0.131628,-1.544000,-2.355000,1.346999,1.208338,-2.741006,-0.854112,-1.995438,1.757753,3.851769,0.000000,0.000000,0.000000,0.000000,0.000000,0.000000
1393.534000,0.544000,1,START a_bow,Note,62,D4,A,up,0.454958,0.326116,0.714691,0.132121,-1.544000,-2.355000,1.346999,1.207365,-2.737961,-0.859117,-1.993594,1.757003,3.851137,0.000000,0.000000,0.000000,0.000000,0.000000,0.000000
1393.542000,0.552000,1,START a_bow,Note,62,D4,A,up,0.446958,0.326502,0.713493,0.132613,-1.544000,-2.355000,1.346999,1.206389,-2.734932,-0.864088,-1.991770,1.756252,3.850503,0.000000,0.000000,0.000000,0.000000,0.000000,0.000000
1393.550000,0.560000,1,START a_bow,Note,62,D4,A,up,0.438958,0.326884,0.712308,0.133100,-1.544000,-2.355000,1.346999,1.205421,-2.731952,-0.868969,-1.989985,1.755507,3.849874,0.000000,0.000000,0.000000,0.000000,0.000000,0.000000
1393.558000,0.568000,1,START a_bow,Note,62,D4,A,up,0.430958,0.327255,0.711155,0.133574,-1.544000,-2.355000,1.346999,1.204477,-2.729063,-0.873691,-1.988264,1.754781,3.849261,0.000000,0.000000,0.000000,0.000000,0.000000,0.000000
1393.566000,0.576000,1,START a_bow,Note,62,D4,A,up,0.422958,0.327617,0.710032,0.134035,-1.544000,-2.355000,1.346999,1.203556,-2.726266,-0.878255,-1.986606,1.754072,3.848664,0.000000,0.000000,0.000000,0.000000,0.000000,0.000000
1393.574000,0.584000,1,START a_bow,Note,62,D4,A,up,0.414958,0.327969,0.708941,0.134483,-1.544000,-2.355000,1.346999,1.202659,-2.723558,-0.882666,-1.985009,1.753381,3.848082,0.000000,0.000000,0.000000,0.000000,0.000000,0.000000
1393.582000,0.592000,1,START a_bow,Note,62,D4,A,up,0.406958,0.328310,0.707880,0.134919,-1.544000,-2.355000,1.346999,1.201786,-2.720938,-0.886925,-1.983473,1.752708,3.847515,0.000000,0.000000,0.000000,0.000000,0.000000,0.000000
1393.590000,0.600000,1,START a_bow,Note,62,D4,A,up,0.398958,0.328642,0.706851,0.135342,-1.544000,-2.355000,1.346999,1.200936,-2.718406,-0.891035,-1.981994,1.752054,3.846964,0.000000,0.000000,0.000000,0.000000,0.000000,0.000000
1393.598000,0.608000,1,START a_bow,Note,62,D4,A,up,0.390958,0.328963,0.705852,0.135752,-1.544000,-2.355000,1.346999,1.200111,-2.715960,-0.894998,-1.980573,1.751418,3.846429,0.000000,0.000000,0.000000,0.000000,0.000000,0.000000
1393.606000,0.616000,1,START a_bow,Note,62,D4,A,up,0.382958,0.329275,0.704885,0.136150,-1.544000,-2.355000,1.346999,1.199310,-2.713599,-0.898817,-1.979208,1.750801,3.845909,0.000000,0.000000,0.000000,0.000000,0.000000,0.000000
1393.614000,0.624000,1,START a_bow,Note,62,D4,A,up,0.374958,0.329576,0.703949,0.136534,-1.544000,-2.355000,1.346999,1.198533,-2.711323,-0.902495,-1.977897,1.750203,3.845406,0.000000,0.000000,0.000000,0.000000,0.000000,0.000000
1393.622000,0.632000,1,START a_bow,Note,62,D4,A,up,0.366958,0.329868,0.703044,0.136906,-1.544000,-2.355000,1.346999,1.197780,-2.709129,-0.906032,-1.976640,1.749623,3.844918,0.000000,0.000000,0.000000,0.000000,0.000000,0.000000
1393.630000,0.640000,1,START a_bow,Note,62,D4,A,up,0.358958,0.330149,0.702170,0.137265,-1.544000,-2.355000,1.346999,1.197053,-2.707018,-0.909432,-1.975435,1.749063,3.844447,0.000000,0.000000,0.000000,0.000000,0.000000,0.000000
1393.638000,0.648000,1,START a_bow,Note,62,D4,A,up,0.350958,0.330421,0.701327,0.137612,-1.544000,-2.355000,1.346999,1.196349,-2.704989,-0.912695,-1.974281,1.748521,3.843991,0.000000,0.000000,0.000000,0.000000,0.000000,0.000000
1393.646000,0.656000,1,START a_bow,Note,62,D4,A,up,0.342958,0.330682,0.700515,0.137945,-1.544000,-2.355000,1.346999,1.195671,-2.703041,-0.915825,-1.973178,1.747998,3.843552,0.000000,0.000000,0.000000,0.000000,0.000000,0.000000
1393.654000,0.664000,1,START a_bow,Note,62,D4,A,up,0.334958,0.330934,0.699734,0.138266,-1.544000,-2.355000,1.346999,1.195018,-2.701173,-0.918822,-1.972124,1.747495,3.843129,0.000000,0.000000,0.000000,0.000000,0.000000,0.000000
1393.662000,0.672000,1,START a_bow,Note,62,D4,A,up,0.326958,0.331175,0.698985,0.138574,-1.544000,-2.355000,1.346999,1.194390,-2.699384,-0.921688,-1.971118,1.747011,3.842722,0.000000,0.000000,0.000000,0.000000,0.000000,0.000000
1393.670000,0.680000,1,START a_bow,Note,62,D4,A,up,0.318958,0.331407,0.698266,0.138869,-1.544000,-2.355000,1.346999,1.193787,-2.697673,-0.924424,-1.970160,1.746546,3.842332,0.000000,0.000000,0.000000,0.000000,0.000000,0.000000
1393.678000,0.688000,1,START a_bow,Note,62,D4,A,up,0.310958,0.331628,0.697579,0.139152,-1.544000,-2.355000,1.346999,1.193209,-2.696041,-0.927032,-1.969249,1.746101,3.841958,0.000000,0.000000,0.000000,0.000000,0.000000,0.000000
1393.686000,0.696000,1,START a_bow,Note,62,D4,A,up,0.302958,0.331840,0.696922,0.139422,-1.544000,-2.355000,1.346999,1.192657,-2.694487,-0.929514,-1.968384,1.745675,3.841601,0.000000,0.000000,0.000000,0.000000,0.000000,0.000000
1393.694000,0.704000,1,START a_bow,Note,62,D4,A,up,0.294958,0.332041,0.696297,0.139679,-1.544000,-2.355000,1.346999,1.192130,-2.693009,-0.931871,-1.967564,1.745269,3.841260,0.000000,0.000000,0.000000,0.000000,0.000000,0.000000
1393.702000,0.712000,1,START a_bow,Note,62,D4,A,up,0.286958,0.332233,0.695702,0.139923,-1.544000,-2.355000,1.346999,1.191629,-2.691608,-0.934103,-1.966789,1.744883,3.840936,0.000000,0.000000,0.000000,0.000000,0.000000,0.000000
1393.710000,0.720000,1,START a_bow,Note,62,D4,A,up,0.278958,0.332414,0.695139,0.140154,-1.544000,-2.355000,1.346999,1.191154,-2.690283,-0.936212,-1.966058,1.744517,3.840628,0.000000,0.000000,0.000000,0.000000,0.000000,0.000000
1393.718000,0.728000,1,START a_bow,Note,62,D4,A,up,0.270958,0.332585,0.694607,0.140373,-1.544000,-2.355000,1.346999,1.190704,-2.689034,-0.938200,-1.965371,1.744170,3.840337,0.000000,0.000000,0.000000,0.000000,0.000000,0.000000
1393.726000,0.736000,1,START a_bow,Note,62,D4,A,up,0.262958,0.332747,0.694106,0.140579,-1.544000,-2.355000,1.346999,1.190280,-2.687859,-0.940066,-1.964726,1.743843,3.840063,0.000000,0.000000,0.000000,0.000000,0.000000,0.000000
1393.734000,0.744000,1,START a_bow,Note,62,D4,A,up,0.254958,0.332898,0.693636,0.140772,-1.544000,-2.355000,1.346999,1.189882,-2.686759,-0.941812,-1.964124,1.743536,3.839806,0.000000,0.000000,0.000000,0.000000,0.000000,0.000000
1393.742000,0.752000,1,START a_bow,Note,62,D4,A,up,0.246958,0.333040,0.693197,0.140952,-1.544000,-2.355000,1.346999,1.189510,-2.685734,-0.943439,-1.963564,1.743250,3.839566,0.000000,0.000000,0.000000,0.000000,0.000000,0.000000
1393.750000,0.760000,1,START a_bow,Note,62,D4,A,up,0.238958,0.333171,0.692789,0.141120,-1.544000,-2.355000,1.346999,1.189164,-2.684782,-0.944947,-1.963045,1.742983,3.839342,0.000000,0.000000,0.000000,0.000000,0.000000,0.000000
1393.758000,0.768000,1,START a_bow,Note,62,D4,A,up,0.230958,0.333292,0.692412,0.141275,-1.544000,-2.355000,1.346999,1.188844,-2.683905,-0.946338,-1.962568,1.742736,3.839135,0.000000,0.000000,0.000000,0.000000,0.000000,0.000000
1393.766000,0.776000,1,START a_bow,Note,62,D4,A,up,0.222958,0.333404,0.692066,0.141417,-1.544000,-2.355000,1.346999,1.188551,-2.683100,-0.947612,-1.962131,1.742510,3.838946,0.000000,0.000000,0.000000,0.000000,0.000000,0.000000
1393.774000,0.784000,1,START a_bow,Note,62,D4,A,up,0.214958,0.333505,0.691752,0.141546,-1.544000,-2.355000,1.346999,1.188283,-2.682369,-0.948769,-1.961734,1.742304,3.838773,0.000000,0.000000,0.000000,0.000000,0.000000,0.000000
1393.782000,0.792000,1,START a_bow,Note,62,D4,A,up,0.206958,0.333596,0.691468,0.141663,-1.544000,-2.355000,1.346999,1.188042,-2.681711,-0.949810,-1.961378,1.742118,3.838617,0.000000,0.000000,0.000000,0.000000,0.000000,0.000000
1393.790000,0.800000,1,START a_bow,Note,62,D4,A,up,0.198958,0.333678,0.691216,0.141766,-1.544000,-2.355000,1.346999,1.187827,-2.681125,-0.950736,-1.961061,1.741952,3.838478,0.000000,0.000000,0.000000,0.000000,0.000000,0.000000
1393.798000,0.808000,1,START a_bow,Note,62,D4,A,up,0.190958,0.333749,0.690994,0.141857,-1.544000,-2.355000,1.346999,1.187639,-2.680612,-0.951548,-1.960784,1.741807,3.838356,0.000000,0.000000,0.000000,0.000000,0.000000,0.000000
1393.806000,0.816000,1,START a_bow,Note,62,D4,A,up,0.182958,0.333810,0.690804,0.141935,-1.544000,-2.355000,1.346999,1.187477,-2.680171,-0.952244,-1.960546,1.741682,3.838252,0.000000,0.000000,0.000000,0.000000,0.000000,0.000000
1393.814000,0.824000,1,START a_bow,Note,62,D4,A,up,0.174958,0.333862,0.690645,0.142001,-1.544000,-2.355000,1.346999,1.187341,-2.679802,-0.952826,-1.960348,1.741577,3.838164,0.000000,0.000000,0.000000,0.000000,0.000000,0.000000
1393.822000,0.832000,1,START a_bow,Note,62,D4,A,up,0.166958,0.333903,0.690517,0.142054,-1.544000,-2.355000,1.346999,1.187232,-2.679506,-0.953295,-1.960188,1.741493,3.838093,0.000000,0.000000,0.000000,0.000000,0.000000,0.000000
1393.830000,0.840000,1,START a_bow,Note,62,D4,A,up,0.158958,0.333934,0.690419,0.142093,-1.544000,-2.355000,1.346999,1.187149,-2.679281,-0.953649,-1.960067,1.741429,3.838040,0.000000,0.000000,0.000000,0.000000,0.000000,0.000000
1393.838000,0.848000,1,START a_bow,Note,62,D4,A,up,0.150958,0.333955,0.690353,0.142121,-1.544000,-2.355000,1.346999,1.187093,-2.679128,-0.953890,-1.959985,1.741386,3.838004,0.000000,0.000000,0.000000,0.000000,0.000000,0.000000
1393.846000,0.856000,1,START a_bow,Note,62,D4,A,up,0.142958,0.333967,0.690318,0.142135,-1.544000,-2.355000,1.346999,1.187063,-2.679047,-0.954018,-1.959941,1.741363,3.837984,0.000000,0.000000,0.000000,0.000000,0.000000,0.000000
1393.854000,0.864000,2,END a_bow,Note,62,D4,A,up,0.134958,0.333969,0.690312,0.142137,-1.544000,-2.355000,1.346999,1.187058,-2.679033,-0.954040,-1.959934,1.741359,3.837981,0.000000,0.000000,0.000000,0.000000,0.000000,0.000000
1393.862000,0.872000,2,END a_bow,Note,62,D4,A,up,0.126958,0.333969,0.690312,0.142137,-1.544000,-2.355000,1.346999,1.187058,-2.679033,-0.954040,-1.959934,1.741359,3.837981,0.000000,0.000000,0.000000,0.000000,0.000000,0.000000
1393.870000,0.880000,2,END a_bow,Note,62,D4,A,up,0.118958,0.333969,0.690312,0.142137,-1.544000,-2.355000,1.346999,1.187058,-2.679033,-0.954040,-1.959934,1.741359,3.837981,0.000000,0.000000,0.000000,0.000000,0.000000,0.000000
1393.878000,0.888000,2,END a_bow,Note,62,D4,A,up,0.110958,0.333969,0.690312,0.142137,-1.544000,-2.355000,1.346999,1.187058,-2.679033,-0.954040,-1.959934,1.741359,3.837981,0.000000,0.000000,0.000000,0.000000,0.000000,0.000000
1393.886000,0.896000,1,START a_bow,Note,57,A3,A,down,0.602958,0.333965,0.690324,0.142133,-1.544000,-2.355000,1.346999,1.187068,-2.679061,-0.953997,-1.959948,1.741367,3.837988,0.000000,0.000000,0.000000,0.000000,0.000000,0.000000
1393.894000,0.904000,1,START a_bow,Note,57,A3,A,down,0.594958,0.333951,0.690367,0.142115,-1.544000,-2.355000,1.346999,1.187105,-2.679160,-0.953841,-1.960002,1.741395,3.838011,0.000000,0.000000,0.000000,0.000000,0.000000,0.000000
1393.902000,0.912000,1,START a_bow,Note,57,A3,A,down,0.586958,0.333927,0.690441,0.142085,-1.544000,-2.355000,1.346999,1.187167,-2.679330,-0.953571,-1.960093,1.741443,3.838052,0.000000,0.000000,0.000000,0.000000,0.000000,0.000000
1393.910000,0.920000,1,START a_bow,Note,57,A3,A,down,0.578958,0.333893,0.690546,0.142042,-1.544000,-2.355000,1.346999,1.187257,-2.679573,-0.953188,-1.960224,1.741512,3.838109,0.000000,0.000000,0.000000,0.000000,0.000000,0.000000
1393.918000,0.928000,1,START a_bow,Note,57,A3,A,down,0.570958,0.333850,0.690682,0.141986,-1.544000,-2.355000,1.346999,1.187373,-2.679888,-0.952692,-1.960394,1.741602,3.838184,0.000000,0.000000,0.000000,0.000000,0.000000,0.000000
1393.926000,0.936000,1,START a_bow,Note,57,A3,A,down,0.562958,0.333796,0.690849,0.141917,-1.544000,-2.355000,1.346999,1.187515,-2.680274,-0.952081,-1.960602,1.741711,3.838276,0.000000,0.000000,0.000000,0.000000,0.000000,0.000000
1393.934000,0.944000,1,START a_bow,Note,57,A3,A,down,0.554958,0.333732,0.691047,0.141836,-1.544000,-2.355000,1.346999,1.187684,-2.680733,-0.951356,-1.960850,1.741841,3.838385,0.000000,0.000000,0.000000,0.000000,0.000000,0.000000
1393.942000,0.952000,1,START a_bow,Note,57,A3,A,down,0.546958,0.333658,0.691276,0.141742,-1.544000,-2.355000,1.346999,1.187879,-2.681264,-0.950516,-1.961137,1.741992,3.838511,0.000000,0.000000,0.000000,0.000000,0.000000,0.000000
1393.950000,0.960000,1,START a_bow,Note,57,A3,A,down,0.538958,0.333574,0.691536,0.141635,-1.544000,-2.355000,1.346999,1.188100,-2.681868,-0.949561,-1.961463,1.742162,3.838654,0.000000,0.000000,0.000000,0.000000,0.000000,0.000000
1393.958000,0.968000,1,START a_bow,Note,57,A3,A,down,0.530958,0.333481,0.691828,0.141515,-1.544000,-2.355000,1.346999,1.188348,-2.682545,-0.948491,-1.961830,1.742353,3.838814,0.000000,0.000000,0.000000,0.000000,0.000000,0.000000
1393.966000,0.976000,1,START a_bow,Note,57,A3,A,down,0.522958,0.333377,0.692150,0.141382,-1.544000,-2.355000,1.346999,1.188622,-2.683294,-0.947304,-1.962236,1.742565,3.838991,0.000000,0.000000,0.000000,0.000000,0.000000,0.000000
1393.974000,0.984000,1,START a_bow,Note,57,A3,A,down,0.514958,0.333263,0.692503,0.141237,-1.544000,-2.355000,1.346999,1.188922,-2.684117,-0.946001,-1.962683,1.742796,3.839185,0.000000,0.000000,0.000000,0.000000,0.000000,0.000000
1393.982000,0.992000,1,START a_bow,Note,57,A3,A,down,0.506958,0.333139,0.692888,0.141079,-1.544000,-2.355000,1.346999,1.189248,-2.685013,-0.944581,-1.963171,1.743048,3.839396,0.000000,0.000000,0.000000,0.000000,0.000000,0.000000
1393.990000,1.000000,1,START a_bow,Note,57,A3,A,down,0.498958,0.333005,0.693304,0.140908,-1.544000,-2.355000,1.346999,1.189601,-2.685983,-0.943043,-1.963700,1.743319,3.839624,0.000000,0.000000,0.000000,0.000000,0.000000,0.000000
1393.998000,1.008000,1,START a_bow,Note,57,A3,A,down,0.490958,0.332861,0.693750,0.140725,-1.544000,-2.355000,1.346999,1.189979,-2.687027,-0.941387,-1.964271,1.743611,3.839869,0.000000,0.000000,0.000000,0.000000,0.000000,0.000000
1394.006000,1.016000,1,START a_bow,Note,57,A3,A,down,0.482958,0.332707,0.694228,0.140528,-1.544000,-2.355000,1.346999,1.190383,-2.688146,-0.939611,-1.964883,1.743923,3.840130,0.000000,0.000000,0.000000,0.000000,0.000000,0.000000
1394.014000,1.024000,1,START a_bow,Note,57,A3,A,down,0.474958,0.332543,0.694737,0.140319,-1.544000,-2.355000,1.346999,1.190814,-2.689339,-0.937714,-1.965539,1.744255,3.840409,0.000000,0.000000,0.000000,0.000000,0.000000,0.000000
1394.022000,1.032000,1,START a_bow,Note,57,A3,A,down,0.466958,0.332370,0.695277,0.140098,-1.544000,-2.355000,1.346999,1.191270,-2.690607,-0.935696,-1.966237,1.744606,3.840704,0.000000,0.000000,0.000000,0.000000,0.000000,0.000000
1394.030000,1.040000,1,START a_bow,Note,57,A3,A,down,0.458958,0.332186,0.695848,0.139863,-1.544000,-2.355000,1.346999,1.191752,-2.691951,-0.933557,-1.966979,1.744978,3.841015,0.000000,0.000000,0.000000,0.000000,0.000000,0.000000
1394.038000,1.048000,1,START a_bow,Note,57,A3,A,down,0.450958,0.331992,0.696450,0.139616,-1.544000,-2.355000,1.346999,1.192259,-2.693372,-0.931293,-1.967765,1.745369,3.841344,0.000000,0.000000,0.000000,0.000000,0.000000,0.000000
1394.046000,1.056000,1,START a_bow,Note,57,A3,A,down,0.442958,0.331788,0.697083,0.139355,-1.544000,-2.355000,1.346999,1.192793,-2.694868,-0.928906,-1.968596,1.745780,3.841689,0.000000,0.000000,0.000000,0.000000,0.000000,0.000000
1394.054000,1.064000,1,START a_bow,Note,57,A3,A,down,0.434958,0.331574,0.697747,0.139082,-1.544000,-2.355000,1.346999,1.193351,-2.696442,-0.926392,-1.969472,1.746211,3.842050,0.000000,0.000000,0.000000,0.000000,0.000000,0.000000
1394.062000,1.072000,1,START a_bow,Note,57,A3,A,down,0.426958,0.331350,0.698443,0.138797,-1.544000,-2.355000,1.346999,1.193935,-2.698094,-0.923752,-1.970395,1.746661,3.842428,0.000000,0.000000,0.000000,0.000000,0.000000,0.000000
1394.070000,1.080000,1,START a_bow,Note,57,A3,A,down,0.418958,0.331116,0.699169,0.138498,-1.544000,-2.355000,1.346999,1.194545,-2.699823,-0.920983,-1.971365,1.747130,3.842823,0.000000,0.000000,0.000000,0.000000,0.000000,0.000000
1394.078000,1.088000,1,START a_bow,Note,57,A3,A,down,0.410958,0.330872,0.699927,0.138187,-1.544000,-2.355000,1.346999,1.195179,-2.701632,-0.918085,-1.972382,1.747619,3.843233,0.000000,0.000000,0.000000,0.000000,0.000000,0.000000
1394.086000,1.096000,1,START a_bow,Note,57,A3,A,down,0.402958,0.330618,0.700715,0.137863,-1.544000,-2.355000,1.346999,1.195838,-2.703520,-0.915055,-1.973449,1.748127,3.843660,0.000000,0.000000,0.000000,0.000000,0.000000,0.000000
1394.094000,1.104000,1,START a_bow,Note,57,A3,A,down,0.394958,0.330354,0.701535,0.137526,-1.544000,-2.355000,1.346999,1.196523,-2.705489,-0.911892,-1.974565,1.748655,3.844104,0.000000,0.000000,0.000000,0.000000,0.000000,0.000000
1394.102000,1.112000,1,START a_bow,Note,57,A3,A,down,0.386958,0.330080,0.702386,0.137177,-1.544000,-2.355000,1.346999,1.197232,-2.707539,-0.908595,-1.975731,1.749201,3.844563,0.000000,0.000000,0.000000,0.000000,0.000000,0.000000
1394.110000,1.120000,1,START a_bow,Note,57,A3,A,down,0.378958,0.329796,0.703267,0.136814,-1.544000,-2.355000,1.346999,1.197966,-2.709670,-0.905161,-1.976949,1.749766,3.845039,0.000000,0.000000,0.000000,0.000000,0.000000,0.000000
1394.118000,1.128000,1,START a_bow,Note,57,A3,A,down,0.370958,0.329502,0.704180,0.136439,-1.544000,-2.355000,1.346999,1.198725,-2.711884,-0.901589,-1.978220,1.750351,3.845530,0.000000,0.000000,0.000000,0.000000,0.000000,0.000000
1394.126000,1.136000,1,START a_bow,Note,57,A3,A,down,0.362958,0.329198,0.705124,0.136051,-1.544000,-2.355000,1.346999,1.199508,-2.714181,-0.897876,-1.979544,1.750954,3.846038,0.000000,0.000000,0.000000,0.000000,0.000000,0.000000
1394.134000,1.144000,1,START a_bow,Note,57,A3,A,down,0.354958,0.328884,0.706099,0.135651,-1.544000,-2.355000,1.346999,1.200315,-2.716563,-0.894021,-1.980923,1.751576,3.846561,0.000000,0.000000,0.000000,0.000000,0.000000,0.000000
1394.142000,1.152000,1,START a_bow,Note,57,A3,A,down,0.346958,0.328560,0.707105,0.135237,-1.544000,-2.355000,1.346999,1.201146,-2.719031,-0.890021,-1.982359,1.752216,3.847100,0.000000,0.000000,0.000000,0.000000,0.000000,0.000000
1394.150000,1.160000,1,START a_bow,Note,57,A3,A,down,0.338958,0.328226,0.708142,0.134811,-1.544000,-2.355000,1.346999,1.202002,-2.721585,-0.885874,-1.983851,1.752875,3.847655,0.000000,0.000000,0.000000,0.000000,0.000000,0.000000
1394.158000,1.168000,1,START a_bow,Note,57,A3,A,down,0.330958,0.327882,0.709211,0.134372,-1.544000,-2.355000,1.346999,1.202881,-2.724226,-0.881578,-1.985403,1.753552,3.848226,0.000000,0.000000,0.000000,0.000000,0.000000,0.000000
1394.166000,1.176000,1,START a_bow,Note,57,A3,A,down,0.322958,0.327528,0.710310,0.133921,-1.544000,-2.355000,1.346999,1.203784,-2.726957,-0.877129,-1.987015,1.754247,3.848812,0.000000,0.000000,0.000000,0.000000,0.000000,0.000000
1394.174000,1.184000,1,START a_bow,Note,57,A3,A,down,0.314958,0.327163,0.711440,0.133456,-1.544000,-2.355000,1.346999,1.204711,-2.729777,-0.872525,-1.988688,1.754961,3.849413,0.000000,0.000000,0.000000,0.000000,0.000000,0.000000
1394.182000,1.192000,1,START a_bow,Note,57,A3,A,down,0.306958,0.326789,0.712602,0.132979,-1.544000,-2.355000,1.346999,1.205661,-2.732688,-0.867764,-1.990425,1.755692,3.850030,0.000000,0.000000,0.000000,0.000000,0.000000,0.000000
1394.190000,1.200000,1,START a_bow,Note,57,A3,A,down,0.298958,0.326406,0.713793,0.132490,-1.544000,-2.355000,1.346999,1.206633,-2.735688,-0.862848,-1.992224,1.756440,3.850661,0.000000,0.000000,0.000000,0.000000,0.000000,0.000000
1394.198000,1.208000,1,START a_bow,Note,57,A3,A,down,0.290958,0.326020,0.714990,0.131998,-1.544000,-2.355000,1.346999,1.207608,-2.738721,-0.857869,-1.994053,1.757191,3.851295,0.000000,0.000000,0.000000,0.000000,0.000000,0.000000
1394.206000,1.216000,1,START a_bow,Note,57,A3,A,down,0.282958,0.325634,0.716188,0.131505,-1.544000,-2.355000,1.346999,1.208582,-2.741769,-0.852855,-1.995902,1.757940,3.851927,0.000000,0.000000,0.000000,0.000000,0.000000,0.000000
1394.214000,1.224000,1,START a_bow,Note,57,A3,A,down,0.274958,0.325248,0.717386,0.131013,-1.544000,-2.355000,1.346999,1.209553,-2.744833,-0.847805,-1.997770,1.758687,3.852559,0.000000,0.000000,0.000000,0.000000,0.000000,0.000000
1394.222000,1.232000,1,START a_bow,Note,57,A3,A,down,0.266958,0.324863,0.718584,0.130521,-1.544000,-2.355000,1.346999,1.210521,-2.747914,-0.842718,-1.999658,1.759432,3.853188,0.000000,0.000000,0.000000,0.000000,0.000000,0.000000
1394.230000,1.240000,1,START a_bow,Note,57,A3,A,down,0.258958,0.324477,0.719782,0.130029,-1.544000,-2.355000,1.346999,1.211488,-2.751011,-0.837594,-2.001567,1.760176,3.853817,0.000000,0.000000,0.000000,0.000000,0.000000,0.000000
1394.238000,1.248000,1,START a_bow,Note,57,A3,A,down,0.250958,0.324091,0.720979,0.129537,-1.544000,-2.355000,1.346999,1.212452,-2.754124,-0.832432,-2.003497,1.760918,3.854444,0.000000,0.000000,0.000000,0.000000,0.000000,0.000000
1394.246000,1.256000,1,START a_bow,Note,57,A3,A,down,0.242958,0.323705,0.722177,0.129045,-1.544000,-2.355000,1.346999,1.213414,-2.757255,-0.827232,-2.005448,1.761658,3.855071,0.000000,0.000000,0.000000,0.000000,0.000000,0.000000
1394.254000,1.264000,1,START a_bow,Note,57,A3,A,down,0.234958,0.323319,0.723375,0.128552,-1.544000,-2.355000,1.346999,1.214374,-2.760403,-0.821992,-2.007421,1.762396,3.855695,0.000000,0.000000,0.000000,0.000000,0.000000,0.000000
1394.262000,1.272000,1,START a_bow,Note,57,A3,A,down,0.226958,0.322934,0.724573,0.128060,-1.544000,-2.355000,1.346999,1.215332,-2.763569,-0.816713,-2.009415,1.763133,3.856319,0.000000,0.000000,0.000000,0.000000,0.000000,0.000000
1394.270000,1.280000,1,START a_bow,Note,57,A3,A,down,0.218958,0.322548,0.725771,0.127568,-1.544000,-2.355000,1.346999,1.216288,-2.766754,-0.811393,-2.011432,1.763868,3.856942,0.000000,0.000000,0.000000,0.000000,0.000000,0.000000
1394.278000,1.288000,1,START a_bow,Note,57,A3,A,down,0.210958,0.322162,0.726969,0.127076,-1.544000,-2.355000,1.346999,1.217241,-2.769956,-0.806031,-2.013472,1.764601,3.857563,0.000000,0.000000,0.000000,0.000000,0.000000,0.000000
1394.286000,1.296000,1,START a_bow,Note,57,A3,A,down,0.202958,0.321776,0.728166,0.126584,-1.544000,-2.355000,1.346999,1.218192,-2.773178,-0.800627,-2.015534,1.765332,3.858183,0.000000,0.000000,0.000000,0.000000,0.000000,0.000000
1394.294000,1.304000,1,START a_bow,Note,57,A3,A,down,0.194958,0.321390,0.729364,0.126092,-1.544000,-2.355000,1.346999,1.219142,-2.776419,-0.795180,-2.017621,1.766062,3.858801,0.000000,0.000000,0.000000,0.000000,0.000000,0.000000
1394.302000,1.312000,1,START a_bow,Note,57,A3,A,down,0.186958,0.321004,0.730562,0.125599,-1.544000,-2.355000,1.346999,1.220089,-2.779680,-0.789688,-2.019731,1.766790,3.859419,0.000000,0.000000,0.000000,0.000000,0.000000,0.000000
1394.310000,1.320000,1,START a_bow,Note,57,A3,A,down,0.178958,0.320619,0.731760,0.125107,-1.544000,-2.355000,1.346999,1.221033,-2.782961,-0.784152,-2.021866,1.767516,3.860035,0.000000,0.000000,0.000000,0.000000,0.000000,0.000000
1394.318000,1.328000,1,START a_bow,Note,57,A3,A,down,0.170958,0.320233,0.732958,0.124615,-1.544000,-2.355000,1.346999,1.221976,-2.786263,-0.778571,-2.024025,1.768240,3.860650,0.000000,0.000000,0.000000,0.000000,0.000000,0.000000
1394.326000,1.336000,1,START a_bow,Note,57,A3,A,down,0.162958,0.319847,0.734155,0.124123,-1.544000,-2.355000,1.346999,1.222917,-2.789586,-0.772942,-2.026210,1.768963,3.861264,0.000000,0.000000,0.000000,0.000000,0.000000,0.000000
1394.334000,1.344000,1,START a_bow,Note,57,A3,A,down,0.154958,0.319461,0.735353,0.123631,-1.544000,-2.355000,1.346999,1.223855,-2.792930,-0.767266,-2.028421,1.769684,3.861877,0.000000,0.000000,0.000000,0.000000,0.000000,0.000000
1394.342000,1.352000,1,START a_bow,Note,57,A3,A,down,0.146958,0.319075,0.736551,0.123138,-1.544000,-2.355000,1.346999,1.224791,-2.796297,-0.761541,-2.030659,1.770404,3.862488,0.000000,0.000000,0.000000,0.000000,0.000000,0.000000
1394.350000,1.360000,1,START a_bow,Note,57,A3,A,down,0.138958,0.318690,0.737749,0.122646,-1.544000,-2.355000,1.346999,1.225726,-2.799686,-0.755766,-2.032923,1.771121,3.863098,0.000000,0.000000,0.000000,0.000000,0.000000,0.000000
1394.358000,1.368000,1,START a_bow,Note,57,A3,A,down,0.130958,0.318304,0.738947,0.122154,-1.544000,-2.355000,1.346999,1.226658,-2.803098,-0.749940,-2.035215,1.771837,3.863707,0.000000,0.000000,0.000000,0.000000,0.000000,0.000000
1394.366000,1.376000,1,START a_bow,Note,57,A3,A,down,0.122958,0.317918,0.740144,0.121662,-1.544000,-2.355000,1.346999,1.227588,-2.806534,-0.744062,-2.037536,1.772551,3.864315,0.000000,0.000000,0.000000,0.000000,0.000000,0.000000
1394.374000,1.384000,1,START a_bow,Note,57,A3,A,down,0.114958,0.317532,0.741342,0.121170,-1.544000,-2.355000,1.346999,1.228515,-2.809994,-0.738131,-2.039885,1.773264,3.864922,0.000000,0.000000,0.000000,0.000000,0.000000,0.000000
1394.382000,1.392000,1,START a_bow,Note,57,A3,A,down,0.106958,0.317146,0.742540,0.120678,-1.544000,-2.355000,1.346999,1.229441,-2.813479,-0.732145,-2.042264,1.773975,3.865527,0.000000,0.000000,0.000000,0.000000,0.000000,0.000000
1394.390000,1.400000,1,START a_bow,Note,57,A3,A,down,0.098958,0.316761,0.743738,0.120185,-1.544000,-2.355000,1.346999,1.230365,-2.816990,-0.726104,-2.044673,1.774684,3.866131,0.000000,0.000000,0.000000,0.000000,0.000000,0.000000
1394.398000,1.408000,1,START a_bow,Note,57,A3,A,down,0.090958,0.316375,0.744936,0.119693,-1.544000,-2.355000,1.346999,1.231286,-2.820526,-0.720005,-2.047113,1.775392,3.866734,0.000000,0.000000,0.000000,0.000000,0.000000,0.000000
1394.406000,1.416000,1,START a_bow,Note,57,A3,A,down,0.082958,0.315989,0.746134,0.119201,-1.544000,-2.355000,1.346999,1.232206,-2.824090,-0.713847,-2.049584,1.776097,3.867336,0.000000,0.000000,0.000000,0.000000,0.000000,0.000000
1394.414000,1.424000,1,START a_bow,Note,57,A3,A,down,0.074958,0.315603,0.747331,0.118709,-1.544000,-2.355000,1.346999,1.233123,-2.827681,-0.707629,-2.052088,1.776802,3.867937,0.000000,0.000000,0.000000,0.000000,0.000000,0.000000
1394.422000,1.432000,1,START a_bow,Note,57,A3,A,down,0.066958,0.315217,0.748529,0.118217,-1.544000,-2.355000,1.346999,1.234038,-2.831301,-0.701350,-2.054626,1.777504,3.868536,0.000000,0.000000,0.000000,0.000000,0.000000,0.000000
1394.430000,1.440000,1,START a_bow,Note,57,A3,A,down,0.058958,0.314832,0.749727,0.117725,-1.544000,-2.355000,1.346999,1.234951,-2.834950,-0.695007,-2.057197,1.778205,3.869135,0.000000,0.000000,0.000000,0.000000,0.000000,0.000000
1394.438000,1.448000,1,START a_bow,Note,57,A3,A,down,0.050958,0.314446,0.750925,0.117232,-1.544000,-2.355000,1.346999,1.235863,-2.838628,-0.688598,-2.059803,1.778904,3.869732,0.000000,0.000000,0.000000,0.000000,0.000000,0.000000
1394.446000,1.456000,1,START a_bow,Note,57,A3,A,down,0.042958,0.314060,0.752123,0.116740,-1.544000,-2.355000,1.346999,1.236772,-2.842338,-0.682123,-2.062446,1.779602,3.870328,0.000000,0.000000,0.000000,0.000000,0.000000,0.000000
1394.454000,1.464000,1,START a_bow,Note,57,A3,A,down,0.034958,0.313674,0.753320,0.116248,-1.544000,-2.355000,1.346999,1.237679,-2.846079,-0.675580,-2.065125,1.780297,3.870922,0.000000,0.000000,0.000000,0.000000,0.000000,0.000000
1394.462000,1.472000,1,START a_bow,Note,57,A3,A,down,0.026958,0.313288,0.754518,0.115756,-1.544000,-2.355000,1.346999,1.238584,-2.849853,-0.668965,-2.067842,1.780992,3.871516,0.000000,0.000000,0.000000,0.000000,0.000000,0.000000
1394.470000,1.480000,1,START a_bow,Note,57,A3,A,down,0.018958,0.312903,0.755716,0.115264,-1.544000,-2.355000,1.346999,1.239487,-2.853661,-0.662277,-2.070598,1.781684,3.872108,0.000000,0.000000,0.000000,0.000000,0.000000,0.000000
1394.478000,1.488000,1,START a_bow,Note,57,A3,A,down,0.010958,0.312517,0.756914,0.114772,-1.544000,-2.355000,1.346999,1.240388,-2.857503,-0.655515,-2.073394,1.782375,3.872699,0.000000,0.000000,0.000000,0.000000,0.000000,0.000000
1394.486000,1.496000,1,START a_bow,Note,57,A3,A,down,0.002958,0.312131,0.758112,0.114279,-1.544000,-2.355000,1.346999,1.241286,-2.861381,-0.648675,-2.076231,1.783064,3.873290,0.000000,0.000000,0.000000,0.000000,0.000000,0.000000
1394.494000,1.504000,1,START a_bow,Note,57,A3,A,down,0.494958,0.311745,0.759309,0.113787,-1.544000,-2.355000,1.346999,1.242183,-2.865297,-0.641755,-2.079112,1.783752,3.873878,0.000000,0.000000,0.000000,0.000000,0.000000,0.000000
1394.502000,1.512000,1,START a_bow,Note,57,A3,A,down,0.486958,0.311359,0.760507,0.113295,-1.544000,-2.355000,1.346999,1.243078,-2.869250,-0.634753,-2.082036,1.784438,3.874466,0.000000,0.000000,0.000000,0.000000,0.000000,0.000000
1394.510000,1.520000,1,START a_bow,Note,57,A3,A,down,0.478958,0.310973,0.761705,0.112803,-1.544000,-2.355000,1.346999,1.243971,-2.873243,-0.627666,-2.085005,1.785123,3.875053,0.000000,0.000000,0.000000,0.000000,0.000000,0.000000
1394.518000,1.528000,1,START a_bow,Note,57,A3,A,down,0.470958,0.310588,0.762903,0.112311,-1.544000,-2.355000,1.346999,1.244861,-2.877277,-0.620491,-2.088021,1.785805,3.875638,0.000000,0.000000,0.000000,0.000000,0.000000,0.000000
1394.526000,1.536000,1,START a_bow,Note,57,A3,A,down,0.462958,0.310202,0.764101,0.111819,-1.544000,-2.355000,1.346999,1.245750,-2.881354,-0.613225,-2.091086,1.786487,3.876223,0.000000,0.000000,0.000000,0.000000,0.000000,0.000000
1394.534000,1.544000,1,START a_bow,Note,57,A3,A,down,0.454958,0.309816,0.765299,0.111326,-1.544000,-2.355000,1.346999,1.246637,-2.885475,-0.605864,-2.094201,1.787166,3.876806,0.000000,0.000000,0.000000,0.000000,0.000000,0.000000
1394.542000,1.552000,1,START a_bow,Note,57,A3,A,down,0.446958,0.309430,0.766496,0.110834,-1.544000,-2.355000,1.346999,1.247522,-2.889641,-0.598406,-2.097368,1.787844,3.877388,0.000000,0.000000,0.000000,0.000000,0.000000,0.000000
1394.550000,1.560000,1,START a_bow,Note,57,A3,A,down,0.438958,0.309044,0.767694,0.110342,-1.544000,-2.355000,1.346999,1.248404,-2.893854,-0.590847,-2.100588,1.788521,3.877969,0.000000,0.000000,0.000000,0.000000,0.000000,0.000000
1394.558000,1.568000,1,START a_bow,Note,57,A3,A,down,0.430958,0.308659,0.768892,0.109850,-1.544000,-2.355000,1.346999,1.249285,-2.898117,-0.583182,-2.103864,1.789195,3.878548,0.000000,0.000000,0.000000,0.000000,0.000000,0.000000
1394.566000,1.576000,1,START a_bow,Note,57,A3,A,down,0.422958,0.308273,0.770090,0.109358,-1.544000,-2.355000,1.346999,1.250164,-2.902432,-0.575408,-2.107199,1.789868,3.879127,0.000000,0.000000,0.000000,0.000000,0.000000,0.000000
1394.574000,1.584000,1,START a_bow,Note,57,A3,A,down,0.414958,0.307889,0.771281,0.108868,-1.544000,-2.355000,1.346999,1.251036,-2.906774,-0.567566,-2.110573,1.790536,3.879701,0.000000,0.000000,0.000000,0.000000,0.000000,0.000000
1394.582000,1.592000,1,START a_bow,Note,57,A3,A,down,0.406958,0.307515,0.772442,0.108391,-1.544000,-2.355000,1.346999,1.251884,-2.911062,-0.559805,-2.113925,1.791186,3.880260,0.000000,0.000000,0.000000,0.000000,0.000000,0.000000
1394.590000,1.600000,1,START a_bow,Note,57,A3,A,down,0.398958,0.307151,0.773572,0.107927,-1.544000,-2.355000,1.346999,1.252708,-2.915287,-0.552140,-2.117245,1.791817,3.880803,0.000000,0.000000,0.000000,0.000000,0.000000,0.000000
1394.598000,1.608000,1,START a_bow,Note,57,A3,A,down,0.390958,0.306797,0.774672,0.107475,-1.544000,-2.355000,1.346999,1.253507,-2.919448,-0.544576,-2.120532,1.792429,3.881330,0.000000,0.000000,0.000000,0.000000,0.000000,0.000000
1394.606000,1.616000,1,START a_bow,Note,57,A3,A,down,0.382958,0.306453,0.775740,0.107036,-1.544000,-2.355000,1.346999,1.254282,-2.923543,-0.537118,-2.123784,1.793023,3.881841,0.000000,0.000000,0.000000,0.000000,0.000000,0.000000
1394.614000,1.624000,1,START a_bow,Note,57,A3,A,down,0.374958,0.306119,0.776777,0.106610,-1.544000,-2.355000,1.346999,1.255034,-2.927568,-0.529770,-2.126997,1.793598,3.882337,0.000000,0.000000,0.000000,0.000000,0.000000,0.000000
1394.622000,1.632000,1,START a_bow,Note,57,A3,A,down,0.366958,0.305795,0.777783,0.106197,-1.544000,-2.355000,1.346999,1.255761,-2.931523,-0.522538,-2.130168,1.794155,3.882816,0.000000,0.000000,0.000000,0.000000,0.000000,0.000000
1394.630000,1.640000,1,START a_bow,Note,57,A3,A,down,0.358958,0.305481,0.778758,0.105796,-1.544000,-2.355000,1.346999,1.256464,-2.935403,-0.515427,-2.133296,1.794693,3.883281,0.000000,0.000000,0.000000,0.000000,0.000000,0.000000
1394.638000,1.648000,1,START a_bow,Note,57,A3,A,down,0.350958,0.305177,0.779702,0.105408,-1.544000,-2.355000,1.346999,1.257144,-2.939206,-0.508444,-2.136376,1.795214,3.883729,0.000000,0.000000,0.000000,0.000000,0.000000,0.000000
1394.646000,1.656000,1,START a_bow,Note,57,A3,A,down,0.342958,0.304883,0.780615,0.105033,-1.544000,-2.355000,1.346999,1.257801,-2.942931,-0.501593,-2.139406,1.795716,3.884163,0.000000,0.000000,0.000000,0.000000,0.000000,0.000000
1394.654000,1.664000,1,START a_bow,Note,57,A3,A,down,0.334958,0.304599,0.781497,0.104671,-1.544000,-2.355000,1.346999,1.258434,-2.946573,-0.494881,-2.142383,1.796200,3.884581,0.000000,0.000000,0.000000,0.000000,0.000000,0.000000
1394.662000,1.672000,1,START a_bow,Note,57,A3,A,down,0.326958,0.304325,0.782348,0.104321,-1.544000,-2.355000,1.346999,1.259043,-2.950130,-0.488313,-2.145303,1.796667,3.884983,0.000000,0.000000,0.000000,0.000000,0.000000,0.000000
1394.670000,1.680000,1,START a_bow,Note,57,A3,A,down,0.318958,0.304061,0.783167,0.103984,-1.544000,-2.355000,1.346999,1.259630,-2.953599,-0.481897,-2.148163,1.797116,3.885371,0.000000,0.000000,0.000000,0.000000,0.000000,0.000000
1394.678000,1.688000,1,START a_bow,Note,57,A3,A,down,0.310958,0.303807,0.783956,0.103660,-1.544000,-2.355000,1.346999,1.260193,-2.956978,-0.475639,-2.150959,1.797547,3.885743,0.000000,0.000000,0.000000,0.000000,0.000000,0.000000
1394.686000,1.696000,1,START a_bow,Note,57,A3,A,down,0.302958,0.303563,0.784713,0.103349,-1.544000,-2.355000,1.346999,1.260734,-2.960262,-0.469546,-2.153688,1.797960,3.886100,0.000000,0.000000,0.000000,0.000000,0.000000,0.000000
1394.694000,1.704000,1,START a_bow,Note,57,A3,A,down,0.294958,0.303329,0.785440,0.103051,-1.544000,-2.355000,1.346999,1.261251,-2.963448,-0.463624,-2.156346,1.798356,3.886442,0.000000,0.000000,0.000000,0.000000,0.000000,0.000000
1394.702000,1.712000,1,START a_bow,Note,57,A3,A,down,0.286958,0.303105,0.786135,0.102765,-1.544000,-2.355000,1.346999,1.261746,-2.966533,-0.457881,-2.158930,1.798734,3.886769,0.000000,0.000000,0.000000,0.000000,0.000000,0.000000
1394.710000,1.720000,1,START a_bow,Note,57,A3,A,down,0.278958,0.302891,0.786799,0.102492,-1.544000,-2.355000,1.346999,1.262218,-2.969515,-0.452324,-2.161435,1.799095,3.887081,0.000000,0.000000,0.000000,0.000000,0.000000,0.000000
1394.718000,1.728000,1,START a_bow,Note,57,A3,A,down,0.270958,0.302687,0.787432,0.102232,-1.544000,-2.355000,1.346999,1.262667,-2.972388,-0.446960,-2.163858,1.799439,3.887379,0.000000,0.000000,0.000000,0.000000,0.000000,0.000000
1394.726000,1.736000,1,START a_bow,Note,57,A3,A,down,0.262958,0.302493,0.788034,0.101985,-1.544000,-2.355000,1.346999,1.263094,-2.975150,-0.441797,-2.166195,1.799766,3.887661,0.000000,0.000000,0.000000,0.000000,0.000000,0.000000
1394.734000,1.744000,1,START a_bow,Note,57,A3,A,down,0.254958,0.302309,0.788605,0.101750,-1.544000,-2.355000,1.346999,1.263498,-2.977798,-0.436841,-2.168443,1.800075,3.887928,0.000000,0.000000,0.000000,0.000000,0.000000,0.000000
1394.742000,1.752000,1,START a_bow,Note,57,A3,A,down,0.246958,0.302135,0.789145,0.101528,-1.544000,-2.355000,1.346999,1.263880,-2.980327,-0.432102,-2.170596,1.800367,3.888181,0.000000,0.000000,0.000000,0.000000,0.000000,0.000000
1394.750000,1.760000,1,START a_bow,Note,57,A3,A,down,0.238958,0.301971,0.789654,0.101319,-1.544000,-2.355000,1.346999,1.264240,-2.982734,-0.427585,-2.172651,1.800642,3.888419,0.000000,0.000000,0.000000,0.000000,0.000000,0.000000
1394.758000,1.768000,1,START a_bow,Note,57,A3,A,down,0.230958,0.301817,0.790132,0.101123,-1.544000,-2.355000,1.346999,1.264577,-2.985016,-0.423299,-2.174605,1.800900,3.888642,0.000000,0.000000,0.000000,0.000000,0.000000,0.000000
1394.766000,1.776000,1,START a_bow,Note,57,A3,A,down,0.222958,0.301673,0.790579,0.100939,-1.544000,-2.355000,1.346999,1.264892,-2.987169,-0.419250,-2.176453,1.801141,3.888851,0.000000,0.000000,0.000000,0.000000,0.000000,0.000000
1394.774000,1.784000,1,START a_bow,Note,57,A3,A,down,0.214958,0.301540,0.790994,0.100768,-1.544000,-2.355000,1.346999,1.265185,-2.989189,-0.415447,-2.178191,1.801365,3.889045,0.000000,0.000000,0.000000,0.000000,0.000000,0.000000
1394.782000,1.792000,1,START a_bow,Note,57,A3,A,down,0.206958,0.301416,0.791379,0.100610,-1.544000,-2.355000,1.346999,1.265456,-2.991074,-0.411896,-2.179816,1.801572,3.889224,0.000000,0.000000,0.000000,0.000000,0.000000,0.000000
1394.790000,1.800000,1,START a_bow,Note,57,A3,A,down,0.198958,0.301302,0.791732,0.100465,-1.544000,-2.355000,1.346999,1.265705,-2.992820,-0.408603,-2.181325,1.801762,3.889389,0.000000,0.000000,0.000000,0.000000,0.000000,0.000000
1394.798000,1.808000,1,START a_bow,Note,57,A3,A,down,0.190958,0.301198,0.792055,0.100333,-1.544000,-2.355000,1.346999,1.265931,-2.994424,-0.405577,-2.182714,1.801935,3.889539,0.000000,0.000000,0.000000,0.000000,0.000000,0.000000
1394.806000,1.816000,1,START a_bow,Note,57,A3,A,down,0.182958,0.301104,0.792346,0.100213,-1.544000,-2.355000,1.346999,1.266136,-2.995883,-0.402821,-2.183979,1.802092,3.889675,0.000000,0.000000,0.000000,0.000000,0.000000,0.000000
1394.814000,1.824000,1,START a_bow,Note,57,A3,A,down,0.174958,0.301020,0.792606,0.100106,-1.544000,-2.355000,1.346999,1.266319,-2.997194,-0.400343,-2.185118,1.802232,3.889796,0.000000,0.000000,0.000000,0.000000,0.000000,0.000000
1394.822000,1.832000,1,START a_bow,Note,57,A3,A,down,0.166958,0.300947,0.792836,0.100012,-1.544000,-2.355000,1.346999,1.266480,-2.998355,-0.398148,-2.186128,1.802355,3.889902,0.000000,0.000000,0.000000,0.000000,0.000000,0.000000
1394.830000,1.840000,1,START a_bow,Note,57,A3,A,down,0.158958,0.300883,0.793034,0.099930,-1.544000,-2.355000,1.346999,1.266619,-2.999363,-0.396241,-2.187006,1.802461,3.889994,0.000000,0.000000,0.000000,0.000000,0.000000,0.000000
1394.838000,1.848000,1,START a_bow,Note,57,A3,A,down,0.150958,0.300829,0.793201,0.099862,-1.544000,-2.355000,1.346999,1.266736,-3.000216,-0.394625,-2.187751,1.802551,3.890072,0.000000,0.000000,0.000000,0.000000,0.000000,0.000000
1394.846000,1.856000,1,START a_bow,Note,57,A3,A,down,0.142958,0.300785,0.793337,0.099806,-1.544000,-2.355000,1.346999,1.266832,-3.000913,-0.393305,-2.188359,1.802624,3.890135,0.000000,0.000000,0.000000,0.000000,0.000000,0.000000
1394.854000,1.864000,1,START a_bow,Note,57,A3,A,down,0.134958,0.300751,0.793442,0.099763,-1.544000,-2.355000,1.346999,1.266905,-3.001453,-0.392283,-2.188830,1.802680,3.890184,0.000000,0.000000,0.000000,0.000000,0.000000,0.000000
1394.862000,1.872000,1,START a_bow,Note,57,A3,A,down,0.126958,0.300728,0.793515,0.099732,-1.544000,-2.355000,1.346999,1.266957,-3.001833,-0.391563,-2.189163,1.802719,3.890218,0.000000,0.000000,0.000000,0.000000,0.000000,0.000000
1394.870000,1.880000,1,START a_bow,Note,57,A3,A,down,0.118958,0.300714,0.793558,0.099715,-1.544000,-2.355000,1.346999,1.266987,-3.002054,-0.391145,-2.189355,1.802742,3.890238,0.000000,0.000000,0.000000,0.000000,0.000000,0.000000
1394.878000,1.888000,1,START a_bow,Note,57,A3,A,down,0.110958,0.300710,0.793570,0.099710,-1.544000,-2.355000,1.346999,1.266995,-3.002115,-0.391029,-2.189409,1.802749,3.890244,0.000000,0.000000,0.000000,0.000000,0.000000,0.000000
1394.886000,1.896000,2,END a_bow,Note,57,A3,A,down,0.102958,0.300710,0.793570,0.099710,-1.544000,-2.355000,1.346999,1.266995,-3.002115,-0.391029,-2.189409,1.802749,3.890244,0.000000,0.000000,0.000000,0.000000,0.000000,0.000000
1394.894000,1.904000,2,END a_bow,Note,57,A3,A,down,0.094958,0.300710,0.793570,0.099710,-1.544000,-2.355000,1.346999,1.266995,-3.002115,-0.391029,-2.189409,1.802749,3.890244,0.000000,0.000000,0.000000,0.000000,0.000000,0.000000
1394.902000,1.912000,2,END a_bow,Note,57,A3,A,down,0.086958,0.300710,0.793570,0.099710,-1.544000,-2.355000,1.346999,1.266995,-3.002115,-0.391029,-2.189409,1.802749,3.890244,0.000000,0.000000,0.000000,0.000000,0.000000,0.000000
1394.910000,1.920000,1,START a_bow,Note,59,B3,A,up,0.328958,0.300712,0.793564,0.099712,-1.544000,-2.355000,1.346999,1.266991,-3.002084,-0.391088,-2.189382,1.802745,3.890241,0.000000,0.000000,0.000000,0.000000,0.000000,0.000000
1394.918000,1.928000,1,START a_bow,Note,59,B3,A,up,0.320958,0.300723,0.793529,0.099727,-1.544000,-2.355000,1.346999,1.266967,-3.001903,-0.391430,-2.189224,1.802727,3.890225,0.000000,0.000000,0.000000,0.000000,0.000000,0.000000
1394.926000,1.936000,1,START a_bow,Note,59,B3,A,up,0.312958,0.300744,0.793463,0.099754,-1.544000,-2.355000,1.346999,1.266920,-3.001563,-0.392075,-2.188926,1.802691,3.890194,0.000000,0.000000,0.000000,0.000000,0.000000,0.000000
1394.934000,1.944000,1,START a_bow,Note,59,B3,A,up,0.304958,0.300776,0.793366,0.099794,-1.544000,-2.355000,1.346999,1.266852,-3.001063,-0.393021,-2.188490,1.802639,3.890149,0.000000,0.000000,0.000000,0.000000,0.000000,0.000000
1394.942000,1.952000,1,START a_bow,Note,59,B3,A,up,0.296958,0.300817,0.793238,0.099847,-1.544000,-2.355000,1.346999,1.266762,-3.000405,-0.394267,-2.187916,1.802570,3.890089,0.000000,0.000000,0.000000,0.000000,0.000000,0.000000
1394.950000,1.960000,1,START a_bow,Note,59,B3,A,up,0.288958,0.300868,0.793078,0.099912,-1.544000,-2.355000,1.346999,1.266651,-2.999591,-0.395809,-2.187205,1.802485,3.890015,0.000000,0.000000,0.000000,0.000000,0.000000,0.000000
1394.958000,1.968000,1,START a_bow,Note,59,B3,A,up,0.280958,0.300930,0.792888,0.099990,-1.544000,-2.355000,1.346999,1.266517,-2.998621,-0.397644,-2.186360,1.802383,3.889927,0.000000,0.000000,0.000000,0.000000,0.000000,0.000000
1394.966000,1.976000,1,START a_bow,Note,59,B3,A,up,0.272958,0.301001,0.792667,0.100081,-1.544000,-2.355000,1.346999,1.266361,-2.997498,-0.399768,-2.185383,1.802264,3.889824,0.000000,0.000000,0.000000,0.000000,0.000000,0.000000
1394.974000,1.984000,1,START a_bow,Note,59,B3,A,up,0.264958,0.301082,0.792414,0.100185,-1.544000,-2.355000,1.346999,1.266184,-2.996224,-0.402176,-2.184276,1.802128,3.889706,0.000000,0.000000,0.000000,0.000000,0.000000,0.000000
1394.982000,1.992000,1,START a_bow,Note,59,B3,A,up,0.256958,0.301174,0.792131,0.100301,-1.544000,-2.355000,1.346999,1.265985,-2.994802,-0.404862,-2.183042,1.801976,3.889574,0.000000,0.000000,0.000000,0.000000,0.000000,0.000000
1394.990000,2.000000,1,START a_bow,Note,59,B3,A,up,0.248958,0.301275,0.791816,0.100431,-1.544000,-2.355000,1.346999,1.265763,-2.993234,-0.407822,-2.181684,1.801807,3.889428,0.000000,0.000000,0.000000,0.000000,0.000000,0.000000
1394.998000,2.008000,1,START a_bow,Note,59,B3,A,up,0.240958,0.301386,0.791470,0.100573,-1.544000,-2.355000,1.346999,1.265520,-2.991524,-0.411048,-2.180205,1.801621,3.889267,0.000000,0.000000,0.000000,0.000000,0.000000,0.000000
1395.022000,2.032000,1,START a_bow,Note,59,B3,A,up,0.216958,0.301780,0.790247,0.101076,-1.544000,-2.355000,1.346999,1.264658,-2.985566,-0.422264,-2.175077,1.800962,3.888696,0.000000,0.000000,0.000000,0.000000,0.000000,0.000000
1395.030000,2.040000,1,START a_bow,Note,59,B3,A,up,0.208958,0.301932,0.789777,0.101269,-1.544000,-2.355000,1.346999,1.264326,-2.983316,-0.426491,-2.173149,1.800708,3.888476,0.000000,0.000000,0.000000,0.000000,0.000000,0.000000
1395.038000,2.048000,1,START a_bow,Note,59,B3,A,up,0.200958,0.302093,0.789275,0.101475,-1.544000,-2.355000,1.346999,1.263972,-2.980940,-0.430951,-2.171119,1.800437,3.888242,0.000000,0.000000,0.000000,0.000000,0.000000,0.000000
1395.046000,2.056000,1,START a_bow,Note,59,B3,A,up,0.192958,0.302265,0.788743,0.101693,-1.544000,-2.355000,1.346999,1.263596,-2.978441,-0.435636,-2.168990,1.800149,3.887993,0.000000,0.000000,0.000000,0.000000,0.000000,0.000000
1395.054000,2.064000,1,START a_bow,Note,59,B3,A,up,0.184958,0.302446,0.788180,0.101925,-1.544000,-2.355000,1.346999,1.263197,-2.975823,-0.440538,-2.166766,1.799844,3.887729,0.000000,0.000000,0.000000,0.000000,0.000000,0.000000
1395.062000,2.072000,1,START a_bow,Note,59,B3,A,up,0.176958,0.302637,0.787586,0.102169,-1.544000,-2.355000,1.346999,1.262776,-2.973089,-0.445650,-2.164451,1.799522,3.887451,0.000000,0.000000,0.000000,0.000000,0.000000,0.000000
1395.070000,2.080000,1,START a_bow,Note,59,B3,A,up,0.168958,0.302839,0.786960,0.102426,-1.544000,-2.355000,1.346999,1.262332,-2.970243,-0.450965,-2.162049,1.799183,3.887157,0.000000,0.000000,0.000000,0.000000,0.000000,0.000000
1395.078000,2.088000,1,START a_bow,Note,59,B3,A,up,0.160958,0.303050,0.786304,0.102696,-1.544000,-2.355000,1.346999,1.261866,-2.967289,-0.456474,-2.159564,1.798826,3.886849,0.000000,0.000000,0.000000,0.000000,0.000000,0.000000
1395.086000,2.096000,1,START a_bow,Note,59,B3,A,up,0.152958,0.303272,0.785616,0.102978,-1.544000,-2.355000,1.346999,1.261377,-2.964229,-0.462171,-2.156999,1.798452,3.886525,0.000000,0.000000,0.000000,0.000000,0.000000,0.000000
1395.094000,2.104000,1,START a_bow,Note,59,B3,A,up,0.144958,0.303503,0.784898,0.103273,-1.544000,-2.355000,1.346999,1.260865,-2.961067,-0.468049,-2.154359,1.798061,3.886187,0.000000,0.000000,0.000000,0.000000,0.000000,0.000000
1395.102000,2.112000,1,START a_bow,Note,59,B3,A,up,0.136958,0.303745,0.784148,0.103581,-1.544000,-2.355000,1.346999,1.260330,-2.957808,-0.474100,-2.151648,1.797652,3.885834,0.000000,0.000000,0.000000,0.000000,0.000000,0.000000
1395.110000,2.120000,1,START a_bow,Note,59,B3,A,up,0.128958,0.303996,0.783367,0.103902,-1.544000,-2.355000,1.346999,1.259773,-2.954453,-0.480318,-2.148868,1.797225,3.885465,0.000000,0.000000,0.000000,0.000000,0.000000,0.000000
1395.118000,2.128000,1,START a_bow,Note,59,B3,A,up,0.120958,0.304258,0.782555,0.104236,-1.544000,-2.355000,1.346999,1.259192,-2.951006,-0.486695,-2.146023,1.796781,3.885082,0.000000,0.000000,0.000000,0.000000,0.000000,0.000000
1395.126000,2.136000,1,START a_bow,Note,59,B3,A,up,0.112958,0.304529,0.781712,0.104582,-1.544000,-2.355000,1.346999,1.258588,-2.947470,-0.493225,-2.143118,1.796319,3.884683,0.000000,0.000000,0.000000,0.000000,0.000000,0.000000
1395.134000,2.144000,1,START a_bow,Note,59,B3,A,up,0.104958,0.304811,0.780838,0.104941,-1.544000,-2.355000,1.346999,1.257961,-2.943849,-0.499901,-2.140155,1.795839,3.884269,0.000000,0.000000,0.000000,0.000000,0.000000,0.000000
1395.142000,2.152000,1,START a_bow,Note,59,B3,A,up,0.096958,0.305102,0.779933,0.105313,-1.544000,-2.355000,1.346999,1.257311,-2.940145,-0.506718,-2.137138,1.795341,3.883839,0.000000,0.000000,0.000000,0.000000,0.000000,0.000000
1395.150000,2.160000,1,START a_bow,Note,59,B3,A,up,0.088958,0.305404,0.778997,0.105698,-1.544000,-2.355000,1.346999,1.256637,-2.936361,-0.513669,-2.134070,1.794825,3.883394,0.000000,0.000000,0.000000,0.000000,0.000000,0.000000
1395.158000,2.168000,1,START a_bow,Note,59,B3,A,up,0.080958,0.305715,0.778030,0.106095,-1.544000,-2.355000,1.346999,1.255939,-2.932500,-0.520749,-2.130954,1.794291,3.882934,0.000000,0.000000,0.000000,0.000000,0.000000,0.000000
1395.166000,2.176000,1,START a_bow,Note,59,B3,A,up,0.072958,0.306037,0.777032,0.106505,-1.544000,-2.355000,1.346999,1.255218,-2.928564,-0.527951,-2.127794,1.793739,3.882458,0.000000,0.000000,0.000000,0.000000,0.000000,0.000000
1395.174000,2.184000,1,START a_bow,Note,59,B3,A,up,0.064958,0.306368,0.776002,0.106928,-1.544000,-2.355000,1.346999,1.254472,-2.924556,-0.535270,-2.124591,1.793168,3.881966,0.000000,0.000000,0.000000,0.000000,0.000000,0.000000
1395.182000,2.192000,1,START a_bow,Note,59,B3,A,up,0.056958,0.306710,0.774942,0.107364,-1.544000,-2.355000,1.346999,1.253703,-2.920478,-0.542702,-2.121349,1.792579,3.881459,0.000000,0.000000,0.000000,0.000000,0.000000,0.000000
1395.190000,2.200000,1,START a_bow,Note,59,B3,A,up,0.048958,0.307062,0.773850,0.107813,-1.544000,-2.355000,1.346999,1.252910,-2.916334,-0.550240,-2.118070,1.791972,3.880936,0.000000,0.000000,0.000000,0.000000,0.000000,0.000000
1395.198000,2.208000,1,START a_bow,Note,59,B3,A,up,0.040958,0.307423,0.772728,0.108274,-1.544000,-2.355000,1.346999,1.252092,-2.912124,-0.557880,-2.114758,1.791345,3.880397,0.000000,0.000000,0.000000,0.000000,0.000000,0.000000
1395.206000,2.216000,1,START a_bow,Note,59,B3,A,up,0.032958,0.307795,0.771574,0.108748,-1.544000,-2.355000,1.346999,1.251250,-2.907851,-0.565617,-2.111414,1.790700,3.879842,0.000000,0.000000,0.000000,0.000000,0.000000,0.000000
1395.214000,2.224000,1,START a_bow,Note,59,B3,A,up,0.024958,0.308176,0.770389,0.109235,-1.544000,-2.355000,1.346999,1.250383,-2.903518,-0.573447,-2.108042,1.790037,3.879271,0.000000,0.000000,0.000000,0.000000,0.000000,0.000000
1395.222000,2.232000,1,START a_bow,Note,59,B3,A,up,0.016958,0.308562,0.769191,0.109727,-1.544000,-2.355000,1.346999,1.249505,-2.899191,-0.581249,-2.104693,1.789364,3.878693,0.000000,0.000000,0.000000,0.000000,0.000000,0.000000
1395.230000,2.240000,1,START a_bow,Note,59,B3,A,up,0.008958,0.308948,0.767994,0.110219,-1.544000,-2.355000,1.346999,1.248625,-2.894916,-0.588941,-2.101402,1.788689,3.878114,0.000000,0.000000,0.000000,0.000000,0.000000,0.000000
1395.238000,2.248000,1,START a_bow,Note,59,B3,A,up,0.000958,0.309334,0.766796,0.110711,-1.544000,-2.355000,1.346999,1.247743,-2.890690,-0.596526,-2.098168,1.788013,3.877533,0.000000,0.000000,0.000000,0.000000,0.000000,0.000000
1395.246000,2.256000,1,START a_bow,Note,61,C#4,A,up,0.242958,0.309720,0.765598,0.111203,-1.544000,-2.355000,1.346999,1.246858,-2.886512,-0.604009,-2.094988,1.787336,3.876951,0.000000,0.000000,0.000000,0.000000,0.000000,0.000000
1395.254000,2.264000,1,START a_bow,Note,61,C#4,A,up,0.234958,0.310105,0.764400,0.111696,-1.544000,-2.355000,1.346999,1.245972,-2.882380,-0.611393,-2.091860,1.786657,3.876368,0.000000,0.000000,0.000000,0.000000,0.000000,0.000000
1395.262000,2.272000,1,START a_bow,Note,61,C#4,A,up,0.226958,0.310491,0.763202,0.112188,-1.544000,-2.355000,1.346999,1.245084,-2.878293,-0.618683,-2.088783,1.785976,3.875784,0.000000,0.000000,0.000000,0.000000,0.000000,0.000000
1395.270000,2.280000,1,START a_bow,Note,61,C#4,A,up,0.218958,0.310877,0.762005,0.112680,-1.544000,-2.355000,1.346999,1.244194,-2.874248,-0.625880,-2.085755,1.785293,3.875199,0.000000,0.000000,0.000000,0.000000,0.000000,0.000000
1395.278000,2.288000,1,START a_bow,Note,61,C#4,A,up,0.210958,0.311263,0.760807,0.113172,-1.544000,-2.355000,1.346999,1.243301,-2.870245,-0.632989,-2.082774,1.784609,3.874613,0.000000,0.000000,0.000000,0.000000,0.000000,0.000000
1395.286000,2.296000,1,START a_bow,Note,61,C#4,A,up,0.202958,0.311649,0.759609,0.113664,-1.544000,-2.355000,1.346999,1.242407,-2.866281,-0.640012,-2.079838,1.783924,3.874025,0.000000,0.000000,0.000000,0.000000,0.000000,0.000000
1395.294000,2.304000,1,START a_bow,Note,61,C#4,A,up,0.194958,0.312034,0.758411,0.114156,-1.544000,-2.355000,1.346999,1.241511,-2.862357,-0.646953,-2.076947,1.783236,3.873437,0.000000,0.000000,0.000000,0.000000,0.000000,0.000000
1395.302000,2.312000,1,START a_bow,Note,61,C#4,A,up,0.186958,0.312420,0.757213,0.114649,-1.544000,-2.355000,1.346999,1.240612,-2.858469,-0.653812,-2.074099,1.782548,3.872847,0.000000,0.000000,0.000000,0.000000,0.000000,0.000000
1395.310000,2.320000,1,START a_bow,Note,61,C#4,A,up,0.178958,0.312806,0.756016,0.115141,-1.544000,-2.355000,1.346999,1.239712,-2.854618,-0.660594,-2.071293,1.781857,3.872256,0.000000,0.000000,0.000000,0.000000,0.000000,0.000000
1395.318000,2.328000,1,START a_bow,Note,61,C#4,A,up,0.170958,0.313192,0.754818,0.115633,-1.544000,-2.355000,1.346999,1.238810,-2.850802,-0.667300,-2.068527,1.781165,3.871664,0.000000,0.000000,0.000000,0.000000,0.000000,0.000000
1395.326000,2.336000,1,START a_bow,Note,61,C#4,A,up,0.162958,0.313578,0.753620,0.116125,-1.544000,-2.355000,1.346999,1.237905,-2.847019,-0.673933,-2.065800,1.780471,3.871071,0.000000,0.000000,0.000000,0.000000,0.000000,0.000000
1395.334000,2.344000,1,START a_bow,Note,61,C#4,A,up,0.154958,0.313963,0.752422,0.116617,-1.544000,-2.355000,1.346999,1.236999,-2.843270,-0.680494,-2.063112,1.779776,3.870476,0.000000,0.000000,0.000000,0.000000,0.000000,0.000000
1395.342000,2.352000,1,START a_bow,Note,61,C#4,A,up,0.146958,0.314349,0.751224,0.117109,-1.544000,-2.355000,1.346999,1.236090,-2.839553,-0.686986,-2.060460,1.779079,3.869881,0.000000,0.000000,0.000000,0.000000,0.000000,0.000000
1395.350000,2.360000,1,START a_bow,Note,61,C#4,A,up,0.138958,0.314735,0.750026,0.117602,-1.544000,-2.355000,1.346999,1.235179,-2.835866,-0.693411,-2.057845,1.778380,3.869284,0.000000,0.000000,0.000000,0.000000,0.000000,0.000000
1395.358000,2.368000,1,START a_bow,Note,61,C#4,A,up,0.130958,0.315121,0.748829,0.118094,-1.544000,-2.355000,1.346999,1.234267,-2.832210,-0.699770,-2.055265,1.777679,3.868686,0.000000,0.000000,0.000000,0.000000,0.000000,0.000000
1395.366000,2.376000,1,START a_bow,Note,61,C#4,A,up,0.122958,0.315507,0.747631,0.118586,-1.544000,-2.355000,1.346999,1.233352,-2.828584,-0.706065,-2.052720,1.776977,3.868087,0.000000,0.000000,0.000000,0.000000,0.000000,0.000000
1395.374000,2.384000,1,START a_bow,Note,61,C#4,A,up,0.114958,0.315893,0.746433,0.119078,-1.544000,-2.355000,1.346999,1.232435,-2.824985,-0.712298,-2.050207,1.776274,3.867486,0.000000,0.000000,0.000000,0.000000,0.000000,0.000000
1395.382000,2.392000,1,START a_bow,Note,61,C#4,A,up,0.106958,0.316278,0.745235,0.119570,-1.544000,-2.355000,1.346999,1.231516,-2.821415,-0.718471,-2.047728,1.775568,3.866885,0.000000,0.000000,0.000000,0.000000,0.000000,0.000000
1395.390000,2.400000,1,START a_bow,Note,61,C#4,A,up,0.098958,0.316664,0.744037,0.120062,-1.544000,-2.355000,1.346999,1.230595,-2.817871,-0.724584,-2.045280,1.774861,3.866282,0.000000,0.000000,0.000000,0.000000,0.000000,0.000000
1395.398000,2.408000,1,START a_bow,Note,61,C#4,A,up,0.090958,0.317050,0.742840,0.120555,-1.544000,-2.355000,1.346999,1.229672,-2.814354,-0.730640,-2.042863,1.774152,3.865678,0.000000,0.000000,0.000000,0.000000,0.000000,0.000000
1395.406000,2.416000,1,START a_bow,Note,61,C#4,A,up,0.082958,0.317436,0.741642,0.121047,-1.544000,-2.355000,1.346999,1.228747,-2.810863,-0.736640,-2.040477,1.773442,3.865073,0.000000,0.000000,0.000000,0.000000,0.000000,0.000000
1395.414000,2.424000,1,START a_bow,Note,61,C#4,A,up,0.074958,0.317822,0.740444,0.121539,-1.544000,-2.355000,1.346999,1.227820,-2.807397,-0.742585,-2.038120,1.772730,3.864467,0.000000,0.000000,0.000000,0.000000,0.000000,0.000000
1395.422000,2.432000,1,START a_bow,Note,61,C#4,A,up,0.066958,0.318207,0.739246,0.122031,-1.544000,-2.355000,1.346999,1.226890,-2.803955,-0.748476,-2.035793,1.772016,3.863859,0.000000,0.000000,0.000000,0.000000,0.000000,0.000000
1395.430000,2.440000,1,START a_bow,Note,61,C#4,A,up,0.058958,0.318593,0.738048,0.122523,-1.544000,-2.355000,1.346999,1.225959,-2.800537,-0.754314,-2.033494,1.771300,3.863251,0.000000,0.000000,0.000000,0.000000,0.000000,0.000000
1395.438000,2.448000,1,START a_bow,Note,61,C#4,A,up,0.050958,0.318979,0.736850,0.123015,-1.544000,-2.355000,1.346999,1.225025,-2.797142,-0.760102,-2.031222,1.770583,3.862641,0.000000,0.000000,0.000000,0.000000,0.000000,0.000000
1395.446000,2.456000,1,START a_bow,Note,61,C#4,A,up,0.042958,0.319365,0.735653,0.123508,-1.544000,-2.355000,1.346999,1.224089,-2.793770,-0.765839,-2.028978,1.769864,3.862030,0.000000,0.000000,0.000000,0.000000,0.000000,0.000000
1395.454000,2.464000,1,START a_bow,Note,61,C#4,A,up,0.034958,0.319751,0.734455,0.124000,-1.544000,-2.355000,1.346999,1.223151,-2.790420,-0.771528,-2.026760,1.769144,3.861417,0.000000,0.000000,0.000000,0.000000,0.000000,0.000000
1395.462000,2.472000,1,START a_bow,Note,61,C#4,A,up,0.026958,0.320136,0.733257,0.124492,-1.544000,-2.355000,1.346999,1.222211,-2.787092,-0.777168,-2.024569,1.768421,3.860804,0.000000,0.000000,0.000000,0.000000,0.000000,0.000000
1395.470000,2.480000,1,START a_bow,Note,61,C#4,A,up,0.018958,0.320522,0.732059,0.124984,-1.544000,-2.355000,1.346999,1.221269,-2.783785,-0.782761,-2.022403,1.767697,3.860189,0.000000,0.000000,0.000000,0.000000,0.000000,0.000000
1395.478000,2.488000,1,START a_bow,Note,61,C#4,A,up,0.010958,0.320908,0.730861,0.125476,-1.544000,-2.355000,1.346999,1.220325,-2.780499,-0.788309,-2.020262,1.766972,3.859573,0.000000,0.000000,0.000000,0.000000,0.000000,0.000000
1395.486000,2.496000,1,START a_bow,Note,61,C#4,A,up,0.002958,0.321294,0.729664,0.125968,-1.544000,-2.355000,1.346999,1.219379,-2.777233,-0.793811,-2.018146,1.766244,3.858956,0.000000,0.000000,0.000000,0.000000,0.000000,0.000000
1395.494000,2.504000,1,START a_bow,Note,62,D4,A,up,0.244958,0.321680,0.728466,0.126461,-1.544000,-2.355000,1.346999,1.218430,-2.773987,-0.799269,-2.016054,1.765515,3.858338,0.000000,0.000000,0.000000,0.000000,0.000000,0.000000
1395.502000,2.512000,1,START a_bow,Note,62,D4,A,up,0.236958,0.322065,0.727268,0.126953,-1.544000,-2.355000,1.346999,1.217479,-2.770760,-0.804684,-2.013985,1.764784,3.857718,0.000000,0.000000,0.000000,0.000000,0.000000,0.000000
1395.510000,2.520000,1,START a_bow,Note,62,D4,A,up,0.228958,0.322451,0.726070,0.127445,-1.544000,-2.355000,1.346999,1.216526,-2.767553,-0.810056,-2.011940,1.764051,3.857097,0.000000,0.000000,0.000000,0.000000,0.000000,0.000000
1395.518000,2.528000,1,START a_bow,Note,62,D4,A,up,0.220958,0.322837,0.724872,0.127937,-1.544000,-2.355000,1.346999,1.215571,-2.764364,-0.815387,-2.009918,1.763317,3.856475,0.000000,0.000000,0.000000,0.000000,0.000000,0.000000
1395.526000,2.536000,1,START a_bow,Note,62,D4,A,up,0.212958,0.323223,0.723675,0.128429,-1.544000,-2.355000,1.346999,1.214614,-2.761193,-0.820676,-2.007918,1.762581,3.855852,0.000000,0.000000,0.000000,0.000000,0.000000,0.000000
1395.534000,2.544000,1,START a_bow,Note,62,D4,A,up,0.204958,0.323609,0.722477,0.128921,-1.544000,-2.355000,1.346999,1.213655,-2.758040,-0.825926,-2.005939,1.761843,3.855227,0.000000,0.000000,0.000000,0.000000,0.000000,0.000000
1395.542000,2.552000,1,START a_bow,Note,62,D4,A,up,0.196958,0.323995,0.721279,0.129414,-1.544000,-2.355000,1.346999,1.212693,-2.754905,-0.831136,-2.003983,1.761103,3.854601,0.000000,0.000000,0.000000,0.000000,0.000000,0.000000
1395.550000,2.560000,1,START a_bow,Note,62,D4,A,up,0.188958,0.324380,0.720081,0.129906,-1.544000,-2.355000,1.346999,1.211729,-2.751787,-0.836307,-2.002048,1.760362,3.853974,0.000000,0.000000,0.000000,0.000000,0.000000,0.000000
1395.558000,2.568000,1,START a_bow,Note,62,D4,A,up,0.180958,0.324766,0.718883,0.130398,-1.544000,-2.355000,1.346999,1.210763,-2.748686,-0.841441,-2.000134,1.759618,3.853346,0.000000,0.000000,0.000000,0.000000,0.000000,0.000000
1395.566000,2.576000,1,START a_bow,Note,62,D4,A,up,0.172958,0.325152,0.717685,0.130890,-1.544000,-2.355000,1.346999,1.209795,-2.745602,-0.846537,-1.998240,1.758873,3.852716,0.000000,0.000000,0.000000,0.000000,0.000000,0.000000
1395.630000,2.640000,1,START a_bow,Note,62,D4,A,up,0.108958,0.328141,0.708406,0.134703,-1.544000,-2.355000,1.346999,1.202220,-2.722237,-0.884814,-1.984234,1.753042,3.847796,0.000000,0.000000,0.000000,0.000000,0.000000,0.000000
1395.638000,2.648000,1,START a_bow,Note,62,D4,A,up,0.100958,0.328477,0.707362,0.135132,-1.544000,-2.355000,1.346999,1.201358,-2.719661,-0.888998,-1.982726,1.752379,3.847238,0.000000,0.000000,0.000000,0.000000,0.000000,0.000000
1395.646000,2.656000,1,START a_bow,Note,62,D4,A,up,0.092958,0.328804,0.706348,0.135549,-1.544000,-2.355000,1.346999,1.200521,-2.717172,-0.893035,-1.981277,1.751734,3.846694,0.000000,0.000000,0.000000,0.000000,0.000000,0.000000
1395.654000,2.664000,1,START a_bow,Note,62,D4,A,up,0.084958,0.329120,0.705365,0.135953,-1.544000,-2.355000,1.346999,1.199707,-2.714769,-0.896926,-1.979884,1.751108,3.846167,0.000000,0.000000,0.000000,0.000000,0.000000,0.000000
1395.662000,2.672000,1,START a_bow,Note,62,D4,A,up,0.076958,0.329427,0.704413,0.136344,-1.544000,-2.355000,1.346999,1.198918,-2.712450,-0.900674,-1.978546,1.750500,3.845656,0.000000,0.000000,0.000000,0.000000,0.000000,0.000000
1395.670000,2.680000,1,START a_bow,Note,62,D4,A,up,0.068958,0.329723,0.703493,0.136722,-1.544000,-2.355000,1.346999,1.198154,-2.710216,-0.904281,-1.977262,1.749911,3.845160,0.000000,0.000000,0.000000,0.000000,0.000000,0.000000
1395.678000,2.688000,1,START a_bow,Note,62,D4,A,up,0.060958,0.330010,0.702603,0.137087,-1.544000,-2.355000,1.346999,1.197413,-2.708064,-0.907749,-1.976031,1.749341,3.844680,0.000000,0.000000,0.000000,0.000000,0.000000,0.000000
1395.686000,2.696000,1,START a_bow,Note,62,D4,A,up,0.052958,0.330286,0.701745,0.137440,-1.544000,-2.355000,1.346999,1.196698,-2.705994,-0.911081,-1.974852,1.748789,3.844217,0.000000,0.000000,0.000000,0.000000,0.000000,0.000000
1395.694000,2.704000,1,START a_bow,Note,62,D4,A,up,0.044958,0.330553,0.700917,0.137780,-1.544000,-2.355000,1.346999,1.196007,-2.704005,-0.914277,-1.973723,1.748257,3.843770,0.000000,0.000000,0.000000,0.000000,0.000000,0.000000
1395.702000,2.712000,1,START a_bow,Note,62,D4,A,up,0.036958,0.330809,0.700121,0.138107,-1.544000,-2.355000,1.346999,1.195342,-2.702097,-0.917340,-1.972644,1.747744,3.843338,0.000000,0.000000,0.000000,0.000000,0.000000,0.000000
1395.710000,2.720000,1,START a_bow,Note,62,D4,A,up,0.028958,0.331056,0.699356,0.138422,-1.544000,-2.355000,1.346999,1.194701,-2.700268,-0.920271,-1.971615,1.747251,3.842924,0.000000,0.000000,0.000000,0.000000,0.000000,0.000000
1395.718000,2.728000,1,START a_bow,Note,62,D4,A,up,0.020958,0.331292,0.698621,0.138723,-1.544000,-2.355000,1.346999,1.194085,-2.698519,-0.923072,-1.970633,1.746776,3.842525,0.000000,0.000000,0.000000,0.000000,0.000000,0.000000
1395.726000,2.736000,1,START a_bow,Note,62,D4,A,up,0.012958,0.331519,0.697918,0.139012,-1.544000,-2.355000,1.346999,1.193495,-2.696848,-0.925744,-1.969699,1.746321,3.842143,0.000000,0.000000,0.000000,0.000000,0.000000,0.000000
1395.734000,2.744000,1,START a_bow,Note,62,D4,A,up,0.004958,0.331735,0.697246,0.139288,-1.544000,-2.355000,1.346999,1.192930,-2.695254,-0.928289,-1.968811,1.745886,3.841777,0.000000,0.000000,0.000000,0.000000,0.000000,0.000000
1395.742000,2.752000,1,START a_bow,Note,59,B3,A,up,0.246958,0.331942,0.696605,0.139552,-1.544000,-2.355000,1.346999,1.192390,-2.693739,-0.930708,-1.967968,1.745470,3.841428,0.000000,0.000000,0.000000,0.000000,0.000000,0.000000
1395.750000,2.760000,1,START a_bow,Note,59,B3,A,up,0.238958,0.332138,0.695996,0.139802,-1.544000,-2.355000,1.346999,1.191876,-2.692299,-0.933002,-1.967171,1.745074,3.841096,0.000000,0.000000,0.000000,0.000000,0.000000,0.000000
1395.758000,2.768000,1,START a_bow,Note,59,B3,A,up,0.230958,0.332325,0.695417,0.140040,-1.544000,-2.355000,1.346999,1.191388,-2.690936,-0.935173,-1.966418,1.744697,3.840780,0.000000,0.000000,0.000000,0.000000,0.000000,0.000000
1395.766000,2.776000,1,START a_bow,Note,59,B3,A,up,0.222958,0.332501,0.694869,0.140265,-1.544000,-2.355000,1.346999,1.190925,-2.689649,-0.937221,-1.965709,1.744341,3.840481,0.000000,0.000000,0.000000,0.000000,0.000000,0.000000
1395.774000,2.784000,1,START a_bow,Note,59,B3,A,up,0.214958,0.332667,0.694352,0.140477,-1.544000,-2.355000,1.346999,1.190489,-2.688437,-0.939148,-1.965043,1.744004,3.840198,0.000000,0.000000,0.000000,0.000000,0.000000,0.000000
1395.782000,2.792000,1,START a_bow,Note,59,B3,A,up,0.206958,0.332824,0.693867,0.140677,-1.544000,-2.355000,1.346999,1.190078,-2.687300,-0.940954,-1.964420,1.743687,3.839933,0.000000,0.000000,0.000000,0.000000,0.000000,0.000000
1395.790000,2.800000,1,START a_bow,Note,59,B3,A,up,0.198958,0.332970,0.693412,0.140864,-1.544000,-2.355000,1.346999,1.189693,-2.686237,-0.942640,-1.963839,1.743390,3.839684,0.000000,0.000000,0.000000,0.000000,0.000000,0.000000
1395.798000,2.808000,1,START a_bow,Note,59,B3,A,up,0.190958,0.333106,0.692989,0.141038,-1.544000,-2.355000,1.346999,1.189334,-2.685249,-0.944208,-1.963300,1.743114,3.839452,0.000000,0.000000,0.000000,0.000000,0.000000,0.000000
1395.806000,2.816000,1,START a_bow,Note,59,B3,A,up,0.182958,0.333233,0.692597,0.141199,-1.544000,-2.355000,1.346999,1.189001,-2.684334,-0.945657,-1.962802,1.742857,3.839237,0.000000,0.000000,0.000000,0.000000,0.000000,0.000000
1395.814000,2.824000,1,START a_bow,Note,59,B3,A,up,0.174958,0.333349,0.692235,0.141347,-1.544000,-2.355000,1.346999,1.188694,-2.683493,-0.946989,-1.962344,1.742621,3.839038,0.000000,0.000000,0.000000,0.000000,0.000000,0.000000
1395.822000,2.832000,1,START a_bow,Note,59,B3,A,up,0.166958,0.333456,0.691905,0.141483,-1.544000,-2.355000,1.346999,1.188414,-2.682725,-0.948205,-1.961928,1.742404,3.838857,0.000000,0.000000,0.000000,0.000000,0.000000,0.000000
1395.830000,2.840000,1,START a_bow,Note,59,B3,A,up,0.158958,0.333552,0.691606,0.141606,-1.544000,-2.355000,1.346999,1.188159,-2.682031,-0.949304,-1.961551,1.742208,3.838693,0.000000,0.000000,0.000000,0.000000,0.000000,0.000000
1395.838000,2.848000,1,START a_bow,Note,59,B3,A,up,0.150958,0.333638,0.691338,0.141716,-1.544000,-2.355000,1.346999,1.187931,-2.681409,-0.950288,-1.961215,1.742033,3.838545,0.000000,0.000000,0.000000,0.000000,0.000000,0.000000
1395.846000,2.856000,1,START a_bow,Note,59,B3,A,up,0.142958,0.333715,0.691101,0.141813,-1.544000,-2.355000,1.346999,1.187730,-2.680859,-0.951156,-1.960918,1.741877,3.838415,0.000000,0.000000,0.000000,0.000000,0.000000,0.000000
1395.854000,2.864000,1,START a_bow,Note,59,B3,A,up,0.134958,0.333781,0.690895,0.141898,-1.544000,-2.355000,1.346999,1.187555,-2.680382,-0.951910,-1.960660,1.741742,3.838302,0.000000,0.000000,0.000000,0.000000,0.000000,0.000000
1395.862000,2.872000,1,START a_bow,Note,59,B3,A,up,0.126958,0.333837,0.690720,0.141970,-1.544000,-2.355000,1.346999,1.187406,-2.679977,-0.952550,-1.960442,1.741627,3.838206,0.000000,0.000000,0.000000,0.000000,0.000000,0.000000
1395.870000,2.880000,1,START a_bow,Note,59,B3,A,up,0.118958,0.333883,0.690577,0.142029,-1.544000,-2.355000,1.346999,1.187283,-2.679645,-0.953075,-1.960263,1.741533,3.838127,0.000000,0.000000,0.000000,0.000000,0.000000,0.000000
1395.878000,2.888000,1,START a_bow,Note,59,B3,A,up,0.110958,0.333920,0.690464,0.142075,-1.544000,-2.355000,1.346999,1.187187,-2.679384,-0.953486,-1.960122,1.741459,3.838065,0.000000,0.000000,0.000000,0.000000,0.000000,0.000000
1395.886000,2.896000,1,START a_bow,Note,59,B3,A,up,0.102958,0.333946,0.690383,0.142109,-1.544000,-2.355000,1.346999,1.187118,-2.679196,-0.953784,-1.960021,1.741405,3.838020,0.000000,0.000000,0.000000,0.000000,0.000000,0.000000
1395.894000,2.904000,1,START a_bow,Note,59,B3,A,up,0.094958,0.333962,0.690332,0.142129,-1.544000,-2.355000,1.346999,1.187075,-2.679079,-0.953968,-1.959958,1.741372,3.837992,0.000000,0.000000,0.000000,0.000000,0.000000,0.000000
1395.902000,2.912000,1,START a_bow,Note,59,B3,A,up,0.086958,0.333969,0.690313,0.142137,-1.544000,-2.355000,1.346999,1.187058,-2.679034,-0.954039,-1.959934,1.741359,3.837981,0.000000,0.000000,0.000000,0.000000,0.000000,0.000000
1395.910000,2.920000,2,END a_bow,Note,59,B3,A,up,0.078958,0.333969,0.690312,0.142137,-1.544000,-2.355000,1.346999,1.187058,-2.679033,-0.954040,-1.959934,1.741359,3.837981,0.000000,0.000000,0.000000,0.000000,0.000000,0.000000
1395.918000,2.928000,2,END a_bow,Note,59,B3,A,up,0.070958,0.333969,0.690312,0.142137,-1.544000,-2.355000,1.346999,1.187058,-2.679033,-0.954040,-1.959934,1.741359,3.837981,0.000000,0.000000,0.000000,0.000000,0.000000,0.000000
1395.926000,2.936000,2,END a_bow,Note,59,B3,A,up,0.062958,0.333969,0.690312,0.142137,-1.544000,-2.355000,1.346999,1.187058,-2.679033,-0.954040,-1.959934,1.741359,3.837981,0.000000,0.000000,0.000000,0.000000,0.000000,0.000000
1395.934000,2.944000,1,START a_bow,Note,57,A3,A,down,0.554958,0.333968,0.690315,0.142137,-1.544000,-2.355000,1.346999,1.187060,-2.679039,-0.954032,-1.959936,1.741360,3.837982,0.000000,0.000000,0.000000,0.000000,0.000000,0.000000
1395.942000,2.952000,1,START a_bow,Note,57,A3,A,down,0.546958,0.333959,0.690342,0.142125,-1.544000,-2.355000,1.346999,1.187083,-2.679101,-0.953933,-1.959970,1.741378,3.837997,0.000000,0.000000,0.000000,0.000000,0.000000,0.000000
1395.950000,2.960000,1,START a_bow,Note,57,A3,A,down,0.538958,0.333940,0.690400,0.142101,-1.544000,-2.355000,1.346999,1.187133,-2.679236,-0.953720,-1.960043,1.741417,3.838029,0.000000,0.000000,0.000000,0.000000,0.000000,0.000000
1395.958000,2.968000,1,START a_bow,Note,57,A3,A,down,0.530958,0.333912,0.690489,0.142065,-1.544000,-2.355000,1.346999,1.187209,-2.679443,-0.953394,-1.960154,1.741475,3.838078,0.000000,0.000000,0.000000,0.000000,0.000000,0.000000
1395.966000,2.976000,1,START a_bow,Note,57,A3,A,down,0.522958,0.333873,0.690610,0.142015,-1.544000,-2.355000,1.346999,1.187311,-2.679721,-0.952954,-1.960304,1.741554,3.838145,0.000000,0.000000,0.000000,0.000000,0.000000,0.000000
1395.974000,2.984000,1,START a_bow,Note,57,A3,A,down,0.514958,0.333824,0.690761,0.141953,-1.544000,-2.355000,1.346999,1.187440,-2.680072,-0.952400,-1.960493,1.741654,3.838228,0.000000,0.000000,0.000000,0.000000,0.000000,0.000000
1395.982000,2.992000,1,START a_bow,Note,57,A3,A,down,0.506958,0.333765,0.690944,0.141878,-1.544000,-2.355000,1.346999,1.187596,-2.680495,-0.951732,-1.960721,1.741774,3.838329,0.000000,0.000000,0.000000,0.000000,0.000000,0.000000
1395.990000,3.000000,1,START a_bow,Note,57,A3,A,down,0.498958,0.333696,0.691157,0.141790,-1.544000,-2.355000,1.346999,1.187778,-2.680990,-0.950950,-1.960988,1.741914,3.838446,0.000000,0.000000,0.000000,0.000000,0.000000,0.000000
1395.998000,3.008000,1,START a_bow,Note,57,A3,A,down,0.490958,0.333618,0.691402,0.141690,-1.544000,-2.355000,1.346999,1.187986,-2.681557,-0.950053,-1.961295,1.742075,3.838581,0.000000,0.000000,0.000000,0.000000,0.000000,0.000000
1396.006000,3.016000,1,START a_bow,Note,57,A3,A,down,0.482958,0.333529,0.691678,0.141576,-1.544000,-2.355000,1.346999,1.188221,-2.682197,-0.949040,-1.961642,1.742255,3.838732,0.000000,0.000000,0.000000,0.000000,0.000000,0.000000
1396.014000,3.024000,1,START a_bow,Note,57,A3,A,down,0.474958,0.333430,0.691985,0.141450,-1.544000,-2.355000,1.346999,1.188481,-2.682910,-0.947912,-1.962028,1.742457,3.838901,0.000000,0.000000,0.000000,0.000000,0.000000,0.000000
1396.022000,3.032000,1,START a_bow,Note,57,A3,A,down,0.466958,0.333321,0.692323,0.141311,-1.544000,-2.355000,1.346999,1.188768,-2.683697,-0.946667,-1.962455,1.742678,3.839086,0.000000,0.000000,0.000000,0.000000,0.000000,0.000000
1396.030000,3.040000,1,START a_bow,Note,57,A3,A,down,0.458958,0.333202,0.692692,0.141160,-1.544000,-2.355000,1.346999,1.189082,-2.684556,-0.945306,-1.962922,1.742919,3.839289,0.000000,0.000000,0.000000,0.000000,0.000000,0.000000
1396.038000,3.048000,1,START a_bow,Note,57,A3,A,down,0.450958,0.333073,0.693092,0.140995,-1.544000,-2.355000,1.346999,1.189421,-2.685489,-0.943827,-1.963431,1.743181,3.839508,0.000000,0.000000,0.000000,0.000000,0.000000,0.000000
1396.046000,3.056000,1,START a_bow,Note,57,A3,A,down,0.442958,0.332934,0.693523,0.140818,-1.544000,-2.355000,1.346999,1.189787,-2.686496,-0.942230,-1.963980,1.743463,3.839744,0.000000,0.000000,0.000000,0.000000,0.000000,0.000000
1396.054000,3.064000,1,START a_bow,Note,57,A3,A,down,0.434958,0.332786,0.693985,0.140628,-1.544000,-2.355000,1.346999,1.190178,-2.687577,-0.940514,-1.964572,1.743765,3.839998,0.000000,0.000000,0.000000,0.000000,0.000000,0.000000
1396.062000,3.072000,1,START a_bow,Note,57,A3,A,down,0.426958,0.332627,0.694479,0.140426,-1.544000,-2.355000,1.346999,1.190595,-2.688733,-0.938677,-1.965206,1.744086,3.840267,0.000000,0.000000,0.000000,0.000000,0.000000,0.000000
1396.070000,3.080000,1,START a_bow,Note,57,A3,A,down,0.418958,0.332458,0.695003,0.140210,-1.544000,-2.355000,1.346999,1.191039,-2.689964,-0.936721,-1.965882,1.744428,3.840554,0.000000,0.000000,0.000000,0.000000,0.000000,0.000000
1396.078000,3.088000,1,START a_bow,Note,57,A3,A,down,0.410958,0.332279,0.695559,0.139982,-1.544000,-2.355000,1.346999,1.191508,-2.691270,-0.934642,-1.966602,1.744790,3.840857,0.000000,0.000000,0.000000,0.000000,0.000000,0.000000
1396.086000,3.096000,1,START a_bow,Note,57,A3,A,down,0.402958,0.332090,0.696145,0.139741,-1.544000,-2.355000,1.346999,1.192002,-2.692652,-0.932440,-1.967366,1.745171,3.841177,0.000000,0.000000,0.000000,0.000000,0.000000,0.000000
1396.094000,3.104000,1,START a_bow,Note,57,A3,A,down,0.394958,0.331891,0.696763,0.139487,-1.544000,-2.355000,1.346999,1.192523,-2.694110,-0.930115,-1.968175,1.745572,3.841514,0.000000,0.000000,0.000000,0.000000,0.000000,0.000000
1396.102000,3.112000,1,START a_bow,Note,57,A3,A,down,0.386958,0.331682,0.697411,0.139220,-1.544000,-2.355000,1.346999,1.193069,-2.695646,-0.927665,-1.969028,1.745993,3.841867,0.000000,0.000000,0.000000,0.000000,0.000000,0.000000
1396.110000,3.120000,1,START a_bow,Note,57,A3,A,down,0.378958,0.331463,0.698091,0.138941,-1.544000,-2.355000,1.346999,1.193640,-2.697258,-0.925088,-1.969928,1.746433,3.842237,0.000000,0.000000,0.000000,0.000000,0.000000,0.000000
1396.118000,3.128000,1,START a_bow,Note,57,A3,A,down,0.370958,0.331234,0.698802,0.138649,-1.544000,-2.355000,1.346999,1.194237,-2.698949,-0.922384,-1.970874,1.746893,3.842623,0.000000,0.000000,0.000000,0.000000,0.000000,0.000000
1396.126000,3.136000,1,START a_bow,Note,57,A3,A,down,0.362958,0.330995,0.699544,0.138344,-1.544000,-2.355000,1.346999,1.194859,-2.700718,-0.919550,-1.971868,1.747372,3.843026,0.000000,0.000000,0.000000,0.000000,0.000000,0.000000
1396.134000,3.144000,1,START a_bow,Note,57,A3,A,down,0.354958,0.330746,0.700317,0.138027,-1.544000,-2.355000,1.346999,1.195506,-2.702566,-0.916586,-1.972909,1.747871,3.843445,0.000000,0.000000,0.000000,0.000000,0.000000,0.000000
1396.142000,3.152000,1,START a_bow,Note,57,A3,A,down,0.346958,0.330487,0.701121,0.137696,-1.544000,-2.355000,1.346999,1.196178,-2.704495,-0.913490,-1.974000,1.748388,3.843880,0.000000,0.000000,0.000000,0.000000,0.000000,0.000000
1396.150000,3.160000,1,START a_bow,Note,57,A3,A,down,0.338958,0.330218,0.701956,0.137353,-1.544000,-2.355000,1.346999,1.196874,-2.706504,-0.910260,-1.975142,1.748925,3.844331,0.000000,0.000000,0.000000,0.000000,0.000000,0.000000
1396.158000,3.168000,1,START a_bow,Note,57,A3,A,down,0.330958,0.329939,0.702823,0.136997,-1.544000,-2.355000,1.346999,1.197596,-2.708594,-0.906895,-1.976334,1.749481,3.844799,0.000000,0.000000,0.000000,0.000000,0.000000,0.000000
1396.166000,3.176000,1,START a_bow,Note,57,A3,A,down,0.322958,0.329650,0.703720,0.136628,-1.544000,-2.355000,1.346999,1.198342,-2.710766,-0.903392,-1.977578,1.750056,3.845282,0.000000,0.000000,0.000000,0.000000,0.000000,0.000000
1396.174000,3.184000,1,START a_bow,Note,57,A3,A,down,0.314958,0.329351,0.704648,0.136247,-1.544000,-2.355000,1.346999,1.199113,-2.713022,-0.899750,-1.978875,1.750650,3.845782,0.000000,0.000000,0.000000,0.000000,0.000000,0.000000
1396.182000,3.192000,1,START a_bow,Note,57,A3,A,down,0.306958,0.329042,0.705608,0.135853,-1.544000,-2.355000,1.346999,1.199908,-2.715362,-0.895966,-1.980227,1.751262,3.846297,0.000000,0.000000,0.000000,0.000000,0.000000,0.000000
1396.190000,3.200000,1,START a_bow,Note,57,A3,A,down,0.298958,0.328723,0.706598,0.135446,-1.544000,-2.355000,1.346999,1.200728,-2.717786,-0.892039,-1.981634,1.751894,3.846829,0.000000,0.000000,0.000000,0.000000,0.000000,0.000000
1396.198000,3.208000,1,START a_bow,Note,57,A3,A,down,0.290958,0.328394,0.707620,0.135026,-1.544000,-2.355000,1.346999,1.201571,-2.720297,-0.887966,-1.983098,1.752543,3.847376,0.000000,0.000000,0.000000,0.000000,0.000000,0.000000
1396.206000,3.216000,1,START a_bow,Note,57,A3,A,down,0.282958,0.328055,0.708673,0.134593,-1.544000,-2.355000,1.346999,1.202439,-2.722895,-0.883745,-1.984620,1.753211,3.847938,0.000000,0.000000,0.000000,0.000000,0.000000,0.000000
1396.214000,3.224000,1,START a_bow,Note,57,A3,A,down,0.274958,0.327706,0.709756,0.134148,-1.544000,-2.355000,1.346999,1.203330,-2.725580,-0.879372,-1.986201,1.753897,3.848517,0.000000,0.000000,0.000000,0.000000,0.000000,0.000000
1396.222000,3.232000,1,START a_bow,Note,57,A3,A,down,0.266958,0.327347,0.710871,0.133690,-1.544000,-2.355000,1.346999,1.204245,-2.728355,-0.874847,-1.987844,1.754602,3.849111,0.000000,0.000000,0.000000,0.000000,0.000000,0.000000
1396.230000,3.240000,1,START a_bow,Note,57,A3,A,down,0.258958,0.326978,0.712017,0.133219,-1.544000,-2.355000,1.346999,1.205183,-2.731221,-0.870164,-1.989548,1.755324,3.849720,0.000000,0.000000,0.000000,0.000000,0.000000,0.000000
1396.238000,3.248000,1,START a_bow,Note,57,A3,A,down,0.250958,0.326599,0.713194,0.132736,-1.544000,-2.355000,1.346999,1.206145,-2.734179,-0.865323,-1.991318,1.756064,3.850344,0.000000,0.000000,0.000000,0.000000,0.000000,0.000000
1396.246000,3.256000,1,START a_bow,Note,57,A3,A,down,0.242958,0.326213,0.714391,0.132244,-1.544000,-2.355000,1.346999,1.207121,-2.737203,-0.860363,-1.993136,1.756816,3.850978,0.000000,0.000000,0.000000,0.000000,0.000000,0.000000
1396.254000,3.264000,1,START a_bow,Note,57,A3,A,down,0.234958,0.325827,0.715589,0.131751,-1.544000,-2.355000,1.346999,1.208095,-2.740243,-0.855367,-1.994975,1.757566,3.851611,0.000000,0.000000,0.000000,0.000000,0.000000,0.000000
1396.262000,3.272000,1,START a_bow,Note,57,A3,A,down,0.226958,0.325441,0.716787,0.131259,-1.544000,-2.355000,1.346999,1.209067,-2.743299,-0.850335,-1.996833,1.758314,3.852243,0.000000,0.000000,0.000000,0.000000,0.000000,0.000000
1396.270000,3.280000,1,START a_bow,Note,57,A3,A,down,0.218958,0.325055,0.717985,0.130767,-1.544000,-2.355000,1.346999,1.210037,-2.746371,-0.845266,-1.998712,1.759060,3.852874,0.000000,0.000000,0.000000,0.000000,0.000000,0.000000
1396.278000,3.288000,1,START a_bow,Note,57,A3,A,down,0.210958,0.324670,0.719183,0.130275,-1.544000,-2.355000,1.346999,1.211005,-2.749460,-0.840161,-2.000610,1.759804,3.853503,0.000000,0.000000,0.000000,0.000000,0.000000,0.000000
1396.286000,3.296000,1,START a_bow,Note,57,A3,A,down,0.202958,0.324284,0.720381,0.129783,-1.544000,-2.355000,1.346999,1.211970,-2.752565,-0.835018,-2.002530,1.760547,3.854131,0.000000,0.000000,0.000000,0.000000,0.000000,0.000000
1396.294000,3.304000,1,START a_bow,Note,57,A3,A,down,0.194958,0.323898,0.721578,0.129291,-1.544000,-2.355000,1.346999,1.212934,-2.755687,-0.829837,-2.004470,1.761288,3.854758,0.000000,0.000000,0.000000,0.000000,0.000000,0.000000
1396.302000,3.312000,1,START a_bow,Note,57,A3,A,down,0.186958,0.323512,0.722776,0.128798,-1.544000,-2.355000,1.346999,1.213895,-2.758827,-0.824617,-2.006432,1.762027,3.855383,0.000000,0.000000,0.000000,0.000000,0.000000,0.000000
1396.310000,3.320000,1,START a_bow,Note,57,A3,A,down,0.178958,0.323126,0.723974,0.128306,-1.544000,-2.355000,1.346999,1.214853,-2.761984,-0.819358,-2.008415,1.762765,3.856007,0.000000,0.000000,0.000000,0.000000,0.000000,0.000000
1396.318000,3.328000,1,START a_bow,Note,57,A3,A,down,0.170958,0.322741,0.725172,0.127814,-1.544000,-2.355000,1.346999,1.215810,-2.765159,-0.814058,-2.010421,1.763501,3.856631,0.000000,0.000000,0.000000,0.000000,0.000000,0.000000
1396.326000,3.336000,1,START a_bow,Note,57,A3,A,down,0.162958,0.322355,0.726370,0.127322,-1.544000,-2.355000,1.346999,1.216765,-2.768353,-0.808717,-2.012449,1.764235,3.857252,0.000000,0.000000,0.000000,0.000000,0.000000,0.000000
1396.334000,3.344000,1,START a_bow,Note,57,A3,A,down,0.154958,0.321969,0.727567,0.126830,-1.544000,-2.355000,1.346999,1.217717,-2.771565,-0.803334,-2.014500,1.764967,3.857873,0.000000,0.000000,0.000000,0.000000,0.000000,0.000000
1396.342000,3.352000,1,START a_bow,Note,57,A3,A,down,0.146958,0.321583,0.728765,0.126338,-1.544000,-2.355000,1.346999,1.218667,-2.774796,-0.797909,-2.016575,1.765697,3.858492,0.000000,0.000000,0.000000,0.000000,0.000000,0.000000
1396.350000,3.360000,1,START a_bow,Note,57,A3,A,down,0.138958,0.321197,0.729963,0.125845,-1.544000,-2.355000,1.346999,1.219615,-2.778047,-0.792440,-2.018673,1.766426,3.859110,0.000000,0.000000,0.000000,0.000000,0.000000,0.000000
1396.358000,3.368000,1,START a_bow,Note,57,A3,A,down,0.130958,0.320812,0.731161,0.125353,-1.544000,-2.355000,1.346999,1.220561,-2.781318,-0.786926,-2.020795,1.767153,3.859727,0.000000,0.000000,0.000000,0.000000,0.000000,0.000000
1396.366000,3.376000,1,START a_bow,Note,57,A3,A,down,0.122958,0.320426,0.732359,0.124861,-1.544000,-2.355000,1.346999,1.221505,-2.784610,-0.781367,-2.022942,1.767878,3.860343,0.000000,0.000000,0.000000,0.000000,0.000000,0.000000
1396.374000,3.384000,1,START a_bow,Note,57,A3,A,down,0.114958,0.320040,0.733556,0.124369,-1.544000,-2.355000,1.346999,1.222447,-2.787922,-0.775762,-2.025114,1.768602,3.860957,0.000000,0.000000,0.000000,0.000000,0.000000,0.000000
1396.382000,3.392000,1,START a_bow,Note,57,A3,A,down,0.106958,0.319654,0.734754,0.123877,-1.544000,-2.355000,1.346999,1.223386,-2.791255,-0.770110,-2.027312,1.769324,3.861571,0.000000,0.000000,0.000000,0.000000,0.000000,0.000000
1396.390000,3.400000,1,START a_bow,Note,57,A3,A,down,0.098958,0.319268,0.735952,0.123385,-1.544000,-2.355000,1.346999,1.224323,-2.794611,-0.764410,-2.029537,1.770044,3.862183,0.000000,0.000000,0.000000,0.000000,0.000000,0.000000
1396.398000,3.408000,1,START a_bow,Note,57,A3,A,down,0.090958,0.318883,0.737150,0.122892,-1.544000,-2.355000,1.346999,1.225259,-2.797988,-0.758660,-2.031788,1.770763,3.862793,0.000000,0.000000,0.000000,0.000000,0.000000,0.000000
1396.406000,3.416000,1,START a_bow,Note,57,A3,A,down,0.082958,0.318497,0.738348,0.122400,-1.544000,-2.355000,1.346999,1.226192,-2.801389,-0.752860,-2.034066,1.771479,3.863403,0.000000,0.000000,0.000000,0.000000,0.000000,0.000000
1396.414000,3.424000,1,START a_bow,Note,57,A3,A,down,0.074958,0.318111,0.739546,0.121908,-1.544000,-2.355000,1.346999,1.227123,-2.804813,-0.747008,-2.036372,1.772195,3.864011,0.000000,0.000000,0.000000,0.000000,0.000000,0.000000
1396.422000,3.432000,1,START a_bow,Note,57,A3,A,down,0.066958,0.317725,0.740743,0.121416,-1.544000,-2.355000,1.346999,1.228052,-2.808261,-0.741104,-2.038707,1.772908,3.864619,0.000000,0.000000,0.000000,0.000000,0.000000,0.000000
1396.430000,3.440000,1,START a_bow,Note,57,A3,A,down,0.058958,0.317339,0.741941,0.120924,-1.544000,-2.355000,1.346999,1.228978,-2.811733,-0.735145,-2.041071,1.773620,3.865225,0.000000,0.000000,0.000000,0.000000,0.000000,0.000000
1396.438000,3.448000,1,START a_bow,Note,57,A3,A,down,0.050958,0.316954,0.743139,0.120432,-1.544000,-2.355000,1.346999,1.229903,-2.815231,-0.729132,-2.043465,1.774330,3.865829,0.000000,0.000000,0.000000,0.000000,0.000000,0.000000
1396.446000,3.456000,1,START a_bow,Note,57,A3,A,down,0.042958,0.316568,0.744337,0.119939,-1.544000,-2.355000,1.346999,1.230826,-2.818755,-0.723061,-2.045889,1.775038,3.866433,0.000000,0.000000,0.000000,0.000000,0.000000,0.000000
1396.454000,3.464000,1,START a_bow,Note,57,A3,A,down,0.034958,0.316182,0.745535,0.119447,-1.544000,-2.355000,1.346999,1.231746,-2.822305,-0.716933,-2.048345,1.775745,3.867035,0.000000,0.000000,0.000000,0.000000,0.000000,0.000000
1396.462000,3.472000,1,START a_bow,Note,57,A3,A,down,0.026958,0.315796,0.746732,0.118955,-1.544000,-2.355000,1.346999,1.232665,-2.825882,-0.710746,-2.050832,1.776450,3.867637,0.000000,0.000000,0.000000,0.000000,0.000000,0.000000
1396.470000,3.480000,1,START a_bow,Note,57,A3,A,down,0.018958,0.315410,0.747930,0.118463,-1.544000,-2.355000,1.346999,1.233581,-2.829487,-0.704497,-2.053353,1.777153,3.868237,0.000000,0.000000,0.000000,0.000000,0.000000,0.000000
1396.478000,3.488000,1,START a_bow,Note,57,A3,A,down,0.010958,0.315024,0.749128,0.117971,-1.544000,-2.355000,1.346999,1.234495,-2.833122,-0.698186,-2.055907,1.777855,3.868836,0.000000,0.000000,0.000000,0.000000,0.000000,0.000000
1396.486000,3.496000,1,START a_bow,Note,57,A3,A,down,0.002958,0.314639,0.750326,0.117479,-1.544000,-2.355000,1.346999,1.235407,-2.836785,-0.691811,-2.058496,1.778555,3.869433,0.000000,0.000000,0.000000,0.000000,0.000000,0.000000
1396.494000,3.504000,1,START a_bow,Note,57,A3,A,down,0.494958,0.314253,0.751524,0.116986,-1.544000,-2.355000,1.346999,1.236317,-2.840479,-0.685369,-2.061120,1.779253,3.870030,0.000000,0.000000,0.000000,0.000000,0.000000,0.000000
1396.502000,3.512000,1,START a_bow,Note,57,A3,A,down,0.486958,0.313867,0.752722,0.116494,-1.544000,-2.355000,1.346999,1.237225,-2.844204,-0.678860,-2.063780,1.779950,3.870625,0.000000,0.000000,0.000000,0.000000,0.000000,0.000000
1396.510000,3.520000,1,START a_bow,Note,57,A3,A,down,0.478958,0.313481,0.753919,0.116002,-1.544000,-2.355000,1.346999,1.238131,-2.847962,-0.672281,-2.066478,1.780645,3.871219,0.000000,0.000000,0.000000,0.000000,0.000000,0.000000
1396.518000,3.528000,1,START a_bow,Note,57,A3,A,down,0.470958,0.313095,0.755117,0.115510,-1.544000,-2.355000,1.346999,1.239035,-2.851753,-0.665630,-2.069215,1.781338,3.871812,0.000000,0.000000,0.000000,0.000000,0.000000,0.000000
1396.526000,3.536000,1,START a_bow,Note,57,A3,A,down,0.462958,0.312710,0.756315,0.115018,-1.544000,-2.355000,1.346999,1.239937,-2.855577,-0.658906,-2.071991,1.782030,3.872404,0.000000,0.000000,0.000000,0.000000,0.000000,0.000000
1396.534000,3.544000,1,START a_bow,Note,57,A3,A,down,0.454958,0.312324,0.757513,0.114526,-1.544000,-2.355000,1.346999,1.240837,-2.859438,-0.652105,-2.074807,1.782720,3.872995,0.000000,0.000000,0.000000,0.000000,0.000000,0.000000
1396.542000,3.552000,1,START a_bow,Note,57,A3,A,down,0.446958,0.311938,0.758711,0.114033,-1.544000,-2.355000,1.346999,1.241735,-2.863334,-0.645225,-2.077666,1.783408,3.873584,0.000000,0.000000,0.000000,0.000000,0.000000,0.000000
1396.550000,3.560000,1,START a_bow,Note,57,A3,A,down,0.438958,0.311552,0.759908,0.113541,-1.544000,-2.355000,1.346999,1.242631,-2.867269,-0.638265,-2.080568,1.784095,3.874172,0.000000,0.000000,0.000000,0.000000,0.000000,0.000000
