Praneshv25/Robot-Cello-RL/Data-Files/URSim-Data/long-bowings-sim.csv
timestamp_robot,time_elapsed_sec,event_flag,event_label,current_event_type,current_note_number,current_note_name,current_string,current_bowing,remaining_duration_sec,TCP_pose_x,TCP_pose_y,TCP_pose_z,TCP_pose_rx,TCP_pose_ry,TCP_pose_rz,q_base,q_shoulder,q_elbow,q_wrist1,q_wrist2,q_wrist3,TCP_force_x,TCP_force_y,TCP_force_z,TCP_force_rx,TCP_force_ry,TCP_force_rz
825.338000,0.000000,5,START g_bow,Note,43,G2,G,up,0.498958,0.327289,0.636224,0.089931,-1.613000,-1.725000,0.781000,1.192850,-2.660111,-1.370269,-1.117150,2.393650,4.075038,0.000000,0.000000,0.000000,0.000000,0.000000,0.000000
825.346000,0.008000,5,START g_bow,Note,43,G2,G,up,0.490958,0.327161,0.635652,0.089888,-1.613000,-1.725000,0.781000,1.192722,-2.659330,-1.372374,-1.115953,2.393596,4.074867,0.000000,0.000000,0.000000,0.000000,0.000000,0.000000
825.354000,0.016000,5,START g_bow,Note,43,G2,G,up,0.482958,0.327024,0.635041,0.089841,-1.613000,-1.725000,0.781000,1.192584,-2.658497,-1.374617,-1.114677,2.393538,4.074683,0.000000,0.000000,0.000000,0.000000,0.000000,0.000000
825.362000,0.024000,5,START g_bow,Note,43,G2,G,up,0.474958,0.326878,0.634390,0.089791,-1.613000,-1.725000,0.781000,1.192437,-2.657613,-1.377004,-1.113318,2.393476,4.074488,0.000000,0.000000,0.000000,0.000000,0.000000,0.000000
825.370000,0.032000,5,START g_bow,Note,43,G2,G,up,0.466958,0.326722,0.633697,0.089738,-1.613000,-1.725000,0.781000,1.192281,-2.656674,-1.379540,-1.111875,2.393410,4.074279,0.000000,0.000000,0.000000,0.000000,0.000000,0.000000
825.378000,0.040000,5,START g_bow,Note,43,G2,G,up,0.458958,0.326557,0.632960,0.089682,-1.613000,-1.725000,0.781000,1.192114,-2.655678,-1.382231,-1.110342,2.393339,4.074057,0.000000,0.000000,0.000000,0.000000,0.000000,0.000000
825.386000,0.048000,5,START g_bow,Note,43,G2,G,up,0.450958,0.326383,0.632188,0.089623,-1.613000,-1.725000,0.781000,1.191939,-2.654638,-1.385046,-1.108737,2.393265,4.073823,0.000000,0.000000,0.000000,0.000000,0.000000,0.000000
825.394000,0.056000,5,START g_bow,Note,43,G2,G,up,0.442958,0.326203,0.631386,0.089561,-1.613000,-1.725000,0.781000,1.191756,-2.653561,-1.387966,-1.107073,2.393188,4.073580,0.000000,0.000000,0.000000,0.000000,0.000000,0.000000
825.402000,0.064000,5,START g_bow,Note,43,G2,G,up,0.434958,0.326017,0.630553,0.089498,-1.613000,-1.725000,0.781000,1.191567,-2.652446,-1.390990,-1.105348,2.393108,4.073328,0.000000,0.000000,0.000000,0.000000,0.000000,0.000000
825.410000,0.072000,5,START g_bow,Note,43,G2,G,up,0.426958,0.325823,0.629691,0.089432,-1.613000,-1.725000,0.781000,1.191369,-2.651296,-1.394117,-1.103564,2.393025,4.073065,0.000000,0.000000,0.000000,0.000000,0.000000,0.000000
825.418000,0.080000,5,START g_bow,Note,43,G2,G,up,0.418958,0.325623,0.628798,0.089364,-1.613000,-1.725000,0.781000,1.191165,-2.650109,-1.397347,-1.101721,2.392938,4.072793,0.000000,0.000000,0.000000,0.000000,0.000000,0.000000
825.426000,0.088000,5,START g_bow,Note,43,G2,G,up,0.410958,0.325416,0.627875,0.089293,-1.613000,-1.725000,0.781000,1.190953,-2.648887,-1.400678,-1.099818,2.392849,4.072511,0.000000,0.000000,0.000000,0.000000,0.000000,0.000000
825.434000,0.096000,5,START g_bow,Note,43,G2,G,up,0.402958,0.325202,0.626922,0.089220,-1.613000,-1.725000,0.781000,1.190734,-2.647630,-1.404110,-1.097857,2.392756,4.072219,0.000000,0.000000,0.000000,0.000000,0.000000,0.000000
825.442000,0.104000,5,START g_bow,Note,43,G2,G,up,0.394958,0.324981,0.625939,0.089145,-1.613000,-1.725000,0.781000,1.190507,-2.646337,-1.407643,-1.095838,2.392660,4.071917,0.000000,0.000000,0.000000,0.000000,0.000000,0.000000
825.450000,0.112000,5,START g_bow,Note,43,G2,G,up,0.386958,0.324754,0.624926,0.089068,-1.613000,-1.725000,0.781000,1.190272,-2.645011,-1.411275,-1.093760,2.392560,4.071605,0.000000,0.000000,0.000000,0.000000,0.000000,0.000000
825.458000,0.120000,5,START g_bow,Note,43,G2,G,up,0.378958,0.324519,0.623883,0.088988,-1.613000,-1.725000,0.781000,1.190030,-2.643651,-1.415007,-1.091625,2.392458,4.071283,0.000000,0.000000,0.000000,0.000000,0.000000,0.000000
825.466000,0.128000,5,START g_bow,Note,43,G2,G,up,0.370958,0.324279,0.622809,0.088906,-1.613000,-1.725000,0.781000,1.189780,-2.642257,-1.418837,-1.089432,2.392352,4.070951,0.000000,0.000000,0.000000,0.000000,0.000000,0.000000
825.474000,0.136000,5,START g_bow,Note,43,G2,G,up,0.362958,0.324031,0.621706,0.088822,-1.613000,-1.725000,0.781000,1.189522,-2.640831,-1.422764,-1.087181,2.392242,4.070608,0.000000,0.000000,0.000000,0.000000,0.000000,0.000000
825.482000,0.144000,5,START g_bow,Note,43,G2,G,up,0.354958,0.323776,0.620572,0.088735,-1.613000,-1.725000,0.781000,1.189257,-2.639372,-1.426789,-1.084874,2.392129,4.070255,0.000000,0.000000,0.000000,0.000000,0.000000,0.000000
825.490000,0.152000,5,START g_bow,Note,43,G2,G,up,0.346958,0.323515,0.619408,0.088646,-1.613000,-1.725000,0.781000,1.188983,-2.637882,-1.430909,-1.082510,2.392013,4.069891,0.000000,0.000000,0.000000,0.000000,0.000000,0.000000
825.498000,0.160000,5,START g_bow,Note,43,G2,G,up,0.338958,0.323247,0.618214,0.088555,-1.613000,-1.725000,0.781000,1.188701,-2.636359,-1.435125,-1.080090,2.391893,4.069517,0.000000,0.000000,0.000000,0.000000,0.000000,0.000000
825.506000,0.168000,5,START g_bow,Note,43,G2,G,up,0.330958,0.322973,0.616990,0.088461,-1.613000,-1.725000,0.781000,1.188412,-2.634807,-1.439436,-1.077615,2.391770,4.069132,0.000000,0.000000,0.000000,0.000000,0.000000,0.000000
825.514000,0.176000,5,START g_bow,Note,43,G2,G,up,0.322958,0.322695,0.615754,0.088367,-1.613000,-1.725000,0.781000,1.188118,-2.633247,-1.443775,-1.075121,2.391645,4.068743,0.000000,0.000000,0.000000,0.000000,0.000000,0.000000
825.522000,0.184000,5,START g_bow,Note,43,G2,G,up,0.314958,0.322418,0.614519,0.088272,-1.613000,-1.725000,0.781000,1.187823,-2.631694,-1.448102,-1.072632,2.391520,4.068352,0.000000,0.000000,0.000000,0.000000,0.000000,0.000000
825.530000,0.192000,5,START g_bow,Note,43,G2,G,up,0.306958,0.322140,0.613283,0.088178,-1.613000,-1.725000,0.781000,1.187528,-2.630150,-1.452418,-1.070148,2.391394,4.067959,0.000000,0.000000,0.000000,0.000000,0.000000,0.000000
825.538000,0.200000,5,START g_bow,Note,43,G2,G,up,0.298958,0.321863,0.612047,0.088083,-1.613000,-1.725000,0.781000,1.187231,-2.628612,-1.456722,-1.067669,2.391267,4.067566,0.000000,0.000000,0.000000,0.000000,0.000000,0.000000
825.546000,0.208000,5,START g_bow,Note,43,G2,G,up,0.290958,0.321586,0.610811,0.087989,-1.613000,-1.725000,0.781000,1.186933,-2.627083,-1.461014,-1.065195,2.391140,4.067171,0.000000,0.000000,0.000000,0.000000,0.000000,0.000000
825.554000,0.216000,5,START g_bow,Note,43,G2,G,up,0.282958,0.321308,0.609576,0.087894,-1.613000,-1.725000,0.781000,1.186635,-2.625561,-1.465295,-1.062726,2.391013,4.066774,0.000000,0.000000,0.000000,0.000000,0.000000,0.000000
825.562000,0.224000,5,START g_bow,Note,43,G2,G,up,0.274958,0.321031,0.608340,0.087800,-1.613000,-1.725000,0.781000,1.186335,-2.624046,-1.469564,-1.060262,2.390885,4.066377,0.000000,0.000000,0.000000,0.000000,0.000000,0.000000
825.570000,0.232000,5,START g_bow,Note,43,G2,G,up,0.266958,0.320754,0.607104,0.087705,-1.613000,-1.725000,0.781000,1.186034,-2.622539,-1.473822,-1.057803,2.390756,4.065978,0.000000,0.000000,0.000000,0.000000,0.000000,0.000000
825.578000,0.240000,5,START g_bow,Note,43,G2,G,up,0.258958,0.320476,0.605868,0.087611,-1.613000,-1.725000,0.781000,1.185732,-2.621040,-1.478068,-1.055349,2.390627,4.065578,0.000000,0.000000,0.000000,0.000000,0.000000,0.000000
825.586000,0.248000,5,START g_bow,Note,43,G2,G,up,0.250958,0.320199,0.604633,0.087517,-1.613000,-1.725000,0.781000,1.185429,-2.619547,-1.482304,-1.052899,2.390497,4.065176,0.000000,0.000000,0.000000,0.000000,0.000000,0.000000
825.594000,0.256000,5,START g_bow,Note,43,G2,G,up,0.242958,0.319922,0.603397,0.087422,-1.613000,-1.725000,0.781000,1.185124,-2.618062,-1.486528,-1.050454,2.390367,4.064774,0.000000,0.000000,0.000000,0.000000,0.000000,0.000000
825.602000,0.264000,5,START g_bow,Note,43,G2,G,up,0.234958,0.319644,0.602161,0.087328,-1.613000,-1.725000,0.781000,1.184819,-2.616585,-1.490741,-1.048014,2.390236,4.064370,0.000000,0.000000,0.000000,0.000000,0.000000,0.000000
825.610000,0.272000,5,START g_bow,Note,43,G2,G,up,0.226958,0.319367,0.600925,0.087233,-1.613000,-1.725000,0.781000,1.184513,-2.615114,-1.494944,-1.045578,2.390105,4.063964,0.000000,0.000000,0.000000,0.000000,0.000000,0.000000
825.618000,0.280000,5,START g_bow,Note,43,G2,G,up,0.218958,0.319090,0.599690,0.087139,-1.613000,-1.725000,0.781000,1.184205,-2.613651,-1.499135,-1.043147,2.389973,4.063557,0.000000,0.000000,0.000000,0.000000,0.000000,0.000000
825.626000,0.288000,5,START g_bow,Note,43,G2,G,up,0.210958,0.318812,0.598454,0.087044,-1.613000,-1.725000,0.781000,1.183896,-2.612195,-1.503316,-1.040721,2.389840,4.063149,0.000000,0.000000,0.000000,0.000000,0.000000,0.000000
825.634000,0.296000,5,START g_bow,Note,43,G2,G,up,0.202958,0.318535,0.597218,0.086950,-1.613000,-1.725000,0.781000,1.183587,-2.610747,-1.507486,-1.038298,2.389707,4.062739,0.000000,0.000000,0.000000,0.000000,0.000000,0.000000
825.642000,0.304000,5,START g_bow,Note,43,G2,G,up,0.194958,0.318258,0.595982,0.086855,-1.613000,-1.725000,0.781000,1.183276,-2.609305,-1.511645,-1.035881,2.389573,4.062328,0.000000,0.000000,0.000000,0.000000,0.000000,0.000000
825.650000,0.312000,5,START g_bow,Note,43,G2,G,up,0.186958,0.317980,0.594747,0.086761,-1.613000,-1.725000,0.781000,1.182964,-2.607871,-1.515794,-1.033467,2.389439,4.061916,0.000000,0.000000,0.000000,0.000000,0.000000,0.000000
825.658000,0.320000,5,START g_bow,Note,43,G2,G,up,0.178958,0.317703,0.593511,0.086666,-1.613000,-1.725000,0.781000,1.182651,-2.606443,-1.519933,-1.031058,2.389304,4.061502,0.000000,0.000000,0.000000,0.000000,0.000000,0.000000
825.666000,0.328000,5,START g_bow,Note,43,G2,G,up,0.170958,0.317426,0.592275,0.086572,-1.613000,-1.725000,0.781000,1.182336,-2.605023,-1.524061,-1.028653,2.389169,4.061087,0.000000,0.000000,0.000000,0.000000,0.000000,0.000000
825.674000,0.336000,5,START g_bow,Note,43,G2,G,up,0.162958,0.317148,0.591039,0.086478,-1.613000,-1.725000,0.781000,1.182021,-2.603610,-1.528179,-1.026252,2.389033,4.060671,0.000000,0.000000,0.000000,0.000000,0.000000,0.000000
825.682000,0.344000,5,START g_bow,Note,43,G2,G,up,0.154958,0.316871,0.589804,0.086383,-1.613000,-1.725000,0.781000,1.181704,-2.602204,-1.532287,-1.023856,2.388897,4.060253,0.000000,0.000000,0.000000,0.000000,0.000000,0.000000
825.690000,0.352000,5,START g_bow,Note,43,G2,G,up,0.146958,0.316594,0.588568,0.086289,-1.613000,-1.725000,0.781000,1.181386,-2.600805,-1.536384,-1.021463,2.388760,4.059833,0.000000,0.000000,0.000000,0.000000,0.000000,0.000000
825.698000,0.360000,5,START g_bow,Note,43,G2,G,up,0.138958,0.316316,0.587332,0.086194,-1.613000,-1.725000,0.781000,1.181067,-2.599413,-1.540472,-1.019075,2.388622,4.059413,0.000000,0.000000,0.000000,0.000000,0.000000,0.000000
825.706000,0.368000,5,START g_bow,Note,43,G2,G,up,0.130958,0.316039,0.586097,0.086100,-1.613000,-1.725000,0.781000,1.180747,-2.598027,-1.544550,-1.016691,2.388484,4.058990,0.000000,0.000000,0.000000,0.000000,0.000000,0.000000
825.714000,0.376000,5,START g_bow,Note,43,G2,G,up,0.122958,0.315762,0.584861,0.086005,-1.613000,-1.725000,0.781000,1.180426,-2.596649,-1.548617,-1.014310,2.388345,4.058567,0.000000,0.000000,0.000000,0.000000,0.000000,0.000000
825.722000,0.384000,5,START g_bow,Note,43,G2,G,up,0.114958,0.315484,0.583625,0.085911,-1.613000,-1.725000,0.781000,1.180103,-2.595278,-1.552675,-1.011934,2.388205,4.058142,0.000000,0.000000,0.000000,0.000000,0.000000,0.000000
825.730000,0.392000,5,START g_bow,Note,43,G2,G,up,0.106958,0.315207,0.582389,0.085816,-1.613000,-1.725000,0.781000,1.179780,-2.593913,-1.556723,-1.009561,2.388065,4.057715,0.000000,0.000000,0.000000,0.000000,0.000000,0.000000
825.738000,0.400000,5,START g_bow,Note,43,G2,G,up,0.098958,0.314930,0.581154,0.085722,-1.613000,-1.725000,0.781000,1.179455,-2.592555,-1.560762,-1.007193,2.387924,4.057287,0.000000,0.000000,0.000000,0.000000,0.000000,0.000000
825.746000,0.408000,5,START g_bow,Note,43,G2,G,up,0.090958,0.314652,0.579918,0.085627,-1.613000,-1.725000,0.781000,1.179129,-2.591204,-1.564791,-1.004828,2.387783,4.056858,0.000000,0.000000,0.000000,0.000000,0.000000,0.000000
825.754000,0.416000,5,START g_bow,Note,43,G2,G,up,0.082958,0.314375,0.578682,0.085533,-1.613000,-1.725000,0.781000,1.178801,-2.589860,-1.568810,-1.002467,2.387641,4.056427,0.000000,0.000000,0.000000,0.000000,0.000000,0.000000
825.762000,0.424000,5,START g_bow,Note,43,G2,G,up,0.074958,0.314098,0.577446,0.085439,-1.613000,-1.725000,0.781000,1.178473,-2.588523,-1.572820,-1.000110,2.387498,4.055994,0.000000,0.000000,0.000000,0.000000,0.000000,0.000000
825.770000,0.432000,5,START g_bow,Note,43,G2,G,up,0.066958,0.313820,0.576211,0.085344,-1.613000,-1.725000,0.781000,1.178143,-2.587192,-1.576820,-0.997756,2.387355,4.055561,0.000000,0.000000,0.000000,0.000000,0.000000,0.000000
825.778000,0.440000,5,START g_bow,Note,43,G2,G,up,0.058958,0.313543,0.574975,0.085250,-1.613000,-1.725000,0.781000,1.177812,-2.585868,-1.580811,-0.995406,2.387211,4.055125,0.000000,0.000000,0.000000,0.000000,0.000000,0.000000
825.786000,0.448000,5,START g_bow,Note,43,G2,G,up,0.050958,0.313266,0.573739,0.085155,-1.613000,-1.725000,0.781000,1.177480,-2.584551,-1.584793,-0.993060,2.387067,4.054688,0.000000,0.000000,0.000000,0.000000,0.000000,0.000000
825.794000,0.456000,5,START g_bow,Note,43,G2,G,up,0.042958,0.312988,0.572503,0.085061,-1.613000,-1.725000,0.781000,1.177146,-2.583241,-1.588765,-0.990717,2.386922,4.054250,0.000000,0.000000,0.000000,0.000000,0.000000,0.000000
825.802000,0.464000,5,START g_bow,Note,43,G2,G,up,0.034958,0.312711,0.571268,0.084966,-1.613000,-1.725000,0.781000,1.176811,-2.581937,-1.592729,-0.988378,2.386776,4.053810,0.000000,0.000000,0.000000,0.000000,0.000000,0.000000
825.810000,0.472000,5,START g_bow,Note,43,G2,G,up,0.026958,0.312433,0.570032,0.084872,-1.613000,-1.725000,0.781000,1.176475,-2.580640,-1.596683,-0.986042,2.386630,4.053369,0.000000,0.000000,0.000000,0.000000,0.000000,0.000000
825.818000,0.480000,5,START g_bow,Note,43,G2,G,up,0.018958,0.312156,0.568796,0.084777,-1.613000,-1.725000,0.781000,1.176138,-2.579350,-1.600628,-0.983710,2.386483,4.052926,0.000000,0.000000,0.000000,0.000000,0.000000,0.000000
825.826000,0.488000,5,START g_bow,Note,43,G2,G,up,0.010958,0.311879,0.567560,0.084683,-1.613000,-1.725000,0.781000,1.175799,-2.578066,-1.604564,-0.981382,2.386335,4.052481,0.000000,0.000000,0.000000,0.000000,0.000000,0.000000
825.834000,0.496000,5,START g_bow,Note,43,G2,G,up,0.002958,0.311601,0.566325,0.084588,-1.613000,-1.725000,0.781000,1.175460,-2.576789,-1.608492,-0.979056,2.386186,4.052035,0.000000,0.000000,0.000000,0.000000,0.000000,0.000000
825.842000,0.504000,5,START g_bow,Note,43,G2,G,up,0.244958,0.311324,0.565089,0.084494,-1.613000,-1.725000,0.781000,1.175118,-2.575518,-1.612410,-0.976734,2.386037,4.051588,0.000000,0.000000,0.000000,0.000000,0.000000,0.000000
825.850000,0.512000,5,START g_bow,Note,43,G2,G,up,0.236958,0.311047,0.563855,0.084400,-1.613000,-1.725000,0.781000,1.174777,-2.574256,-1.616313,-0.974420,2.385888,4.051139,0.000000,0.000000,0.000000,0.000000,0.000000,0.000000
825.858000,0.520000,5,START g_bow,Note,43,G2,G,up,0.228958,0.310776,0.562646,0.084307,-1.613000,-1.725000,0.781000,1.174440,-2.573026,-1.620130,-0.972154,2.385741,4.050698,0.000000,0.000000,0.000000,0.000000,0.000000,0.000000
825.866000,0.528000,5,START g_bow,Note,43,G2,G,up,0.220958,0.310511,0.561467,0.084217,-1.613000,-1.725000,0.781000,1.174111,-2.571832,-1.623843,-0.969948,2.385597,4.050267,0.000000,0.000000,0.000000,0.000000,0.000000,0.000000
825.874000,0.536000,5,START g_bow,Note,43,G2,G,up,0.212958,0.310253,0.560318,0.084129,-1.613000,-1.725000,0.781000,1.173789,-2.570674,-1.627454,-0.967801,2.385456,4.049845,0.000000,0.000000,0.000000,0.000000,0.000000,0.000000
825.882000,0.544000,5,START g_bow,Note,43,G2,G,up,0.204958,0.310002,0.559200,0.084044,-1.613000,-1.725000,0.781000,1.173475,-2.569553,-1.630964,-0.965714,2.385318,4.049433,0.000000,0.000000,0.000000,0.000000,0.000000,0.000000
825.890000,0.552000,5,START g_bow,Note,43,G2,G,up,0.196958,0.309758,0.558111,0.083961,-1.613000,-1.725000,0.781000,1.173168,-2.568466,-1.634372,-0.963685,2.385183,4.049031,0.000000,0.000000,0.000000,0.000000,0.000000,0.000000
825.898000,0.560000,5,START g_bow,Note,43,G2,G,up,0.188958,0.309521,0.557053,0.083880,-1.613000,-1.725000,0.781000,1.172868,-2.567415,-1.637679,-0.961714,2.385052,4.048639,0.000000,0.000000,0.000000,0.000000,0.000000,0.000000
825.906000,0.568000,5,START g_bow,Note,43,G2,G,up,0.180958,0.309290,0.556025,0.083801,-1.613000,-1.725000,0.781000,1.172576,-2.566398,-1.640886,-0.959802,2.384923,4.048256,0.000000,0.000000,0.000000,0.000000,0.000000,0.000000
825.914000,0.576000,5,START g_bow,Note,43,G2,G,up,0.172958,0.309066,0.555026,0.083725,-1.613000,-1.725000,0.781000,1.172292,-2.565415,-1.643994,-0.957947,2.384799,4.047884,0.000000,0.000000,0.000000,0.000000,0.000000,0.000000
825.922000,0.584000,5,START g_bow,Note,43,G2,G,up,0.164958,0.308849,0.554058,0.083651,-1.613000,-1.725000,0.781000,1.172015,-2.564466,-1.647003,-0.956151,2.384677,4.047522,0.000000,0.000000,0.000000,0.000000,0.000000,0.000000
825.930000,0.592000,5,START g_bow,Note,43,G2,G,up,0.156958,0.308638,0.553121,0.083579,-1.613000,-1.725000,0.781000,1.171746,-2.563550,-1.649913,-0.954412,2.384559,4.047171,0.000000,0.000000,0.000000,0.000000,0.000000,0.000000
825.938000,0.600000,5,START g_bow,Note,43,G2,G,up,0.148958,0.308434,0.552213,0.083510,-1.613000,-1.725000,0.781000,1.171485,-2.562667,-1.652725,-0.952731,2.384444,4.046830,0.000000,0.000000,0.000000,0.000000,0.000000,0.000000
825.946000,0.608000,5,START g_bow,Note,43,G2,G,up,0.140958,0.308237,0.551335,0.083443,-1.613000,-1.725000,0.781000,1.171232,-2.561816,-1.655439,-0.951107,2.384333,4.046499,0.000000,0.000000,0.000000,0.000000,0.000000,0.000000
825.954000,0.616000,5,START g_bow,Note,43,G2,G,up,0.132958,0.308047,0.550488,0.083378,-1.613000,-1.725000,0.781000,1.170987,-2.560998,-1.658057,-0.949541,2.384225,4.046179,0.000000,0.000000,0.000000,0.000000,0.000000,0.000000
825.962000,0.624000,5,START g_bow,Note,43,G2,G,up,0.124958,0.307864,0.549670,0.083315,-1.613000,-1.725000,0.781000,1.170750,-2.560212,-1.660577,-0.948031,2.384120,4.045869,0.000000,0.000000,0.000000,0.000000,0.000000,0.000000
825.970000,0.632000,5,START g_bow,Note,43,G2,G,up,0.116958,0.307687,0.548883,0.083255,-1.613000,-1.725000,0.781000,1.170522,-2.559458,-1.663002,-0.946578,2.384019,4.045571,0.000000,0.000000,0.000000,0.000000,0.000000,0.000000
825.978000,0.640000,5,START g_bow,Note,43,G2,G,up,0.108958,0.307517,0.548126,0.083197,-1.613000,-1.725000,0.781000,1.170301,-2.558735,-1.665330,-0.945182,2.383922,4.045283,0.000000,0.000000,0.000000,0.000000,0.000000,0.000000
825.986000,0.648000,5,START g_bow,Note,43,G2,G,up,0.100958,0.307354,0.547399,0.083142,-1.613000,-1.725000,0.781000,1.170089,-2.558042,-1.667563,-0.943843,2.383829,4.045006,0.000000,0.000000,0.000000,0.000000,0.000000,0.000000
825.994000,0.656000,5,START g_bow,Note,43,G2,G,up,0.092958,0.307198,0.546702,0.083089,-1.613000,-1.725000,0.781000,1.169885,-2.557381,-1.669701,-0.942560,2.383739,4.044740,0.000000,0.000000,0.000000,0.000000,0.000000,0.000000
826.002000,0.664000,5,START g_bow,Note,43,G2,G,up,0.084958,0.307048,0.546036,0.083038,-1.613000,-1.725000,0.781000,1.169690,-2.556750,-1.671744,-0.941333,2.383652,4.044484,0.000000,0.000000,0.000000,0.000000,0.000000,0.000000
826.010000,0.672000,5,START g_bow,Note,43,G2,G,up,0.076958,0.306905,0.545399,0.082989,-1.613000,-1.725000,0.781000,1.169503,-2.556150,-1.673692,-0.940163,2.383570,4.044240,0.000000,0.000000,0.000000,0.000000,0.000000,0.000000
826.018000,0.680000,5,START g_bow,Note,43,G2,G,up,0.068958,0.306769,0.544793,0.082943,-1.613000,-1.725000,0.781000,1.169324,-2.555579,-1.675546,-0.939048,2.383491,4.044007,0.000000,0.000000,0.000000,0.000000,0.000000,0.000000
826.026000,0.688000,5,START g_bow,Note,43,G2,G,up,0.060958,0.306640,0.544216,0.082899,-1.613000,-1.725000,0.781000,1.169154,-2.555038,-1.677306,-0.937990,2.383416,4.043786,0.000000,0.000000,0.000000,0.000000,0.000000,0.000000
826.034000,0.696000,5,START g_bow,Note,43,G2,G,up,0.052958,0.306517,0.543670,0.082857,-1.613000,-1.725000,0.781000,1.168993,-2.554527,-1.678973,-0.936987,2.383344,4.043575,0.000000,0.000000,0.000000,0.000000,0.000000,0.000000
826.042000,0.704000,5,START g_bow,Note,43,G2,G,up,0.044958,0.306401,0.543154,0.082817,-1.613000,-1.725000,0.781000,1.168840,-2.554045,-1.680546,-0.936040,2.383277,4.043376,0.000000,0.000000,0.000000,0.000000,0.000000,0.000000
826.050000,0.712000,5,START g_bow,Note,43,G2,G,up,0.036958,0.306292,0.542668,0.082780,-1.613000,-1.725000,0.781000,1.168696,-2.553592,-1.682026,-0.935149,2.383213,4.043188,0.000000,0.000000,0.000000,0.000000,0.000000,0.000000
826.058000,0.720000,5,START g_bow,Note,43,G2,G,up,0.028958,0.306190,0.542213,0.082745,-1.613000,-1.725000,0.781000,1.168561,-2.553168,-1.683414,-0.934314,2.383153,4.043012,0.000000,0.000000,0.000000,0.000000,0.000000,0.000000
826.066000,0.728000,5,START g_bow,Note,43,G2,G,up,0.020958,0.306094,0.541787,0.082713,-1.613000,-1.725000,0.781000,1.168434,-2.552773,-1.684708,-0.933534,2.383097,4.042847,0.000000,0.000000,0.000000,0.000000,0.000000,0.000000
826.074000,0.736000,5,START g_bow,Note,43,G2,G,up,0.012958,0.306006,0.541392,0.082683,-1.613000,-1.725000,0.781000,1.168317,-2.552407,-1.685910,-0.932810,2.383045,4.042693,0.000000,0.000000,0.000000,0.000000,0.000000,0.000000
826.082000,0.744000,5,START g_bow,Note,43,G2,G,up,0.004958,0.305924,0.541026,0.082655,-1.613000,-1.725000,0.781000,1.168208,-2.552069,-1.687020,-0.932141,2.382997,4.042551,0.000000,0.000000,0.000000,0.000000,0.000000,0.000000
826.090000,0.752000,5,START g_bow,Note,45,A2,G,up,0.246958,0.305848,0.540691,0.082629,-1.613000,-1.725000,0.781000,1.168108,-2.551759,-1.688038,-0.931528,2.382953,4.042421,0.000000,0.000000,0.000000,0.000000,0.000000,0.000000
826.098000,0.760000,5,START g_bow,Note,45,A2,G,up,0.238958,0.305780,0.540386,0.082606,-1.613000,-1.725000,0.781000,1.168016,-2.551478,-1.688963,-0.930970,2.382912,4.042302,0.000000,0.000000,0.000000,0.000000,0.000000,0.000000
826.106000,0.768000,5,START g_bow,Note,45,A2,G,up,0.230958,0.305718,0.540111,0.082585,-1.613000,-1.725000,0.781000,1.167934,-2.551225,-1.689797,-0.930467,2.382876,4.042195,0.000000,0.000000,0.000000,0.000000,0.000000,0.000000
826.114000,0.776000,5,START g_bow,Note,45,A2,G,up,0.222958,0.305663,0.539866,0.082566,-1.613000,-1.725000,0.781000,1.167861,-2.551000,-1.690539,-0.930019,2.382843,4.042100,0.000000,0.000000,0.000000,0.000000,0.000000,0.000000
826.122000,0.784000,5,START g_bow,Note,45,A2,G,up,0.214958,0.305615,0.539651,0.082550,-1.613000,-1.725000,0.781000,1.167797,-2.550802,-1.691190,-0.929626,2.382815,4.042016,0.000000,0.000000,0.000000,0.000000,0.000000,0.000000
826.130000,0.792000,5,START g_bow,Note,45,A2,G,up,0.206958,0.305574,0.539467,0.082536,-1.613000,-1.725000,0.781000,1.167741,-2.550633,-1.691749,-0.929289,2.382790,4.041944,0.000000,0.000000,0.000000,0.000000,0.000000,0.000000
826.138000,0.800000,5,START g_bow,Note,45,A2,G,up,0.198958,0.305539,0.539312,0.082524,-1.613000,-1.725000,0.781000,1.167695,-2.550491,-1.692217,-0.929007,2.382770,4.041884,0.000000,0.000000,0.000000,0.000000,0.000000,0.000000
826.146000,0.808000,5,START g_bow,Note,45,A2,G,up,0.190958,0.305511,0.539188,0.082514,-1.613000,-1.725000,0.781000,1.167658,-2.550377,-1.692593,-0.928780,2.382753,4.041835,0.000000,0.000000,0.000000,0.000000,0.000000,0.000000
826.154000,0.816000,5,START g_bow,Note,45,A2,G,up,0.182958,0.305490,0.539094,0.082507,-1.613000,-1.725000,0.781000,1.167630,-2.550291,-1.692878,-0.928608,2.382741,4.041798,0.000000,0.000000,0.000000,0.000000,0.000000,0.000000
826.162000,0.824000,5,START g_bow,Note,45,A2,G,up,0.174958,0.305476,0.539030,0.082502,-1.613000,-1.725000,0.781000,1.167610,-2.550233,-1.693072,-0.928491,2.382732,4.041773,0.000000,0.000000,0.000000,0.000000,0.000000,0.000000
826.170000,0.832000,5,START g_bow,Note,45,A2,G,up,0.166958,0.305468,0.538996,0.082500,-1.613000,-1.725000,0.781000,1.167600,-2.550201,-1.693174,-0.928429,2.382728,4.041760,0.000000,0.000000,0.000000,0.000000,0.000000,0.000000
826.178000,0.840000,6,END g_bow,Note,45,A2,G,up,0.158958,0.305467,0.538990,0.082499,-1.613000,-1.725000,0.781000,1.167598,-2.550196,-1.693192,-0.928418,2.382727,4.041758,0.000000,0.000000,0.000000,0.000000,0.000000,0.000000
826.186000,0.848000,6,END g_bow,Note,45,A2,G,up,0.150958,0.305467,0.538990,0.082499,-1.613000,-1.725000,0.781000,1.167598,-2.550196,-1.693192,-0.928418,2.382727,4.041758,0.000000,0.000000,0.000000,0.000000,0.000000,0.000000
826.194000,0.856000,6,END g_bow,Note,45,A2,G,up,0.142958,0.305467,0.538990,0.082499,-1.613000,-1.725000,0.781000,1.167598,-2.550196,-1.693192,-0.928418,2.382727,4.041758,0.000000,0.000000,0.000000,0.000000,0.000000,0.000000
826.202000,0.864000,6,END g_bow,Note,45,A2,G,up,0.134958,0.305467,0.538990,0.082499,-1.613000,-1.725000,0.781000,1.167598,-2.550196,-1.693192,-0.928418,2.382727,4.041758,0.000000,0.000000,0.000000,0.000000,0.000000,0.000000
826.210000,0.872000,5,START g_bow,Note,47,B2,G,down,0.626958,0.305469,0.539001,0.082500,-1.613000,-1.725000,0.781000,1.167602,-2.550206,-1.693159,-0.928438,2.382728,4.041762,0.000000,0.000000,0.000000,0.000000,0.000000,0.000000
826.218000,0.880000,5,START g_bow,Note,47,B2,G,down,0.618958,0.305478,0.539040,0.082503,-1.613000,-1.725000,0.781000,1.167614,-2.550242,-1.693040,-0.928510,2.382734,4.041777,0.000000,0.000000,0.000000,0.000000,0.000000,0.000000
826.226000,0.888000,5,START g_bow,Note,47,B2,G,down,0.610958,0.305493,0.539108,0.082508,-1.613000,-1.725000,0.781000,1.167634,-2.550304,-1.692836,-0.928633,2.382743,4.041804,0.000000,0.000000,0.000000,0.000000,0.000000,0.000000
826.234000,0.896000,5,START g_bow,Note,47,B2,G,down,0.602958,0.305515,0.539204,0.082515,-1.613000,-1.725000,0.781000,1.167663,-2.550392,-1.692544,-0.928809,2.382755,4.041841,0.000000,0.000000,0.000000,0.000000,0.000000,0.000000
826.242000,0.904000,5,START g_bow,Note,47,B2,G,down,0.594958,0.305543,0.539329,0.082525,-1.613000,-1.725000,0.781000,1.167700,-2.550506,-1.692167,-0.929037,2.382772,4.041890,0.000000,0.000000,0.000000,0.000000,0.000000,0.000000
826.250000,0.912000,5,START g_bow,Note,47,B2,G,down,0.586958,0.305577,0.539482,0.082537,-1.613000,-1.725000,0.781000,1.167746,-2.550647,-1.691703,-0.929317,2.382792,4.041950,0.000000,0.000000,0.000000,0.000000,0.000000,0.000000
826.258000,0.920000,5,START g_bow,Note,47,B2,G,down,0.578958,0.305618,0.539664,0.082551,-1.613000,-1.725000,0.781000,1.167800,-2.550814,-1.691153,-0.929649,2.382816,4.042021,0.000000,0.000000,0.000000,0.000000,0.000000,0.000000
826.266000,0.928000,5,START g_bow,Note,47,B2,G,down,0.570958,0.305665,0.539874,0.082567,-1.613000,-1.725000,0.781000,1.167863,-2.551007,-1.690516,-0.930033,2.382844,4.042103,0.000000,0.000000,0.000000,0.000000,0.000000,0.000000
826.274000,0.936000,5,START g_bow,Note,47,B2,G,down,0.562958,0.305719,0.540113,0.082585,-1.613000,-1.725000,0.781000,1.167935,-2.551226,-1.689792,-0.930470,2.382876,4.042196,0.000000,0.000000,0.000000,0.000000,0.000000,0.000000
826.282000,0.944000,5,START g_bow,Note,47,B2,G,down,0.554958,0.305779,0.540380,0.082605,-1.613000,-1.725000,0.781000,1.168015,-2.551472,-1.688982,-0.930958,2.382911,4.042300,0.000000,0.000000,0.000000,0.000000,0.000000,0.000000
826.290000,0.952000,5,START g_bow,Note,47,B2,G,down,0.546958,0.305845,0.540675,0.082628,-1.613000,-1.725000,0.781000,1.168103,-2.551745,-1.688085,-0.931499,2.382950,4.042415,0.000000,0.000000,0.000000,0.000000,0.000000,0.000000
826.298000,0.960000,5,START g_bow,Note,47,B2,G,down,0.538958,0.305918,0.541000,0.082653,-1.613000,-1.725000,0.781000,1.168200,-2.552044,-1.687100,-0.932093,2.382993,4.042541,0.000000,0.000000,0.000000,0.000000,0.000000,0.000000
826.306000,0.968000,5,START g_bow,Note,47,B2,G,down,0.530958,0.305997,0.541352,0.082680,-1.613000,-1.725000,0.781000,1.168305,-2.552371,-1.686029,-0.932738,2.383040,4.042678,0.000000,0.000000,0.000000,0.000000,0.000000,0.000000
826.314000,0.976000,5,START g_bow,Note,47,B2,G,down,0.522958,0.306082,0.541734,0.082709,-1.613000,-1.725000,0.781000,1.168418,-2.552724,-1.684871,-0.933437,2.383090,4.042826,0.000000,0.000000,0.000000,0.000000,0.000000,0.000000
826.322000,0.984000,5,START g_bow,Note,47,B2,G,down,0.514958,0.306174,0.542143,0.082740,-1.613000,-1.725000,0.781000,1.168540,-2.553104,-1.683625,-0.934187,2.383144,4.042985,0.000000,0.000000,0.000000,0.000000,0.000000,0.000000
826.330000,0.992000,5,START g_bow,Note,47,B2,G,down,0.506958,0.306273,0.542582,0.082774,-1.613000,-1.725000,0.781000,1.168670,-2.553511,-1.682291,-0.934990,2.383202,4.043155,0.000000,0.000000,0.000000,0.000000,0.000000,0.000000
826.338000,1.000000,5,START g_bow,Note,47,B2,G,down,0.498958,0.306377,0.543048,0.082809,-1.613000,-1.725000,0.781000,1.168809,-2.553946,-1.680869,-0.935846,2.383263,4.043335,0.000000,0.000000,0.000000,0.000000,0.000000,0.000000
826.346000,1.008000,5,START g_bow,Note,47,B2,G,down,0.490958,0.306489,0.543543,0.082847,-1.613000,-1.725000,0.781000,1.168955,-2.554408,-1.679360,-0.936754,2.383328,4.043526,0.000000,0.000000,0.000000,0.000000,0.000000,0.000000
826.354000,1.016000,5,START g_bow,Note,47,B2,G,down,0.482958,0.306606,0.544067,0.082887,-1.613000,-1.725000,0.781000,1.169110,-2.554898,-1.677762,-0.937716,2.383396,4.043728,0.000000,0.000000,0.000000,0.000000,0.000000,0.000000
826.362000,1.024000,5,START g_bow,Note,47,B2,G,down,0.474958,0.306730,0.544619,0.082929,-1.613000,-1.725000,0.781000,1.169273,-2.555416,-1.676076,-0.938730,2.383468,4.043941,0.000000,0.000000,0.000000,0.000000,0.000000,0.000000
826.370000,1.032000,5,START g_bow,Note,47,B2,G,down,0.466958,0.306860,0.545200,0.082974,-1.613000,-1.725000,0.781000,1.169444,-2.555962,-1.674301,-0.939797,2.383544,4.044164,0.000000,0.000000,0.000000,0.000000,0.000000,0.000000
826.378000,1.040000,5,START g_bow,Note,47,B2,G,down,0.458958,0.306997,0.545809,0.083020,-1.613000,-1.725000,0.781000,1.169623,-2.556536,-1.672437,-0.940917,2.383623,4.044398,0.000000,0.000000,0.000000,0.000000,0.000000,0.000000
826.386000,1.048000,5,START g_bow,Note,47,B2,G,down,0.450958,0.307140,0.546447,0.083069,-1.613000,-1.725000,0.781000,1.169810,-2.557139,-1.670483,-0.942090,2.383706,4.044642,0.000000,0.000000,0.000000,0.000000,0.000000,0.000000
826.394000,1.056000,5,START g_bow,Note,47,B2,G,down,0.442958,0.307290,0.547113,0.083120,-1.613000,-1.725000,0.781000,1.170005,-2.557771,-1.668440,-0.943316,2.383792,4.044897,0.000000,0.000000,0.000000,0.000000,0.000000,0.000000
826.402000,1.064000,5,START g_bow,Note,47,B2,G,down,0.434958,0.307446,0.547808,0.083173,-1.613000,-1.725000,0.781000,1.170208,-2.558431,-1.666308,-0.944596,2.383881,4.045162,0.000000,0.000000,0.000000,0.000000,0.000000,0.000000
826.410000,1.072000,5,START g_bow,Note,47,B2,G,down,0.426958,0.307608,0.548531,0.083228,-1.613000,-1.725000,0.781000,1.170419,-2.559121,-1.664084,-0.945929,2.383974,4.045437,0.000000,0.000000,0.000000,0.000000,0.000000,0.000000
826.418000,1.080000,5,START g_bow,Note,47,B2,G,down,0.418958,0.307777,0.549283,0.083286,-1.613000,-1.725000,0.781000,1.170638,-2.559841,-1.661771,-0.947316,2.384071,4.045723,0.000000,0.000000,0.000000,0.000000,0.000000,0.000000
826.426000,1.088000,5,START g_bow,Note,47,B2,G,down,0.410958,0.307952,0.550063,0.083346,-1.613000,-1.725000,0.781000,1.170864,-2.560590,-1.659366,-0.948756,2.384171,4.046018,0.000000,0.000000,0.000000,0.000000,0.000000,0.000000
826.434000,1.096000,5,START g_bow,Note,47,B2,G,down,0.402958,0.308133,0.550872,0.083407,-1.613000,-1.725000,0.781000,1.171098,-2.561369,-1.656871,-0.950251,2.384274,4.046324,0.000000,0.000000,0.000000,0.000000,0.000000,0.000000
826.442000,1.104000,5,START g_bow,Note,47,B2,G,down,0.394958,0.308321,0.551709,0.083471,-1.613000,-1.725000,0.781000,1.171340,-2.562178,-1.654283,-0.951799,2.384380,4.046640,0.000000,0.000000,0.000000,0.000000,0.000000,0.000000
826.450000,1.112000,5,START g_bow,Note,47,B2,G,down,0.386958,0.308516,0.552575,0.083537,-1.613000,-1.725000,0.781000,1.171589,-2.563019,-1.651604,-0.953402,2.384490,4.046966,0.000000,0.000000,0.000000,0.000000,0.000000,0.000000
826.458000,1.120000,5,START g_bow,Note,47,B2,G,down,0.378958,0.308713,0.553453,0.083605,-1.613000,-1.725000,0.781000,1.171842,-2.563874,-1.648881,-0.955029,2.384601,4.047296,0.000000,0.000000,0.000000,0.000000,0.000000,0.000000
826.466000,1.128000,5,START g_bow,Note,47,B2,G,down,0.370958,0.308904,0.554305,0.083670,-1.613000,-1.725000,0.781000,1.172085,-2.564707,-1.646238,-0.956608,2.384708,4.047615,0.000000,0.000000,0.000000,0.000000,0.000000,0.000000
826.474000,1.136000,5,START g_bow,Note,47,B2,G,down,0.362958,0.309088,0.555128,0.083733,-1.613000,-1.725000,0.781000,1.172320,-2.565514,-1.643679,-0.958135,2.384811,4.047922,0.000000,0.000000,0.000000,0.000000,0.000000,0.000000
826.482000,1.144000,5,START g_bow,Note,47,B2,G,down,0.354958,0.309267,0.555922,0.083793,-1.613000,-1.725000,0.781000,1.172547,-2.566297,-1.641206,-0.959611,2.384911,4.048218,0.000000,0.000000,0.000000,0.000000,0.000000,0.000000
826.490000,1.152000,5,START g_bow,Note,47,B2,G,down,0.346958,0.309439,0.556688,0.083852,-1.613000,-1.725000,0.781000,1.172764,-2.567054,-1.638817,-0.961035,2.385006,4.048503,0.000000,0.000000,0.000000,0.000000,0.000000,0.000000
826.498000,1.160000,5,START g_bow,Note,47,B2,G,down,0.338958,0.309604,0.557426,0.083908,-1.613000,-1.725000,0.781000,1.172974,-2.567785,-1.636515,-0.962408,2.385098,4.048777,0.000000,0.000000,0.000000,0.000000,0.000000,0.000000
826.506000,1.168000,5,START g_bow,Note,47,B2,G,down,0.330958,0.309763,0.558134,0.083962,-1.613000,-1.725000,0.781000,1.173174,-2.568489,-1.634299,-0.963728,2.385186,4.049040,0.000000,0.000000,0.000000,0.000000,0.000000,0.000000
826.514000,1.176000,5,START g_bow,Note,47,B2,G,down,0.322958,0.309916,0.558815,0.084014,-1.613000,-1.725000,0.781000,1.173366,-2.569168,-1.632169,-0.964996,2.385270,4.049291,0.000000,0.000000,0.000000,0.000000,0.000000,0.000000
826.522000,1.184000,5,START g_bow,Note,47,B2,G,down,0.314958,0.310062,0.559467,0.084064,-1.613000,-1.725000,0.781000,1.173550,-2.569820,-1.630126,-0.966212,2.385351,4.049532,0.000000,0.000000,0.000000,0.000000,0.000000,0.000000
826.530000,1.192000,5,START g_bow,Note,47,B2,G,down,0.306958,0.310202,0.560090,0.084112,-1.613000,-1.725000,0.781000,1.173725,-2.570445,-1.628170,-0.967376,2.385428,4.049761,0.000000,0.000000,0.000000,0.000000,0.000000,0.000000
826.538000,1.200000,5,START g_bow,Note,47,B2,G,down,0.298958,0.310336,0.560685,0.084157,-1.613000,-1.725000,0.781000,1.173892,-2.571044,-1.626302,-0.968487,2.385501,4.049980,0.000000,0.000000,0.000000,0.000000,0.000000,0.000000
826.546000,1.208000,5,START g_bow,Note,47,B2,G,down,0.290958,0.310463,0.561252,0.084201,-1.613000,-1.725000,0.781000,1.174051,-2.571615,-1.624521,-0.969545,2.385570,4.050188,0.000000,0.000000,0.000000,0.000000,0.000000,0.000000
826.554000,1.216000,5,START g_bow,Note,47,B2,G,down,0.282958,0.310584,0.561790,0.084242,-1.613000,-1.725000,0.781000,1.174201,-2.572158,-1.622828,-0.970551,2.385636,4.050385,0.000000,0.000000,0.000000,0.000000,0.000000,0.000000
826.562000,1.224000,5,START g_bow,Note,47,B2,G,down,0.274958,0.310698,0.562299,0.084281,-1.613000,-1.725000,0.781000,1.174344,-2.572674,-1.621223,-0.971505,2.385698,4.050572,0.000000,0.000000,0.000000,0.000000,0.000000,0.000000
826.570000,1.232000,5,START g_bow,Note,47,B2,G,down,0.266958,0.310806,0.562780,0.084318,-1.613000,-1.725000,0.781000,1.174478,-2.573162,-1.619707,-0.972405,2.385757,4.050747,0.000000,0.000000,0.000000,0.000000,0.000000,0.000000
826.578000,1.240000,5,START g_bow,Note,47,B2,G,down,0.258958,0.310908,0.563233,0.084352,-1.613000,-1.725000,0.781000,1.174604,-2.573622,-1.618279,-0.973253,2.385812,4.050912,0.000000,0.000000,0.000000,0.000000,0.000000,0.000000
826.586000,1.248000,5,START g_bow,Note,47,B2,G,down,0.250958,0.311003,0.563657,0.084385,-1.613000,-1.725000,0.781000,1.174721,-2.574054,-1.616940,-0.974047,2.385864,4.051067,0.000000,0.000000,0.000000,0.000000,0.000000,0.000000
826.594000,1.256000,5,START g_bow,Note,47,B2,G,down,0.242958,0.311091,0.564052,0.084415,-1.613000,-1.725000,0.781000,1.174831,-2.574457,-1.615690,-0.974789,2.385912,4.051211,0.000000,0.000000,0.000000,0.000000,0.000000,0.000000
826.602000,1.264000,5,START g_bow,Note,47,B2,G,down,0.234958,0.311174,0.564419,0.084443,-1.613000,-1.725000,0.781000,1.174933,-2.574832,-1.614530,-0.975477,2.385956,4.051344,0.000000,0.000000,0.000000,0.000000,0.000000,0.000000
826.610000,1.272000,5,START g_bow,Note,47,B2,G,down,0.226958,0.311250,0.564758,0.084469,-1.613000,-1.725000,0.781000,1.175027,-2.575178,-1.613459,-0.976112,2.385997,4.051467,0.000000,0.000000,0.000000,0.000000,0.000000,0.000000
826.618000,1.280000,5,START g_bow,Note,47,B2,G,down,0.218958,0.311319,0.565068,0.084492,-1.613000,-1.725000,0.781000,1.175113,-2.575496,-1.612478,-0.976694,2.386035,4.051580,0.000000,0.000000,0.000000,0.000000,0.000000,0.000000
826.626000,1.288000,5,START g_bow,Note,47,B2,G,down,0.210958,0.311383,0.565349,0.084514,-1.613000,-1.725000,0.781000,1.175190,-2.575785,-1.611586,-0.977223,2.386069,4.051682,0.000000,0.000000,0.000000,0.000000,0.000000,0.000000
826.634000,1.296000,5,START g_bow,Note,47,B2,G,down,0.202958,0.311439,0.565602,0.084533,-1.613000,-1.725000,0.781000,1.175260,-2.576045,-1.610784,-0.977698,2.386099,4.051774,0.000000,0.000000,0.000000,0.000000,0.000000,0.000000
826.642000,1.304000,5,START g_bow,Note,47,B2,G,down,0.194958,0.311490,0.565826,0.084550,-1.613000,-1.725000,0.781000,1.175322,-2.576276,-1.610072,-0.978120,2.386126,4.051855,0.000000,0.000000,0.000000,0.000000,0.000000,0.000000
826.650000,1.312000,5,START g_bow,Note,47,B2,G,down,0.186958,0.311534,0.566022,0.084565,-1.613000,-1.725000,0.781000,1.175376,-2.576477,-1.609451,-0.978488,2.386150,4.051926,0.000000,0.000000,0.000000,0.000000,0.000000,0.000000
826.658000,1.320000,5,START g_bow,Note,47,B2,G,down,0.178958,0.311571,0.566190,0.084578,-1.613000,-1.725000,0.781000,1.175422,-2.576650,-1.608920,-0.978803,2.386170,4.051986,0.000000,0.000000,0.000000,0.000000,0.000000,0.000000
826.666000,1.328000,5,START g_bow,Note,47,B2,G,down,0.170958,0.311602,0.566329,0.084589,-1.613000,-1.725000,0.781000,1.175461,-2.576793,-1.608478,-0.979064,2.386187,4.052037,0.000000,0.000000,0.000000,0.000000,0.000000,0.000000
826.674000,1.336000,5,START g_bow,Note,47,B2,G,down,0.162958,0.311627,0.566439,0.084597,-1.613000,-1.725000,0.781000,1.175491,-2.576907,-1.608128,-0.979272,2.386200,4.052077,0.000000,0.000000,0.000000,0.000000,0.000000,0.000000
826.682000,1.344000,5,START g_bow,Note,47,B2,G,down,0.154958,0.311646,0.566521,0.084603,-1.613000,-1.725000,0.781000,1.175514,-2.576991,-1.607868,-0.979426,2.386210,4.052106,0.000000,0.000000,0.000000,0.000000,0.000000,0.000000
826.690000,1.352000,5,START g_bow,Note,47,B2,G,down,0.146958,0.311658,0.566575,0.084608,-1.613000,-1.725000,0.781000,1.175528,-2.577046,-1.607698,-0.979526,2.386216,4.052126,0.000000,0.000000,0.000000,0.000000,0.000000,0.000000
826.698000,1.360000,5,START g_bow,Note,47,B2,G,down,0.138958,0.311663,0.566599,0.084609,-1.613000,-1.725000,0.781000,1.175535,-2.577072,-1.607619,-0.979573,2.386219,4.052135,0.000000,0.000000,0.000000,0.000000,0.000000,0.000000
826.706000,1.368000,6,END g_bow,Note,47,B2,G,down,0.130958,0.311664,0.566601,0.084610,-1.613000,-1.725000,0.781000,1.175536,-2.577074,-1.607612,-0.979577,2.386220,4.052135,0.000000,0.000000,0.000000,0.000000,0.000000,0.000000
826.714000,1.376000,6,END g_bow,Note,47,B2,G,down,0.122958,0.311664,0.566601,0.084610,-1.613000,-1.725000,0.781000,1.175536,-2.577074,-1.607612,-0.979577,2.386220,4.052135,0.000000,0.000000,0.000000,0.000000,0.000000,0.000000
826.722000,1.384000,6,END g_bow,Note,47,B2,G,down,0.114958,0.311664,0.566601,0.084610,-1.613000,-1.725000,0.781000,1.175536,-2.577074,-1.607612,-0.979577,2.386220,4.052135,0.000000,0.000000,0.000000,0.000000,0.000000,0.000000
826.730000,1.392000,5,START g_bow,Note,47,B2,G,up,0.356958,0.311664,0.566601,0.084610,-1.613000,-1.725000,0.781000,1.175536,-2.577074,-1.607613,-0.979577,2.386220,4.052135,0.000000,0.000000,0.000000,0.000000,0.000000,0.000000
826.738000,1.400000,5,START g_bow,Note,47,B2,G,up,0.348958,0.311660,0.566583,0.084608,-1.613000,-1.725000,0.781000,1.175531,-2.577056,-1.607670,-0.979543,2.386218,4.052129,0.000000,0.000000,0.000000,0.000000,0.000000,0.000000
826.746000,1.408000,5,START g_bow,Note,47,B2,G,up,0.340958,0.311649,0.566537,0.084605,-1.613000,-1.725000,0.781000,1.175518,-2.577008,-1.607817,-0.979456,2.386212,4.052112,0.000000,0.000000,0.000000,0.000000,0.000000,0.000000
826.754000,1.416000,5,START g_bow,Note,47,B2,G,up,0.332958,0.311632,0.566462,0.084599,-1.613000,-1.725000,0.781000,1.175498,-2.576931,-1.608054,-0.979315,2.386203,4.052085,0.000000,0.000000,0.000000,0.000000,0.000000,0.000000
826.762000,1.424000,5,START g_bow,Note,47,B2,G,up,0.324958,0.311609,0.566359,0.084591,-1.613000,-1.725000,0.781000,1.175469,-2.576824,-1.608382,-0.979121,2.386191,4.052048,0.000000,0.000000,0.000000,0.000000,0.000000,0.000000
826.770000,1.432000,5,START g_bow,Note,47,B2,G,up,0.316958,0.311580,0.566227,0.084581,-1.613000,-1.725000,0.781000,1.175433,-2.576688,-1.608801,-0.978873,2.386175,4.052000,0.000000,0.000000,0.000000,0.000000,0.000000,0.000000
826.778000,1.440000,5,START g_bow,Note,47,B2,G,up,0.308958,0.311544,0.566067,0.084569,-1.613000,-1.725000,0.781000,1.175389,-2.576523,-1.609310,-0.978572,2.386155,4.051942,0.000000,0.000000,0.000000,0.000000,0.000000,0.000000
826.786000,1.448000,5,START g_bow,Note,47,B2,G,up,0.300958,0.311501,0.565878,0.084554,-1.613000,-1.725000,0.781000,1.175337,-2.576329,-1.609909,-0.978217,2.386133,4.051874,0.000000,0.000000,0.000000,0.000000,0.000000,0.000000
826.794000,1.456000,5,START g_bow,Note,47,B2,G,up,0.292958,0.311452,0.565661,0.084538,-1.613000,-1.725000,0.781000,1.175277,-2.576105,-1.610598,-0.977808,2.386106,4.051795,0.000000,0.000000,0.000000,0.000000,0.000000,0.000000
826.802000,1.464000,5,START g_bow,Note,47,B2,G,up,0.284958,0.311397,0.565415,0.084519,-1.613000,-1.725000,0.781000,1.175209,-2.575853,-1.611377,-0.977347,2.386077,4.051706,0.000000,0.000000,0.000000,0.000000,0.000000,0.000000
826.810000,1.472000,5,START g_bow,Note,47,B2,G,up,0.276958,0.311336,0.565141,0.084498,-1.613000,-1.725000,0.781000,1.175133,-2.575571,-1.612246,-0.976831,2.386044,4.051606,0.000000,0.000000,0.000000,0.000000,0.000000,0.000000
826.818000,1.480000,5,START g_bow,Note,47,B2,G,up,0.268958,0.311268,0.564838,0.084475,-1.613000,-1.725000,0.781000,1.175049,-2.575261,-1.613205,-0.976263,2.386007,4.051497,0.000000,0.000000,0.000000,0.000000,0.000000,0.000000
826.826000,1.488000,5,START g_bow,Note,47,B2,G,up,0.260958,0.311193,0.564506,0.084449,-1.613000,-1.725000,0.781000,1.174957,-2.574921,-1.614254,-0.975641,2.385967,4.051376,0.000000,0.000000,0.000000,0.000000,0.000000,0.000000
826.834000,1.496000,5,START g_bow,Note,47,B2,G,up,0.252958,0.311113,0.564147,0.084422,-1.613000,-1.725000,0.781000,1.174857,-2.574554,-1.615392,-0.974966,2.385923,4.051245,0.000000,0.000000,0.000000,0.000000,0.000000,0.000000
826.842000,1.504000,5,START g_bow,Note,47,B2,G,up,0.244958,0.311025,0.563758,0.084392,-1.613000,-1.725000,0.781000,1.174750,-2.574157,-1.616619,-0.974238,2.385876,4.051104,0.000000,0.000000,0.000000,0.000000,0.000000,0.000000
826.850000,1.512000,5,START g_bow,Note,47,B2,G,up,0.236958,0.310932,0.563341,0.084360,-1.613000,-1.725000,0.781000,1.174634,-2.573732,-1.617936,-0.973456,2.385825,4.050952,0.000000,0.000000,0.000000,0.000000,0.000000,0.000000
826.858000,1.520000,5,START g_bow,Note,47,B2,G,up,0.228958,0.310832,0.562896,0.084326,-1.613000,-1.725000,0.781000,1.174510,-2.573279,-1.619341,-0.972622,2.385771,4.050790,0.000000,0.000000,0.000000,0.000000,0.000000,0.000000
826.866000,1.528000,5,START g_bow,Note,47,B2,G,up,0.220958,0.310726,0.562422,0.084290,-1.613000,-1.725000,0.781000,1.174378,-2.572798,-1.620836,-0.971735,2.385713,4.050617,0.000000,0.000000,0.000000,0.000000,0.000000,0.000000
826.874000,1.536000,5,START g_bow,Note,47,B2,G,up,0.212958,0.310613,0.561920,0.084252,-1.613000,-1.725000,0.781000,1.174238,-2.572290,-1.622418,-0.970795,2.385652,4.050433,0.000000,0.000000,0.000000,0.000000,0.000000,0.000000
826.882000,1.544000,5,START g_bow,Note,47,B2,G,up,0.204958,0.310494,0.561389,0.084211,-1.613000,-1.725000,0.781000,1.174089,-2.571753,-1.624089,-0.969802,2.385587,4.050238,0.000000,0.000000,0.000000,0.000000,0.000000,0.000000
826.890000,1.552000,5,START g_bow,Note,47,B2,G,up,0.196958,0.310368,0.560830,0.084168,-1.613000,-1.725000,0.781000,1.173933,-2.571189,-1.625848,-0.968756,2.385519,4.050033,0.000000,0.000000,0.000000,0.000000,0.000000,0.000000
826.898000,1.560000,5,START g_bow,Note,47,B2,G,up,0.188958,0.310236,0.560242,0.084124,-1.613000,-1.725000,0.781000,1.173768,-2.570597,-1.627695,-0.967658,2.385446,4.049817,0.000000,0.000000,0.000000,0.000000,0.000000,0.000000
826.906000,1.568000,5,START g_bow,Note,47,B2,G,up,0.180958,0.310098,0.559625,0.084076,-1.613000,-1.725000,0.781000,1.173595,-2.569979,-1.629629,-0.966508,2.385370,4.049590,0.000000,0.000000,0.000000,0.000000,0.000000,0.000000
826.914000,1.576000,5,START g_bow,Note,47,B2,G,up,0.172958,0.309953,0.558981,0.084027,-1.613000,-1.725000,0.781000,1.173413,-2.569334,-1.631650,-0.965305,2.385291,4.049352,0.000000,0.000000,0.000000,0.000000,0.000000,0.000000
826.922000,1.584000,5,START g_bow,Note,47,B2,G,up,0.164958,0.309802,0.558307,0.083976,-1.613000,-1.725000,0.781000,1.173223,-2.568662,-1.633758,-0.964050,2.385207,4.049103,0.000000,0.000000,0.000000,0.000000,0.000000,0.000000
826.930000,1.592000,5,START g_bow,Note,47,B2,G,up,0.156958,0.309645,0.557605,0.083922,-1.613000,-1.725000,0.781000,1.173025,-2.567963,-1.635953,-0.962743,2.385120,4.048844,0.000000,0.000000,0.000000,0.000000,0.000000,0.000000
826.938000,1.600000,5,START g_bow,Note,47,B2,G,up,0.148958,0.309481,0.556875,0.083866,-1.613000,-1.725000,0.781000,1.172818,-2.567239,-1.638234,-0.961383,2.385030,4.048573,0.000000,0.000000,0.000000,0.000000,0.000000,0.000000
826.946000,1.608000,5,START g_bow,Note,47,B2,G,up,0.140958,0.309310,0.556116,0.083808,-1.613000,-1.725000,0.781000,1.172602,-2.566488,-1.640601,-0.959972,2.384935,4.048291,0.000000,0.000000,0.000000,0.000000,0.000000,0.000000
826.954000,1.616000,5,START g_bow,Note,47,B2,G,up,0.132958,0.309134,0.555329,0.083748,-1.613000,-1.725000,0.781000,1.172378,-2.565712,-1.643053,-0.958509,2.384836,4.047997,0.000000,0.000000,0.000000,0.000000,0.000000,0.000000
826.962000,1.624000,5,START g_bow,Note,47,B2,G,up,0.124958,0.308951,0.554513,0.083686,-1.613000,-1.725000,0.781000,1.172145,-2.564911,-1.645590,-0.956994,2.384734,4.047693,0.000000,0.000000,0.000000,0.000000,0.000000,0.000000
826.970000,1.632000,5,START g_bow,Note,47,B2,G,up,0.116958,0.308761,0.553669,0.083621,-1.613000,-1.725000,0.781000,1.171903,-2.564085,-1.648213,-0.955428,2.384628,4.047376,0.000000,0.000000,0.000000,0.000000,0.000000,0.000000
826.978000,1.640000,5,START g_bow,Note,47,B2,G,up,0.108958,0.308565,0.552796,0.083554,-1.613000,-1.725000,0.781000,1.171653,-2.563233,-1.650919,-0.953811,2.384518,4.047049,0.000000,0.000000,0.000000,0.000000,0.000000,0.000000
826.986000,1.648000,5,START g_bow,Note,47,B2,G,up,0.100958,0.308369,0.551923,0.083488,-1.613000,-1.725000,0.781000,1.171402,-2.562386,-1.653622,-0.952195,2.384407,4.046721,0.000000,0.000000,0.000000,0.000000,0.000000,0.000000
826.994000,1.656000,5,START g_bow,Note,47,B2,G,up,0.092958,0.308180,0.551079,0.083423,-1.613000,-1.725000,0.781000,1.171158,-2.561568,-1.656232,-0.950633,2.384300,4.046402,0.000000,0.000000,0.000000,0.000000,0.000000,0.000000
827.002000,1.664000,5,START g_bow,Note,47,B2,G,up,0.084958,0.307997,0.550263,0.083361,-1.613000,-1.725000,0.781000,1.170922,-2.560782,-1.658751,-0.949125,2.384196,4.046094,0.000000,0.000000,0.000000,0.000000,0.000000,0.000000
827.010000,1.672000,5,START g_bow,Note,47,B2,G,up,0.076958,0.307820,0.549475,0.083301,-1.613000,-1.725000,0.781000,1.170694,-2.560025,-1.661178,-0.947671,2.384095,4.045796,0.000000,0.000000,0.000000,0.000000,0.000000,0.000000
827.018000,1.680000,5,START g_bow,Note,47,B2,G,up,0.068958,0.307650,0.548716,0.083243,-1.613000,-1.725000,0.781000,1.170473,-2.559298,-1.663515,-0.946271,2.383998,4.045507,0.000000,0.000000,0.000000,0.000000,0.000000,0.000000
827.026000,1.688000,5,START g_bow,Note,47,B2,G,up,0.060958,0.307486,0.547986,0.083187,-1.613000,-1.725000,0.781000,1.170260,-2.558601,-1.665760,-0.944924,2.383904,4.045229,0.000000,0.000000,0.000000,0.000000,0.000000,0.000000
827.034000,1.696000,5,START g_bow,Note,47,B2,G,up,0.052958,0.307328,0.547284,0.083133,-1.613000,-1.725000,0.781000,1.170055,-2.557933,-1.667916,-0.943631,2.383814,4.044962,0.000000,0.000000,0.000000,0.000000,0.000000,0.000000
827.042000,1.704000,5,START g_bow,Note,47,B2,G,up,0.044958,0.307177,0.546611,0.083082,-1.613000,-1.725000,0.781000,1.169858,-2.557294,-1.669981,-0.942391,2.383727,4.044705,0.000000,0.000000,0.000000,0.000000,0.000000,0.000000
827.050000,1.712000,5,START g_bow,Note,47,B2,G,up,0.036958,0.307032,0.545966,0.083032,-1.613000,-1.725000,0.781000,1.169669,-2.556684,-1.671957,-0.941205,2.383643,4.044458,0.000000,0.000000,0.000000,0.000000,0.000000,0.000000
827.058000,1.720000,5,START g_bow,Note,47,B2,G,up,0.028958,0.306894,0.545350,0.082985,-1.613000,-1.725000,0.781000,1.169488,-2.556103,-1.673843,-0.940072,2.383563,4.044221,0.000000,0.000000,0.000000,0.000000,0.000000,0.000000
827.066000,1.728000,5,START g_bow,Note,47,B2,G,up,0.020958,0.306762,0.544762,0.082940,-1.613000,-1.725000,0.781000,1.169315,-2.555550,-1.675640,-0.938991,2.383487,4.043996,0.000000,0.000000,0.000000,0.000000,0.000000,0.000000
827.074000,1.736000,5,START g_bow,Note,47,B2,G,up,0.012958,0.306637,0.544203,0.082898,-1.613000,-1.725000,0.781000,1.169150,-2.555025,-1.677349,-0.937964,2.383414,4.043780,0.000000,0.000000,0.000000,0.000000,0.000000,0.000000
827.082000,1.744000,5,START g_bow,Note,47,B2,G,up,0.004958,0.306517,0.543672,0.082857,-1.613000,-1.725000,0.781000,1.168993,-2.554528,-1.678969,-0.936990,2.383345,4.043576,0.000000,0.000000,0.000000,0.000000,0.000000,0.000000
827.090000,1.752000,5,START g_bow,Note,48,C3,G,up,0.246958,0.306405,0.543169,0.082819,-1.613000,-1.725000,0.781000,1.168845,-2.554059,-1.680500,-0.936068,2.383279,4.043382,0.000000,0.000000,0.000000,0.000000,0.000000,0.000000
827.098000,1.760000,5,START g_bow,Note,48,C3,G,up,0.238958,0.306298,0.542696,0.082782,-1.613000,-1.725000,0.781000,1.168704,-2.553617,-1.681944,-0.935199,2.383217,4.043199,0.000000,0.000000,0.000000,0.000000,0.000000,0.000000
827.106000,1.768000,5,START g_bow,Note,48,C3,G,up,0.230958,0.306198,0.542250,0.082748,-1.613000,-1.725000,0.781000,1.168572,-2.553203,-1.683299,-0.934383,2.383158,4.043026,0.000000,0.000000,0.000000,0.000000,0.000000,0.000000
827.114000,1.776000,5,START g_bow,Note,48,C3,G,up,0.222958,0.306105,0.541833,0.082716,-1.613000,-1.725000,0.781000,1.168448,-2.552816,-1.684567,-0.933619,2.383103,4.042865,0.000000,0.000000,0.000000,0.000000,0.000000,0.000000
827.122000,1.784000,5,START g_bow,Note,48,C3,G,up,0.214958,0.306018,0.541445,0.082687,-1.613000,-1.725000,0.781000,1.168332,-2.552456,-1.685748,-0.932908,2.383052,4.042714,0.000000,0.000000,0.000000,0.000000,0.000000,0.000000
827.130000,1.792000,5,START g_bow,Note,48,C3,G,up,0.206958,0.305937,0.541085,0.082659,-1.613000,-1.725000,0.781000,1.168225,-2.552123,-1.686841,-0.932249,2.383005,4.042574,0.000000,0.000000,0.000000,0.000000,0.000000,0.000000
827.138000,1.800000,5,START g_bow,Note,48,C3,G,up,0.198958,0.305863,0.540754,0.082634,-1.613000,-1.725000,0.781000,1.168126,-2.551817,-1.687847,-0.931643,2.382961,4.042446,0.000000,0.000000,0.000000,0.000000,0.000000,0.000000
827.146000,1.808000,5,START g_bow,Note,48,C3,G,up,0.190958,0.305795,0.540451,0.082611,-1.613000,-1.725000,0.781000,1.168036,-2.551538,-1.688766,-0.931089,2.382921,4.042328,0.000000,0.000000,0.000000,0.000000,0.000000,0.000000
827.154000,1.816000,5,START g_bow,Note,48,C3,G,up,0.182958,0.305733,0.540177,0.082590,-1.613000,-1.725000,0.781000,1.167954,-2.551285,-1.689598,-0.930587,2.382884,4.042221,0.000000,0.000000,0.000000,0.000000,0.000000,0.000000
827.162000,1.824000,5,START g_bow,Note,48,C3,G,up,0.174958,0.305678,0.539931,0.082571,-1.613000,-1.725000,0.781000,1.167880,-2.551059,-1.690343,-0.930137,2.382852,4.042125,0.000000,0.000000,0.000000,0.000000,0.000000,0.000000
827.170000,1.832000,5,START g_bow,Note,48,C3,G,up,0.166958,0.305629,0.539714,0.082554,-1.613000,-1.725000,0.781000,1.167815,-2.550860,-1.691001,-0.929740,2.382823,4.042040,0.000000,0.000000,0.000000,0.000000,0.000000,0.000000
827.178000,1.840000,5,START g_bow,Note,48,C3,G,up,0.158958,0.305587,0.539525,0.082540,-1.613000,-1.725000,0.781000,1.167759,-2.550686,-1.691573,-0.929395,2.382798,4.041967,0.000000,0.000000,0.000000,0.000000,0.000000,0.000000
827.186000,1.848000,5,START g_bow,Note,48,C3,G,up,0.150958,0.305551,0.539364,0.082528,-1.613000,-1.725000,0.781000,1.167711,-2.550539,-1.692059,-0.929102,2.382777,4.041904,0.000000,0.000000,0.000000,0.000000,0.000000,0.000000
827.194000,1.856000,5,START g_bow,Note,48,C3,G,up,0.142958,0.305521,0.539233,0.082518,-1.613000,-1.725000,0.781000,1.167671,-2.550418,-1.692458,-0.928861,2.382759,4.041853,0.000000,0.000000,0.000000,0.000000,0.000000,0.000000
827.202000,1.864000,5,START g_bow,Note,48,C3,G,up,0.134958,0.305498,0.539129,0.082510,-1.613000,-1.725000,0.781000,1.167640,-2.550324,-1.692771,-0.928672,2.382745,4.041812,0.000000,0.000000,0.000000,0.000000,0.000000,0.000000
827.210000,1.872000,5,START g_bow,Note,48,C3,G,up,0.126958,0.305481,0.539054,0.082504,-1.613000,-1.725000,0.781000,1.167618,-2.550255,-1.692997,-0.928536,2.382735,4.041783,0.000000,0.000000,0.000000,0.000000,0.000000,0.000000
827.218000,1.880000,5,START g_bow,Note,48,C3,G,up,0.118958,0.305471,0.539008,0.082500,-1.613000,-1.725000,0.781000,1.167604,-2.550213,-1.693137,-0.928451,2.382729,4.041765,0.000000,0.000000,0.000000,0.000000,0.000000,0.000000
827.226000,1.888000,5,START g_bow,Note,48,C3,G,up,0.110958,0.305467,0.538990,0.082499,-1.613000,-1.725000,0.781000,1.167599,-2.550196,-1.693191,-0.928418,2.382727,4.041758,0.000000,0.000000,0.000000,0.000000,0.000000,0.000000
827.234000,1.896000,6,END g_bow,Note,48,C3,G,up,0.102958,0.305467,0.538990,0.082499,-1.613000,-1.725000,0.781000,1.167598,-2.550196,-1.693192,-0.928418,2.382727,4.041758,0.000000,0.000000,0.000000,0.000000,0.000000,0.000000
827.242000,1.904000,6,END g_bow,Note,48,C3,G,up,0.094958,0.305467,0.538990,0.082499,-1.613000,-1.725000,0.781000,1.167598,-2.550196,-1.693192,-0.928418,2.382727,4.041758,0.000000,0.000000,0.000000,0.000000,0.000000,0.000000
827.250000,1.912000,6,END g_bow,Note,48,C3,G,up,0.086958,0.305467,0.538990,0.082499,-1.613000,-1.725000,0.781000,1.167598,-2.550196,-1.693192,-0.928418,2.382727,4.041758,0.000000,0.000000,0.000000,0.000000,0.000000,0.000000
827.258000,1.920000,5,START g_bow,Transition,transition,transition G->D,G-D,down,0.278958,0.305467,0.538992,0.082499,-1.613000,-1.725000,0.781000,1.167599,-2.550198,-1.693186,-0.928422,2.382727,4.041759,0.000000,0.000000,0.000000,0.000000,0.000000,0.000000
827.266000,1.928000,5,START g_bow,Transition,transition,transition G->D,G-D,down,0.270958,0.305473,0.539019,0.082501,-1.613000,-1.725000,0.781000,1.167607,-2.550222,-1.693106,-0.928470,2.382731,4.041769,0.000000,0.000000,0.000000,0.000000,0.000000,0.000000
827.274000,1.936000,5,START g_bow,Transition,transition,transition G->D,G-D,down,0.262958,0.305486,0.539075,0.082506,-1.613000,-1.725000,0.781000,1.167624,-2.550274,-1.692935,-0.928573,2.382738,4.041791,0.000000,0.000000,0.000000,0.000000,0.000000,0.000000
827.282000,1.944000,5,START g_bow,Transition,transition,transition G->D,G-D,down,0.254958,0.305505,0.539162,0.082512,-1.613000,-1.725000,0.781000,1.167650,-2.550353,-1.692673,-0.928732,2.382750,4.041825,0.000000,0.000000,0.000000,0.000000,0.000000,0.000000
827.290000,1.952000,5,START g_bow,Transition,transition,transition G->D,G-D,down,0.246958,0.305531,0.539278,0.082521,-1.613000,-1.725000,0.781000,1.167685,-2.550460,-1.692319,-0.928945,2.382765,4.041870,0.000000,0.000000,0.000000,0.000000,0.000000,0.000000
827.298000,1.960000,5,START g_bow,Transition,transition,transition G->D,G-D,down,0.238958,0.305564,0.539425,0.082532,-1.613000,-1.725000,0.781000,1.167729,-2.550595,-1.691874,-0.929213,2.382785,4.041928,0.000000,0.000000,0.000000,0.000000,0.000000,0.000000
827.306000,1.968000,5,START g_bow,Transition,transition,transition G->D,G-D,down,0.230958,0.305604,0.539602,0.082546,-1.613000,-1.725000,0.781000,1.167782,-2.550757,-1.691338,-0.929537,2.382808,4.041997,0.000000,0.000000,0.000000,0.000000,0.000000,0.000000
827.314000,1.976000,5,START g_bow,Transition,transition,transition G->D,G-D,down,0.222958,0.305651,0.539810,0.082562,-1.613000,-1.725000,0.781000,1.167844,-2.550948,-1.690711,-0.929916,2.382836,4.042078,0.000000,0.000000,0.000000,0.000000,0.000000,0.000000
827.322000,1.984000,5,START g_bow,Transition,transition,transition G->D,G-D,down,0.214958,0.305704,0.540047,0.082580,-1.613000,-1.725000,0.781000,1.167915,-2.551166,-1.689991,-0.930350,2.382867,4.042170,0.000000,0.000000,0.000000,0.000000,0.000000,0.000000
827.330000,1.992000,5,START g_bow,Transition,transition,transition G->D,G-D,down,0.206958,0.305764,0.540314,0.082600,-1.613000,-1.725000,0.781000,1.167995,-2.551412,-1.689180,-0.930839,2.382903,4.042274,0.000000,0.000000,0.000000,0.000000,0.000000,0.000000
827.338000,2.000000,5,START g_bow,Transition,transition,transition G->D,G-D,down,0.198958,0.305831,0.540612,0.082623,-1.613000,-1.725000,0.781000,1.168084,-2.551686,-1.688278,-0.931383,2.382942,4.042390,0.000000,0.000000,0.000000,0.000000,0.000000,0.000000
827.346000,2.008000,5,START g_bow,Transition,transition,transition G->D,G-D,down,0.190958,0.305904,0.540940,0.082648,-1.613000,-1.725000,0.781000,1.168182,-2.551989,-1.687283,-0.931983,2.382985,4.042518,0.000000,0.000000,0.000000,0.000000,0.000000,0.000000
827.354000,2.016000,5,START g_bow,Transition,transition,transition G->D,G-D,down,0.182958,0.305985,0.541297,0.082675,-1.613000,-1.725000,0.781000,1.168288,-2.552320,-1.686196,-0.932638,2.383033,4.042657,0.000000,0.000000,0.000000,0.000000,0.000000,0.000000
827.362000,2.024000,5,START g_bow,Transition,transition,transition G->D,G-D,down,0.174958,0.306072,0.541685,0.082705,-1.613000,-1.725000,0.781000,1.168404,-2.552679,-1.685017,-0.933348,2.383084,4.042807,0.000000,0.000000,0.000000,0.000000,0.000000,0.000000
827.370000,2.032000,5,START g_bow,Transition,transition,transition G->D,G-D,down,0.166958,0.306165,0.542103,0.082737,-1.613000,-1.725000,0.781000,1.168528,-2.553067,-1.683746,-0.934114,2.383139,4.042969,0.000000,0.000000,0.000000,0.000000,0.000000,0.000000
827.378000,2.040000,5,START g_bow,Transition,transition,transition G->D,G-D,down,0.158958,0.306266,0.542552,0.082771,-1.613000,-1.725000,0.781000,1.168661,-2.553483,-1.682382,-0.934935,2.383198,4.043143,0.000000,0.000000,0.000000,0.000000,0.000000,0.000000
827.386000,2.048000,5,START g_bow,Transition,transition,transition G->D,G-D,down,0.150958,0.306373,0.543030,0.082808,-1.613000,-1.725000,0.781000,1.168803,-2.553929,-1.680925,-0.935813,2.383261,4.043328,0.000000,0.000000,0.000000,0.000000,0.000000,0.000000
827.394000,2.056000,5,START g_bow,Transition,transition,transition G->D,G-D,down,0.142958,0.306488,0.543538,0.082847,-1.613000,-1.725000,0.781000,1.168954,-2.554404,-1.679375,-0.936745,2.383327,4.043524,0.000000,0.000000,0.000000,0.000000,0.000000,0.000000
827.402000,2.064000,5,START g_bow,Transition,transition,transition G->D,G-D,down,0.134958,0.306608,0.544077,0.082888,-1.613000,-1.725000,0.781000,1.169113,-2.554908,-1.677732,-0.937734,2.383397,4.043732,0.000000,0.000000,0.000000,0.000000,0.000000,0.000000
827.410000,2.072000,5,START g_bow,Transition,transition,transition G->D,G-D,down,0.126958,0.306736,0.544646,0.082931,-1.613000,-1.725000,0.781000,1.169281,-2.555441,-1.675995,-0.938778,2.383472,4.043951,0.000000,0.000000,0.000000,0.000000,0.000000,0.000000
827.418000,2.080000,5,START g_bow,Transition,transition,transition G->D,G-D,down,0.118958,0.306870,0.545245,0.082977,-1.613000,-1.725000,0.781000,1.169457,-2.556004,-1.674164,-0.939879,2.383550,4.044181,0.000000,0.000000,0.000000,0.000000,0.000000,0.000000
827.426000,2.088000,5,START g_bow,Transition,transition,transition G->D,G-D,down,0.110958,0.307012,0.545874,0.083025,-1.613000,-1.725000,0.781000,1.169642,-2.556597,-1.672240,-0.941035,2.383631,4.044422,0.000000,0.000000,0.000000,0.000000,0.000000,0.000000
827.434000,2.096000,5,START g_bow,Transition,transition,transition G->D,G-D,down,0.102958,0.307160,0.546533,0.083076,-1.613000,-1.725000,0.781000,1.169835,-2.557221,-1.670220,-0.942248,2.383717,4.044675,0.000000,0.000000,0.000000,0.000000,0.000000,0.000000
827.442000,2.104000,5,START g_bow,Transition,transition,transition G->D,G-D,down,0.094958,0.307314,0.547222,0.083128,-1.613000,-1.725000,0.781000,1.170037,-2.557874,-1.668106,-0.943517,2.383806,4.044938,0.000000,0.000000,0.000000,0.000000,0.000000,0.000000
827.450000,2.112000,5,START g_bow,Transition,transition,transition G->D,G-D,down,0.086958,0.307476,0.547942,0.083183,-1.613000,-1.725000,0.781000,1.170247,-2.558559,-1.665897,-0.944842,2.383899,4.045212,0.000000,0.000000,0.000000,0.000000,0.000000,0.000000
827.458000,2.120000,5,START g_bow,Transition,transition,transition G->D,G-D,down,0.078958,0.307644,0.548691,0.083241,-1.613000,-1.725000,0.781000,1.170466,-2.559274,-1.663593,-0.946224,2.383995,4.045498,0.000000,0.000000,0.000000,0.000000,0.000000,0.000000
827.466000,2.128000,5,START g_bow,Transition,transition,transition G->D,G-D,down,0.070958,0.307819,0.549471,0.083300,-1.613000,-1.725000,0.781000,1.170692,-2.560021,-1.661192,-0.947663,2.384095,4.045794,0.000000,0.000000,0.000000,0.000000,0.000000,0.000000
827.474000,2.136000,5,START g_bow,Transition,transition,transition G->D,G-D,down,0.062958,0.308001,0.550281,0.083362,-1.613000,-1.725000,0.781000,1.170927,-2.560799,-1.658696,-0.949158,2.384198,4.046101,0.000000,0.000000,0.000000,0.000000,0.000000,0.000000
827.482000,2.144000,5,START g_bow,Transition,transition,transition G->D,G-D,down,0.054958,0.308189,0.551121,0.083426,-1.613000,-1.725000,0.781000,1.171170,-2.561609,-1.656103,-0.950710,2.384305,4.046418,0.000000,0.000000,0.000000,0.000000,0.000000,0.000000
827.490000,2.152000,5,START g_bow,Transition,transition,transition G->D,G-D,down,0.046958,0.308384,0.551991,0.083493,-1.613000,-1.725000,0.781000,1.171421,-2.562451,-1.653412,-0.952320,2.384416,4.046746,0.000000,0.000000,0.000000,0.000000,0.000000,0.000000
827.498000,2.160000,5,START g_bow,Transition,transition,transition G->D,G-D,down,0.038958,0.308586,0.552891,0.083562,-1.613000,-1.725000,0.781000,1.171680,-2.563326,-1.650625,-0.953987,2.384530,4.047085,0.000000,0.000000,0.000000,0.000000,0.000000,0.000000
827.506000,2.168000,5,START g_bow,Transition,transition,transition G->D,G-D,down,0.030958,0.308795,0.553821,0.083633,-1.613000,-1.725000,0.781000,1.171947,-2.564234,-1.647739,-0.955711,2.384647,4.047434,0.000000,0.000000,0.000000,0.000000,0.000000,0.000000
827.514000,2.176000,5,START g_bow,Transition,transition,transition G->D,G-D,down,0.022958,0.309011,0.554782,0.083706,-1.613000,-1.725000,0.781000,1.172222,-2.565174,-1.644755,-0.957493,2.384768,4.047793,0.000000,0.000000,0.000000,0.000000,0.000000,0.000000
827.522000,2.184000,5,START g_bow,Transition,transition,transition G->D,G-D,down,0.014958,0.309233,0.555772,0.083782,-1.613000,-1.725000,0.781000,1.172504,-2.566149,-1.641672,-0.959333,2.384892,4.048162,0.000000,0.000000,0.000000,0.000000,0.000000,0.000000
827.530000,2.192000,5,START g_bow,Transition,transition,transition G->D,G-D,down,0.006958,0.309462,0.556793,0.083860,-1.613000,-1.725000,0.781000,1.172794,-2.567157,-1.638490,-0.961231,2.385019,4.048542,0.000000,0.000000,0.000000,0.000000,0.000000,0.000000
827.538000,2.200000,5,START g_bow,Note,50,D3,D,down,0.298958,0.309698,0.557844,0.083940,-1.613000,-1.725000,0.781000,1.173092,-2.568200,-1.635208,-0.963187,2.385150,4.048932,0.000000,0.000000,0.000000,0.000000,0.000000,0.000000
827.546000,2.208000,5,START g_bow,Note,50,D3,D,down,0.290958,0.309941,0.558925,0.084023,-1.613000,-1.725000,0.781000,1.173397,-2.569278,-1.631825,-0.965201,2.385284,4.049332,0.000000,0.000000,0.000000,0.000000,0.000000,0.000000
827.554000,2.216000,5,START g_bow,Note,50,D3,D,down,0.282958,0.310190,0.560036,0.084108,-1.613000,-1.725000,0.781000,1.173710,-2.570391,-1.628341,-0.967274,2.385421,4.049741,0.000000,0.000000,0.000000,0.000000,0.000000,0.000000
827.562000,2.224000,5,START g_bow,Note,50,D3,D,down,0.274958,0.310446,0.561177,0.084195,-1.613000,-1.725000,0.781000,1.174030,-2.571539,-1.624755,-0.969406,2.385561,4.050161,0.000000,0.000000,0.000000,0.000000,0.000000,0.000000
827.570000,2.232000,5,START g_bow,Note,50,D3,D,down,0.266958,0.310709,0.562349,0.084285,-1.613000,-1.725000,0.781000,1.174357,-2.572724,-1.621067,-0.971597,2.385705,4.050590,0.000000,0.000000,0.000000,0.000000,0.000000,0.000000
827.578000,2.240000,5,START g_bow,Note,50,D3,D,down,0.258958,0.310979,0.563550,0.084376,-1.613000,-1.725000,0.781000,1.174692,-2.573945,-1.617277,-0.973848,2.385851,4.051028,0.000000,0.000000,0.000000,0.000000,0.000000,0.000000
827.586000,2.248000,5,START g_bow,Note,50,D3,D,down,0.250958,0.311255,0.564780,0.084470,-1.613000,-1.725000,0.781000,1.175033,-2.575201,-1.613388,-0.976154,2.386000,4.051476,0.000000,0.000000,0.000000,0.000000,0.000000,0.000000
827.594000,2.256000,5,START g_bow,Note,50,D3,D,down,0.242958,0.311532,0.566016,0.084565,-1.613000,-1.725000,0.781000,1.175374,-2.576470,-1.609472,-0.978475,2.386149,4.051924,0.000000,0.000000,0.000000,0.000000,0.000000,0.000000
827.602000,2.264000,5,START g_bow,Note,50,D3,D,down,0.234958,0.311809,0.567251,0.084659,-1.613000,-1.725000,0.781000,1.175715,-2.577746,-1.605547,-0.980800,2.386298,4.052370,0.000000,0.000000,0.000000,0.000000,0.000000,0.000000
827.610000,2.272000,5,START g_bow,Note,50,D3,D,down,0.226958,0.312087,0.568487,0.084754,-1.613000,-1.725000,0.781000,1.176054,-2.579028,-1.601613,-0.983128,2.386446,4.052815,0.000000,0.000000,0.000000,0.000000,0.000000,0.000000
827.618000,2.280000,5,START g_bow,Note,50,D3,D,down,0.218958,0.312364,0.569723,0.084848,-1.613000,-1.725000,0.781000,1.176391,-2.580317,-1.597670,-0.985459,2.386593,4.053258,0.000000,0.000000,0.000000,0.000000,0.000000,0.000000
827.626000,2.288000,5,START g_bow,Note,50,D3,D,down,0.210958,0.312642,0.570959,0.084943,-1.613000,-1.725000,0.781000,1.176728,-2.581612,-1.593718,-0.987794,2.386739,4.053700,0.000000,0.000000,0.000000,0.000000,0.000000,0.000000
827.634000,2.296000,5,START g_bow,Note,50,D3,D,down,0.202958,0.312919,0.572194,0.085037,-1.613000,-1.725000,0.781000,1.177063,-2.582914,-1.589757,-0.990132,2.386885,4.054140,0.000000,0.000000,0.000000,0.000000,0.000000,0.000000
827.642000,2.304000,5,START g_bow,Note,50,D3,D,down,0.194958,0.313196,0.573430,0.085132,-1.613000,-1.725000,0.781000,1.177396,-2.584223,-1.585787,-0.992474,2.387031,4.054579,0.000000,0.000000,0.000000,0.000000,0.000000,0.000000
827.650000,2.312000,5,START g_bow,Note,50,D3,D,down,0.186958,0.313474,0.574666,0.085226,-1.613000,-1.725000,0.781000,1.177729,-2.585539,-1.581807,-0.994819,2.387175,4.055016,0.000000,0.000000,0.000000,0.000000,0.000000,0.000000
827.658000,2.320000,5,START g_bow,Note,50,D3,D,down,0.178958,0.313751,0.575902,0.085320,-1.613000,-1.725000,0.781000,1.178060,-2.586861,-1.577819,-0.997168,2.387319,4.055452,0.000000,0.000000,0.000000,0.000000,0.000000,0.000000
827.666000,2.328000,5,START g_bow,Note,50,D3,D,down,0.170958,0.314028,0.577137,0.085415,-1.613000,-1.725000,0.781000,1.178390,-2.588190,-1.573821,-0.999521,2.387463,4.055886,0.000000,0.000000,0.000000,0.000000,0.000000,0.000000
827.674000,2.336000,5,START g_bow,Note,50,D3,D,down,0.162958,0.314306,0.578373,0.085509,-1.613000,-1.725000,0.781000,1.178719,-2.589525,-1.569813,-1.001877,2.387605,4.056319,0.000000,0.000000,0.000000,0.000000,0.000000,0.000000
827.682000,2.344000,5,START g_bow,Note,50,D3,D,down,0.154958,0.314583,0.579609,0.085604,-1.613000,-1.725000,0.781000,1.179047,-2.590868,-1.565796,-1.004238,2.387748,4.056750,0.000000,0.000000,0.000000,0.000000,0.000000,0.000000
827.690000,2.352000,5,START g_bow,Note,50,D3,D,down,0.146958,0.314860,0.580845,0.085698,-1.613000,-1.725000,0.781000,1.179373,-2.592217,-1.561770,-1.006601,2.387889,4.057180,0.000000,0.000000,0.000000,0.000000,0.000000,0.000000
827.698000,2.360000,5,START g_bow,Note,50,D3,D,down,0.138958,0.315138,0.582080,0.085793,-1.613000,-1.725000,0.781000,1.179699,-2.593573,-1.557734,-1.008969,2.388030,4.057608,0.000000,0.000000,0.000000,0.000000,0.000000,0.000000
827.706000,2.368000,5,START g_bow,Note,50,D3,D,down,0.130958,0.315415,0.583316,0.085887,-1.613000,-1.725000,0.781000,1.180023,-2.594936,-1.553688,-1.011341,2.388170,4.058035,0.000000,0.000000,0.000000,0.000000,0.000000,0.000000
827.714000,2.376000,5,START g_bow,Note,50,D3,D,down,0.122958,0.315692,0.584552,0.085982,-1.613000,-1.725000,0.781000,1.180345,-2.596305,-1.549633,-1.013716,2.388310,4.058461,0.000000,0.000000,0.000000,0.000000,0.000000,0.000000
827.722000,2.384000,5,START g_bow,Note,50,D3,D,down,0.114958,0.315970,0.585788,0.086076,-1.613000,-1.725000,0.781000,1.180667,-2.597682,-1.545567,-1.016095,2.388449,4.058885,0.000000,0.000000,0.000000,0.000000,0.000000,0.000000
827.730000,2.392000,5,START g_bow,Note,50,D3,D,down,0.106958,0.316247,0.587023,0.086171,-1.613000,-1.725000,0.781000,1.180987,-2.599066,-1.541492,-1.018479,2.388587,4.059307,0.000000,0.000000,0.000000,0.000000,0.000000,0.000000
827.738000,2.400000,5,START g_bow,Note,50,D3,D,down,0.098958,0.316524,0.588259,0.086265,-1.613000,-1.725000,0.781000,1.181307,-2.600456,-1.537407,-1.020866,2.388725,4.059728,0.000000,0.000000,0.000000,0.000000,0.000000,0.000000
827.746000,2.408000,5,START g_bow,Note,50,D3,D,down,0.090958,0.316802,0.589495,0.086360,-1.613000,-1.725000,0.781000,1.181625,-2.601854,-1.533312,-1.023257,2.388862,4.060148,0.000000,0.000000,0.000000,0.000000,0.000000,0.000000
827.754000,2.416000,5,START g_bow,Note,50,D3,D,down,0.082958,0.317079,0.590731,0.086454,-1.613000,-1.725000,0.781000,1.181942,-2.603258,-1.529207,-1.025653,2.388999,4.060566,0.000000,0.000000,0.000000,0.000000,0.000000,0.000000
827.762000,2.424000,5,START g_bow,Note,50,D3,D,down,0.074958,0.317356,0.591966,0.086548,-1.613000,-1.725000,0.781000,1.182257,-2.604669,-1.525091,-1.028052,2.389135,4.060983,0.000000,0.000000,0.000000,0.000000,0.000000,0.000000
827.770000,2.432000,5,START g_bow,Note,50,D3,D,down,0.066958,0.317634,0.593202,0.086643,-1.613000,-1.725000,0.781000,1.182572,-2.606088,-1.520966,-1.030456,2.389271,4.061399,0.000000,0.000000,0.000000,0.000000,0.000000,0.000000
827.778000,2.440000,5,START g_bow,Note,50,D3,D,down,0.058958,0.317911,0.594438,0.086737,-1.613000,-1.725000,0.781000,1.182886,-2.607513,-1.516830,-1.032864,2.389406,4.061813,0.000000,0.000000,0.000000,0.000000,0.000000,0.000000
827.786000,2.448000,5,START g_bow,Note,50,D3,D,down,0.050958,0.318188,0.595674,0.086832,-1.613000,-1.725000,0.781000,1.183198,-2.608946,-1.512684,-1.035277,2.389540,4.062225,0.000000,0.000000,0.000000,0.000000,0.000000,0.000000
827.794000,2.456000,5,START g_bow,Note,50,D3,D,down,0.042958,0.318466,0.596909,0.086926,-1.613000,-1.725000,0.781000,1.183509,-2.610386,-1.508527,-1.037694,2.389674,4.062637,0.000000,0.000000,0.000000,0.000000,0.000000,0.000000
827.802000,2.464000,5,START g_bow,Note,50,D3,D,down,0.034958,0.318743,0.598145,0.087021,-1.613000,-1.725000,0.781000,1.183819,-2.611833,-1.504359,-1.040115,2.389807,4.063047,0.000000,0.000000,0.000000,0.000000,0.000000,0.000000
827.810000,2.472000,5,START g_bow,Note,50,D3,D,down,0.026958,0.319020,0.599381,0.087115,-1.613000,-1.725000,0.781000,1.184128,-2.613287,-1.500181,-1.042540,2.389940,4.063455,0.000000,0.000000,0.000000,0.000000,0.000000,0.000000
827.818000,2.480000,5,START g_bow,Note,50,D3,D,down,0.018958,0.319298,0.600617,0.087210,-1.613000,-1.725000,0.781000,1.184436,-2.614748,-1.495992,-1.044970,2.390072,4.063862,0.000000,0.000000,0.000000,0.000000,0.000000,0.000000
827.826000,2.488000,5,START g_bow,Note,50,D3,D,down,0.010958,0.319575,0.601852,0.087304,-1.613000,-1.725000,0.781000,1.184743,-2.616216,-1.491793,-1.047405,2.390203,4.064268,0.000000,0.000000,0.000000,0.000000,0.000000,0.000000
827.834000,2.496000,5,START g_bow,Note,50,D3,D,down,0.002958,0.319852,0.603088,0.087399,-1.613000,-1.725000,0.781000,1.185048,-2.617692,-1.487582,-1.049844,2.390334,4.064673,0.000000,0.000000,0.000000,0.000000,0.000000,0.000000
827.842000,2.504000,5,START g_bow,Note,52,E3,D,down,0.244958,0.320130,0.604324,0.087493,-1.613000,-1.725000,0.781000,1.185353,-2.619175,-1.483361,-1.052288,2.390465,4.065076,0.000000,0.000000,0.000000,0.000000,0.000000,0.000000
827.850000,2.512000,5,START g_bow,Note,52,E3,D,down,0.236958,0.320407,0.605560,0.087587,-1.613000,-1.725000,0.781000,1.185656,-2.620666,-1.479128,-1.054736,2.390594,4.065478,0.000000,0.000000,0.000000,0.000000,0.000000,0.000000
827.858000,2.520000,5,START g_bow,Note,52,E3,D,down,0.228958,0.320684,0.606795,0.087682,-1.613000,-1.725000,0.781000,1.185958,-2.622164,-1.474884,-1.057189,2.390724,4.065878,0.000000,0.000000,0.000000,0.000000,0.000000,0.000000
827.866000,2.528000,5,START g_bow,Note,52,E3,D,down,0.220958,0.320962,0.608031,0.087776,-1.613000,-1.725000,0.781000,1.186260,-2.623669,-1.470629,-1.059647,2.390852,4.066277,0.000000,0.000000,0.000000,0.000000,0.000000,0.000000
827.874000,2.536000,5,START g_bow,Note,52,E3,D,down,0.212958,0.321239,0.609267,0.087871,-1.613000,-1.725000,0.781000,1.186560,-2.625182,-1.466363,-1.062110,2.390981,4.066675,0.000000,0.000000,0.000000,0.000000,0.000000,0.000000
827.882000,2.544000,5,START g_bow,Note,52,E3,D,down,0.204958,0.321516,0.610503,0.087965,-1.613000,-1.725000,0.781000,1.186859,-2.626702,-1.462085,-1.064577,2.391108,4.067072,0.000000,0.000000,0.000000,0.000000,0.000000,0.000000
827.890000,2.552000,5,START g_bow,Note,52,E3,D,down,0.196958,0.321794,0.611738,0.088060,-1.613000,-1.725000,0.781000,1.187157,-2.628229,-1.457796,-1.067050,2.391236,4.067467,0.000000,0.000000,0.000000,0.000000,0.000000,0.000000
827.898000,2.560000,5,START g_bow,Note,52,E3,D,down,0.188958,0.322071,0.612974,0.088154,-1.613000,-1.725000,0.781000,1.187454,-2.629765,-1.453495,-1.069528,2.391362,4.067861,0.000000,0.000000,0.000000,0.000000,0.000000,0.000000
827.906000,2.568000,5,START g_bow,Note,52,E3,D,down,0.180958,0.322349,0.614210,0.088249,-1.613000,-1.725000,0.781000,1.187750,-2.631307,-1.449182,-1.072010,2.391488,4.068254,0.000000,0.000000,0.000000,0.000000,0.000000,0.000000
827.914000,2.576000,5,START g_bow,Note,52,E3,D,down,0.172958,0.322626,0.615445,0.088343,-1.613000,-1.725000,0.781000,1.188045,-2.632858,-1.444858,-1.074498,2.391614,4.068645,0.000000,0.000000,0.000000,0.000000,0.000000,0.000000
827.922000,2.584000,5,START g_bow,Note,52,E3,D,down,0.164958,0.322903,0.616681,0.088438,-1.613000,-1.725000,0.781000,1.188338,-2.634416,-1.440521,-1.076991,2.391739,4.069035,0.000000,0.000000,0.000000,0.000000,0.000000,0.000000
827.930000,2.592000,5,START g_bow,Note,52,E3,D,down,0.156958,0.323179,0.617911,0.088532,-1.613000,-1.725000,0.781000,1.188630,-2.635974,-1.436194,-1.079477,2.391863,4.069422,0.000000,0.000000,0.000000,0.000000,0.000000,0.000000
827.938000,2.600000,5,START g_bow,Note,52,E3,D,down,0.148958,0.323449,0.619112,0.088623,-1.613000,-1.725000,0.781000,1.188913,-2.637504,-1.431954,-1.081911,2.391983,4.069799,0.000000,0.000000,0.000000,0.000000,0.000000,0.000000
827.946000,2.608000,5,START g_bow,Note,52,E3,D,down,0.140958,0.323712,0.620284,0.088713,-1.613000,-1.725000,0.781000,1.189189,-2.639003,-1.427810,-1.084289,2.392101,4.070165,0.000000,0.000000,0.000000,0.000000,0.000000,0.000000
827.954000,2.616000,5,START g_bow,Note,52,E3,D,down,0.132958,0.323968,0.621425,0.088800,-1.613000,-1.725000,0.781000,1.189457,-2.640469,-1.423761,-1.086610,2.392214,4.070521,0.000000,0.000000,0.000000,0.000000,0.000000,0.000000
827.962000,2.624000,5,START g_bow,Note,52,E3,D,down,0.124958,0.324217,0.622536,0.088885,-1.613000,-1.725000,0.781000,1.189716,-2.641904,-1.419809,-1.088874,2.392325,4.070866,0.000000,0.000000,0.000000,0.000000,0.000000,0.000000
827.970000,2.632000,5,START g_bow,Note,52,E3,D,down,0.116958,0.324460,0.623617,0.088968,-1.613000,-1.725000,0.781000,1.189968,-2.643306,-1.415955,-1.091082,2.392431,4.071201,0.000000,0.000000,0.000000,0.000000,0.000000,0.000000
827.978000,2.640000,5,START g_bow,Note,52,E3,D,down,0.108958,0.324696,0.624668,0.089048,-1.613000,-1.725000,0.781000,1.190212,-2.644674,-1.412199,-1.093232,2.392535,4.071526,0.000000,0.000000,0.000000,0.000000,0.000000,0.000000
827.986000,2.648000,5,START g_bow,Note,52,E3,D,down,0.100958,0.324925,0.625689,0.089126,-1.613000,-1.725000,0.781000,1.190449,-2.646009,-1.408541,-1.095324,2.392635,4.071840,0.000000,0.000000,0.000000,0.000000,0.000000,0.000000
827.994000,2.656000,5,START g_bow,Note,52,E3,D,down,0.092958,0.325147,0.626680,0.089202,-1.613000,-1.725000,0.781000,1.190678,-2.647310,-1.404984,-1.097358,2.392732,4.072145,0.000000,0.000000,0.000000,0.000000,0.000000,0.000000
828.002000,2.664000,5,START g_bow,Note,52,E3,D,down,0.084958,0.325363,0.627640,0.089275,-1.613000,-1.725000,0.781000,1.190899,-2.648576,-1.401526,-1.099334,2.392826,4.072439,0.000000,0.000000,0.000000,0.000000,0.000000,0.000000
828.010000,2.672000,5,START g_bow,Note,52,E3,D,down,0.076958,0.325572,0.628570,0.089346,-1.613000,-1.725000,0.781000,1.191113,-2.649807,-1.398170,-1.101251,2.392916,4.072724,0.000000,0.000000,0.000000,0.000000,0.000000,0.000000
828.018000,2.680000,5,START g_bow,Note,52,E3,D,down,0.068958,0.325774,0.629471,0.089415,-1.613000,-1.725000,0.781000,1.191319,-2.651002,-1.394915,-1.103109,2.393003,4.072998,0.000000,0.000000,0.000000,0.000000,0.000000,0.000000
828.026000,2.688000,5,START g_bow,Note,52,E3,D,down,0.060958,0.325969,0.630341,0.089482,-1.613000,-1.725000,0.781000,1.191518,-2.652162,-1.391762,-1.104908,2.393088,4.073263,0.000000,0.000000,0.000000,0.000000,0.000000,0.000000
828.034000,2.696000,5,START g_bow,Note,52,E3,D,down,0.052958,0.326157,0.631181,0.089546,-1.613000,-1.725000,0.781000,1.191710,-2.653285,-1.388713,-1.106647,2.393168,4.073518,0.000000,0.000000,0.000000,0.000000,0.000000,0.000000
828.042000,2.704000,5,START g_bow,Note,52,E3,D,down,0.044958,0.326339,0.631990,0.089608,-1.613000,-1.725000,0.781000,1.191894,-2.654372,-1.385767,-1.108327,2.393246,4.073764,0.000000,0.000000,0.000000,0.000000,0.000000,0.000000
828.050000,2.712000,5,START g_bow,Note,52,E3,D,down,0.036958,0.326514,0.632770,0.089667,-1.613000,-1.725000,0.781000,1.192071,-2.655422,-1.382925,-1.109946,2.393321,4.073999,0.000000,0.000000,0.000000,0.000000,0.000000,0.000000
828.058000,2.720000,5,START g_bow,Note,52,E3,D,down,0.028958,0.326682,0.633520,0.089725,-1.613000,-1.725000,0.781000,1.192241,-2.656434,-1.380187,-1.111506,2.393393,4.074226,0.000000,0.000000,0.000000,0.000000,0.000000,0.000000
828.066000,2.728000,5,START g_bow,Note,52,E3,D,down,0.020958,0.326844,0.634239,0.089780,-1.613000,-1.725000,0.781000,1.192403,-2.657408,-1.377556,-1.113004,2.393461,4.074442,0.000000,0.000000,0.000000,0.000000,0.000000,0.000000
828.074000,2.736000,5,START g_bow,Note,52,E3,D,down,0.012958,0.326998,0.634928,0.089832,-1.613000,-1.725000,0.781000,1.192559,-2.658344,-1.375030,-1.114442,2.393527,4.074650,0.000000,0.000000,0.000000,0.000000,0.000000,0.000000
828.082000,2.744000,5,START g_bow,Note,52,E3,D,down,0.004958,0.327146,0.635587,0.089883,-1.613000,-1.725000,0.781000,1.192707,-2.659242,-1.372610,-1.115819,2.393590,4.074848,0.000000,0.000000,0.000000,0.000000,0.000000,0.000000
828.090000,2.752000,5,START g_bow,Note,50,D3,D,down,0.246958,0.327288,0.636216,0.089931,-1.613000,-1.725000,0.781000,1.192848,-2.660101,-1.370298,-1.117134,2.393649,4.075036,0.000000,0.000000,0.000000,0.000000,0.000000,0.000000
828.098000,2.760000,5,START g_bow,Note,50,D3,D,down,0.238958,0.327422,0.636815,0.089977,-1.613000,-1.725000,0.781000,1.192983,-2.660921,-1.368092,-1.118388,2.393706,4.075215,0.000000,0.000000,0.000000,0.000000,0.000000,0.000000
828.106000,2.768000,5,START g_bow,Note,50,D3,D,down,0.230958,0.327550,0.637384,0.090020,-1.613000,-1.725000,0.781000,1.193110,-2.661701,-1.365995,-1.119581,2.393759,4.075385,0.000000,0.000000,0.000000,0.000000,0.000000,0.000000
828.114000,2.776000,5,START g_bow,Note,50,D3,D,down,0.222958,0.327670,0.637923,0.090061,-1.613000,-1.725000,0.781000,1.193231,-2.662442,-1.364006,-1.120711,2.393810,4.075546,0.000000,0.000000,0.000000,0.000000,0.000000,0.000000
828.122000,2.784000,5,START g_bow,Note,50,D3,D,down,0.214958,0.327785,0.638431,0.090100,-1.613000,-1.725000,0.781000,1.193344,-2.663143,-1.362126,-1.121779,2.393858,4.075697,0.000000,0.000000,0.000000,0.000000,0.000000,0.000000
828.130000,2.792000,5,START g_bow,Note,50,D3,D,down,0.206958,0.327892,0.638910,0.090137,-1.613000,-1.725000,0.781000,1.193451,-2.663803,-1.360355,-1.122785,2.393903,4.075840,0.000000,0.000000,0.000000,0.000000,0.000000,0.000000
828.138000,2.800000,5,START g_bow,Note,50,D3,D,down,0.198958,0.327993,0.639358,0.090171,-1.613000,-1.725000,0.781000,1.193551,-2.664423,-1.358694,-1.123728,2.393945,4.075973,0.000000,0.000000,0.000000,0.000000,0.000000,0.000000
828.146000,2.808000,5,START g_bow,Note,50,D3,D,down,0.190958,0.328086,0.639776,0.090203,-1.613000,-1.725000,0.781000,1.193644,-2.665003,-1.357143,-1.124609,2.393984,4.076097,0.000000,0.000000,0.000000,0.000000,0.000000,0.000000
828.154000,2.816000,5,START g_bow,Note,50,D3,D,down,0.182958,0.328173,0.640164,0.090232,-1.613000,-1.725000,0.781000,1.193730,-2.665542,-1.355702,-1.125427,2.394020,4.076212,0.000000,0.000000,0.000000,0.000000,0.000000,0.000000
828.162000,2.824000,5,START g_bow,Note,50,D3,D,down,0.174958,0.328254,0.640522,0.090260,-1.613000,-1.725000,0.781000,1.193810,-2.666039,-1.354372,-1.126182,2.394054,4.076318,0.000000,0.000000,0.000000,0.000000,0.000000,0.000000
828.170000,2.832000,5,START g_bow,Note,50,D3,D,down,0.166958,0.328327,0.640849,0.090285,-1.613000,-1.725000,0.781000,1.193882,-2.666495,-1.353153,-1.126874,2.394084,4.076415,0.000000,0.000000,0.000000,0.000000,0.000000,0.000000
828.178000,2.840000,5,START g_bow,Note,50,D3,D,down,0.158958,0.328394,0.641147,0.090308,-1.613000,-1.725000,0.781000,1.193948,-2.666910,-1.352045,-1.127502,2.394112,4.076503,0.000000,0.000000,0.000000,0.000000,0.000000,0.000000
828.186000,2.848000,5,START g_bow,Note,50,D3,D,down,0.150958,0.328454,0.641414,0.090328,-1.613000,-1.725000,0.781000,1.194007,-2.667283,-1.351048,-1.128068,2.394137,4.076582,0.000000,0.000000,0.000000,0.000000,0.000000,0.000000
828.194000,2.856000,5,START g_bow,Note,50,D3,D,down,0.142958,0.328507,0.641652,0.090346,-1.613000,-1.725000,0.781000,1.194060,-2.667615,-1.350163,-1.128570,2.394159,4.076652,0.000000,0.000000,0.000000,0.000000,0.000000,0.000000
828.202000,2.864000,5,START g_bow,Note,50,D3,D,down,0.134958,0.328554,0.641859,0.090362,-1.613000,-1.725000,0.781000,1.194106,-2.667905,-1.349390,-1.129008,2.394178,4.076713,0.000000,0.000000,0.000000,0.000000,0.000000,0.000000
828.210000,2.872000,5,START g_bow,Note,50,D3,D,down,0.126958,0.328594,0.642036,0.090376,-1.613000,-1.725000,0.781000,1.194145,-2.668152,-1.348730,-1.129383,2.394195,4.076765,0.000000,0.000000,0.000000,0.000000,0.000000,0.000000
828.218000,2.880000,5,START g_bow,Note,50,D3,D,down,0.118958,0.328627,0.642183,0.090387,-1.613000,-1.725000,0.781000,1.194177,-2.668358,-1.348181,-1.129694,2.394209,4.076809,0.000000,0.000000,0.000000,0.000000,0.000000,0.000000
828.226000,2.888000,5,START g_bow,Note,50,D3,D,down,0.110958,0.328653,0.642299,0.090396,-1.613000,-1.725000,0.781000,1.194203,-2.668522,-1.347745,-1.129941,2.394219,4.076843,0.000000,0.000000,0.000000,0.000000,0.000000,0.000000
828.234000,2.896000,5,START g_bow,Note,50,D3,D,down,0.102958,0.328672,0.642386,0.090402,-1.613000,-1.725000,0.781000,1.194222,-2.668643,-1.347421,-1.130125,2.394227,4.076869,0.000000,0.000000,0.000000,0.000000,0.000000,0.000000
828.242000,2.904000,5,START g_bow,Note,50,D3,D,down,0.094958,0.328685,0.642443,0.090407,-1.613000,-1.725000,0.781000,1.194235,-2.668722,-1.347210,-1.130244,2.394233,4.076885,0.000000,0.000000,0.000000,0.000000,0.000000,0.000000
828.250000,2.912000,5,START g_bow,Note,50,D3,D,down,0.086958,0.328691,0.642469,0.090409,-1.613000,-1.725000,0.781000,1.194241,-2.668759,-1.347111,-1.130300,2.394235,4.076893,0.000000,0.000000,0.000000,0.000000,0.000000,0.000000
828.258000,2.920000,6,END g_bow,Note,50,D3,D,down,0.078958,0.328691,0.642471,0.090409,-1.613000,-1.725000,0.781000,1.194241,-2.668762,-1.347104,-1.130305,2.394235,4.076894,0.000000,0.000000,0.000000,0.000000,0.000000,0.000000
828.266000,2.928000,6,END g_bow,Note,50,D3,D,down,0.070958,0.328691,0.642471,0.090409,-1.613000,-1.725000,0.781000,1.194241,-2.668762,-1.347104,-1.130305,2.394235,4.076894,0.000000,0.000000,0.000000,0.000000,0.000000,0.000000
828.274000,2.936000,6,END g_bow,Note,50,D3,D,down,0.062958,0.328691,0.642471,0.090409,-1.613000,-1.725000,0.781000,1.194241,-2.668762,-1.347104,-1.130305,2.394235,4.076894,0.000000,0.000000,0.000000,0.000000,0.000000,0.000000
828.282000,2.944000,5,START g_bow,Transition,transition,transition D->G,D-G,up,0.254958,0.328691,0.642471,0.090409,-1.613000,-1.725000,0.781000,1.194241,-2.668762,-1.347104,-1.130304,2.394235,4.076894,0.000000,0.000000,0.000000,0.000000,0.000000,0.000000
828.290000,2.952000,5,START g_bow,Transition,transition,transition D->G,D-G,up,0.246958,0.328687,0.642453,0.090407,-1.613000,-1.725000,0.781000,1.194237,-2.668737,-1.347171,-1.130266,2.394234,4.076888,0.000000,0.000000,0.000000,0.000000,0.000000,0.000000
828.298000,2.960000,5,START g_bow,Transition,transition,transition D->G,D-G,up,0.238958,0.328677,0.642407,0.090404,-1.613000,-1.725000,0.781000,1.194227,-2.668672,-1.347344,-1.130168,2.394229,4.076875,0.000000,0.000000,0.000000,0.000000,0.000000,0.000000
828.306000,2.968000,5,START g_bow,Transition,transition,transition D->G,D-G,up,0.230958,0.328660,0.642332,0.090398,-1.613000,-1.725000,0.781000,1.194210,-2.668567,-1.347624,-1.130010,2.394222,4.076853,0.000000,0.000000,0.000000,0.000000,0.000000,0.000000
828.314000,2.976000,5,START g_bow,Transition,transition,transition D->G,D-G,up,0.222958,0.328637,0.642229,0.090390,-1.613000,-1.725000,0.781000,1.194187,-2.668422,-1.348010,-1.129791,2.394213,4.076822,0.000000,0.000000,0.000000,0.000000,0.000000,0.000000
828.322000,2.984000,5,START g_bow,Transition,transition,transition D->G,D-G,up,0.214958,0.328607,0.642097,0.090380,-1.613000,-1.725000,0.781000,1.194158,-2.668238,-1.348502,-1.129512,2.394201,4.076783,0.000000,0.000000,0.000000,0.000000,0.000000,0.000000
828.330000,2.992000,5,START g_bow,Transition,transition,transition D->G,D-G,up,0.206958,0.328571,0.641936,0.090368,-1.613000,-1.725000,0.781000,1.194123,-2.668013,-1.349100,-1.129172,2.394186,4.076736,0.000000,0.000000,0.000000,0.000000,0.000000,0.000000
828.338000,3.000000,5,START g_bow,Transition,transition,transition D->G,D-G,up,0.198958,0.328529,0.641748,0.090354,-1.613000,-1.725000,0.781000,1.194081,-2.667749,-1.349805,-1.128773,2.394168,4.076680,0.000000,0.000000,0.000000,0.000000,0.000000,0.000000
828.346000,3.008000,5,START g_bow,Transition,transition,transition D->G,D-G,up,0.190958,0.328480,0.641530,0.090337,-1.613000,-1.725000,0.781000,1.194033,-2.667445,-1.350616,-1.128313,2.394148,4.076616,0.000000,0.000000,0.000000,0.000000,0.000000,0.000000
828.354000,3.016000,5,START g_bow,Transition,transition,transition D->G,D-G,up,0.182958,0.328425,0.641284,0.090318,-1.613000,-1.725000,0.781000,1.193979,-2.667102,-1.351532,-1.127793,2.394125,4.076544,0.000000,0.000000,0.000000,0.000000,0.000000,0.000000
828.362000,3.024000,5,START g_bow,Transition,transition,transition D->G,D-G,up,0.174958,0.328363,0.641010,0.090297,-1.613000,-1.725000,0.781000,1.193918,-2.666719,-1.352554,-1.127213,2.394099,4.076463,0.000000,0.000000,0.000000,0.000000,0.000000,0.000000
828.370000,3.032000,5,START g_bow,Transition,transition,transition D->G,D-G,up,0.166958,0.328295,0.640707,0.090274,-1.613000,-1.725000,0.781000,1.193851,-2.666297,-1.353681,-1.126574,2.394071,4.076373,0.000000,0.000000,0.000000,0.000000,0.000000,0.000000
828.378000,3.040000,5,START g_bow,Transition,transition,transition D->G,D-G,up,0.158958,0.328221,0.640376,0.090249,-1.613000,-1.725000,0.781000,1.193777,-2.665836,-1.354914,-1.125875,2.394040,4.076275,0.000000,0.000000,0.000000,0.000000,0.000000,0.000000
828.386000,3.048000,5,START g_bow,Transition,transition,transition D->G,D-G,up,0.150958,0.328140,0.640016,0.090221,-1.613000,-1.725000,0.781000,1.193697,-2.665336,-1.356251,-1.125116,2.394007,4.076168,0.000000,0.000000,0.000000,0.000000,0.000000,0.000000
828.394000,3.056000,5,START g_bow,Transition,transition,transition D->G,D-G,up,0.142958,0.328053,0.639628,0.090191,-1.613000,-1.725000,0.781000,1.193611,-2.664798,-1.357692,-1.124297,2.393970,4.076053,0.000000,0.000000,0.000000,0.000000,0.000000,0.000000
828.402000,3.064000,5,START g_bow,Transition,transition,transition D->G,D-G,up,0.134958,0.327960,0.639211,0.090160,-1.613000,-1.725000,0.781000,1.193518,-2.664220,-1.359238,-1.123419,2.393931,4.075929,0.000000,0.000000,0.000000,0.000000,0.000000,0.000000
828.410000,3.072000,5,START g_bow,Transition,transition,transition D->G,D-G,up,0.126958,0.327860,0.638766,0.090126,-1.613000,-1.725000,0.781000,1.193419,-2.663604,-1.360888,-1.122482,2.393889,4.075797,0.000000,0.000000,0.000000,0.000000,0.000000,0.000000
828.418000,3.080000,5,START g_bow,Transition,transition,transition D->G,D-G,up,0.118958,0.327753,0.638292,0.090089,-1.613000,-1.725000,0.781000,1.193313,-2.662950,-1.362642,-1.121486,2.393845,4.075656,0.000000,0.000000,0.000000,0.000000,0.000000,0.000000
828.426000,3.088000,5,START g_bow,Transition,transition,transition D->G,D-G,up,0.110958,0.327641,0.637789,0.090051,-1.613000,-1.725000,0.781000,1.193201,-2.662259,-1.364499,-1.120431,2.393798,4.075506,0.000000,0.000000,0.000000,0.000000,0.000000,0.000000
828.434000,3.096000,5,START g_bow,Transition,transition,transition D->G,D-G,up,0.102958,0.327521,0.637259,0.090010,-1.613000,-1.725000,0.781000,1.193082,-2.661529,-1.366458,-1.119317,2.393748,4.075348,0.000000,0.000000,0.000000,0.000000,0.000000,0.000000
828.442000,3.104000,5,START g_bow,Transition,transition,transition D->G,D-G,up,0.094958,0.327396,0.636699,0.089968,-1.613000,-1.725000,0.781000,1.192957,-2.660762,-1.368520,-1.118145,2.393695,4.075180,0.000000,0.000000,0.000000,0.000000,0.000000,0.000000
828.450000,3.112000,5,START g_bow,Transition,transition,transition D->G,D-G,up,0.086958,0.327264,0.636111,0.089923,-1.613000,-1.725000,0.781000,1.192825,-2.659957,-1.370684,-1.116914,2.393639,4.075005,0.000000,0.000000,0.000000,0.000000,0.000000,0.000000
828.458000,3.120000,5,START g_bow,Transition,transition,transition D->G,D-G,up,0.078958,0.327126,0.635495,0.089876,-1.613000,-1.725000,0.781000,1.192686,-2.659116,-1.372949,-1.115626,2.393581,4.074820,0.000000,0.000000,0.000000,0.000000,0.000000,0.000000
828.466000,3.128000,5,START g_bow,Transition,transition,transition D->G,D-G,up,0.070958,0.326981,0.634850,0.089826,-1.613000,-1.725000,0.781000,1.192541,-2.658238,-1.375316,-1.114279,2.393520,4.074626,0.000000,0.000000,0.000000,0.000000,0.000000,0.000000
828.474000,3.136000,5,START g_bow,Transition,transition,transition D->G,D-G,up,0.062958,0.326830,0.634177,0.089775,-1.613000,-1.725000,0.781000,1.192389,-2.657324,-1.377783,-1.112875,2.393455,4.074424,0.000000,0.000000,0.000000,0.000000,0.000000,0.000000
828.482000,3.144000,5,START g_bow,Transition,transition,transition D->G,D-G,up,0.054958,0.326672,0.633475,0.089721,-1.613000,-1.725000,0.781000,1.192230,-2.656374,-1.380350,-1.111413,2.393388,4.074212,0.000000,0.000000,0.000000,0.000000,0.000000,0.000000
828.490000,3.152000,5,START g_bow,Transition,transition,transition D->G,D-G,up,0.046958,0.326508,0.632745,0.089665,-1.613000,-1.725000,0.781000,1.192065,-2.655387,-1.383017,-1.109894,2.393319,4.073992,0.000000,0.000000,0.000000,0.000000,0.000000,0.000000
828.498000,3.160000,5,START g_bow,Transition,transition,transition D->G,D-G,up,0.038958,0.326338,0.631986,0.089607,-1.613000,-1.725000,0.781000,1.191893,-2.654366,-1.385783,-1.108317,2.393246,4.073762,0.000000,0.000000,0.000000,0.000000,0.000000,0.000000
828.506000,3.168000,5,START g_bow,Transition,transition,transition D->G,D-G,up,0.030958,0.326161,0.631198,0.089547,-1.613000,-1.725000,0.781000,1.191714,-2.653309,-1.388648,-1.106684,2.393170,4.073524,0.000000,0.000000,0.000000,0.000000,0.000000,0.000000
828.514000,3.176000,5,START g_bow,Transition,transition,transition D->G,D-G,up,0.022958,0.325978,0.630383,0.089485,-1.613000,-1.725000,0.781000,1.191528,-2.652218,-1.391610,-1.104995,2.393092,4.073276,0.000000,0.000000,0.000000,0.000000,0.000000,0.000000
828.522000,3.184000,5,START g_bow,Transition,transition,transition D->G,D-G,up,0.014958,0.325789,0.629538,0.089420,-1.613000,-1.725000,0.781000,1.191335,-2.651092,-1.394670,-1.103249,2.393010,4.073019,0.000000,0.000000,0.000000,0.000000,0.000000,0.000000
828.530000,3.192000,5,START g_bow,Transition,transition,transition D->G,D-G,up,0.006958,0.325593,0.628665,0.089354,-1.613000,-1.725000,0.781000,1.191135,-2.649933,-1.397826,-1.101447,2.392925,4.072753,0.000000,0.000000,0.000000,0.000000,0.000000,0.000000
828.538000,3.200000,5,START g_bow,Note,47,B2,G,up,0.798958,0.325397,0.627792,0.089287,-1.613000,-1.725000,0.781000,1.190934,-2.648777,-1.400977,-1.099648,2.392841,4.072486,0.000000,0.000000,0.000000,0.000000,0.000000,0.000000
828.546000,3.208000,5,START g_bow,Note,47,B2,G,up,0.790958,0.325207,0.626948,0.089222,-1.613000,-1.725000,0.781000,1.190740,-2.647663,-1.404018,-1.097910,2.392758,4.072227,0.000000,0.000000,0.000000,0.000000,0.000000,0.000000
828.554000,3.216000,5,START g_bow,Note,47,B2,G,up,0.782958,0.325024,0.626132,0.089160,-1.613000,-1.725000,0.781000,1.190551,-2.646591,-1.406950,-1.096234,2.392679,4.071977,0.000000,0.000000,0.000000,0.000000,0.000000,0.000000
828.562000,3.224000,5,START g_bow,Note,47,B2,G,up,0.774958,0.324848,0.625345,0.089100,-1.613000,-1.725000,0.781000,1.190369,-2.645559,-1.409775,-1.094618,2.392601,4.071734,0.000000,0.000000,0.000000,0.000000,0.000000,0.000000
828.570000,3.232000,5,START g_bow,Note,47,B2,G,up,0.766958,0.324677,0.624586,0.089042,-1.613000,-1.725000,0.781000,1.190193,-2.644567,-1.412493,-1.093064,2.392527,4.071500,0.000000,0.000000,0.000000,0.000000,0.000000,0.000000
828.578000,3.240000,5,START g_bow,Note,47,B2,G,up,0.758958,0.324513,0.623856,0.088986,-1.613000,-1.725000,0.781000,1.190024,-2.643616,-1.415104,-1.091569,2.392455,4.071275,0.000000,0.000000,0.000000,0.000000,0.000000,0.000000
828.586000,3.248000,5,START g_bow,Note,47,B2,G,up,0.750958,0.324356,0.623154,0.088932,-1.613000,-1.725000,0.781000,1.189860,-2.642704,-1.417609,-1.090135,2.392386,4.071057,0.000000,0.000000,0.000000,0.000000,0.000000,0.000000
828.594000,3.256000,5,START g_bow,Note,47,B2,G,up,0.742958,0.324205,0.622480,0.088881,-1.613000,-1.725000,0.781000,1.189703,-2.641832,-1.420008,-1.088761,2.392319,4.070849,0.000000,0.000000,0.000000,0.000000,0.000000,0.000000
828.602000,3.264000,5,START g_bow,Note,47,B2,G,up,0.734958,0.324060,0.621836,0.088832,-1.613000,-1.725000,0.781000,1.189553,-2.640999,-1.422303,-1.087446,2.392255,4.070648,0.000000,0.000000,0.000000,0.000000,0.000000,0.000000
828.610000,3.272000,5,START g_bow,Note,47,B2,G,up,0.726958,0.323922,0.621219,0.088784,-1.613000,-1.725000,0.781000,1.189408,-2.640204,-1.424492,-1.086191,2.392194,4.070457,0.000000,0.000000,0.000000,0.000000,0.000000,0.000000
828.618000,3.280000,5,START g_bow,Note,47,B2,G,up,0.718958,0.323790,0.620631,0.088739,-1.613000,-1.725000,0.781000,1.189271,-2.639449,-1.426578,-1.084995,2.392135,4.070273,0.000000,0.000000,0.000000,0.000000,0.000000,0.000000
828.626000,3.288000,5,START g_bow,Note,47,B2,G,up,0.710958,0.323664,0.620072,0.088697,-1.613000,-1.725000,0.781000,1.189139,-2.638731,-1.428560,-1.083858,2.392079,4.070099,0.000000,0.000000,0.000000,0.000000,0.000000,0.000000
828.634000,3.296000,5,START g_bow,Note,47,B2,G,up,0.702958,0.323545,0.619541,0.088656,-1.613000,-1.725000,0.781000,1.189014,-2.638052,-1.430439,-1.082781,2.392026,4.069933,0.000000,0.000000,0.000000,0.000000,0.000000,0.000000
828.642000,3.304000,5,START g_bow,Note,47,B2,G,up,0.694958,0.323432,0.619039,0.088618,-1.613000,-1.725000,0.781000,1.188896,-2.637410,-1.432214,-1.081762,2.391976,4.069776,0.000000,0.000000,0.000000,0.000000,0.000000,0.000000
828.650000,3.312000,5,START g_bow,Note,47,B2,G,up,0.686958,0.323326,0.618565,0.088582,-1.613000,-1.725000,0.781000,1.188784,-2.636806,-1.433887,-1.080801,2.391929,4.069627,0.000000,0.000000,0.000000,0.000000,0.000000,0.000000
828.658000,3.320000,5,START g_bow,Note,47,B2,G,up,0.678958,0.323226,0.618120,0.088547,-1.613000,-1.725000,0.781000,1.188679,-2.636239,-1.435458,-1.079899,2.391884,4.069487,0.000000,0.000000,0.000000,0.000000,0.000000,0.000000
828.666000,3.328000,5,START g_bow,Note,47,B2,G,up,0.670958,0.323132,0.617703,0.088516,-1.613000,-1.725000,0.781000,1.188580,-2.635710,-1.436927,-1.079056,2.391842,4.069357,0.000000,0.000000,0.000000,0.000000,0.000000,0.000000
828.674000,3.336000,5,START g_bow,Note,47,B2,G,up,0.662958,0.323045,0.617315,0.088486,-1.613000,-1.725000,0.781000,1.188488,-2.635218,-1.438294,-1.078271,2.391803,4.069234,0.000000,0.000000,0.000000,0.000000,0.000000,0.000000
828.682000,3.344000,5,START g_bow,Note,47,B2,G,up,0.654958,0.322965,0.616955,0.088458,-1.613000,-1.725000,0.781000,1.188403,-2.634762,-1.439560,-1.077543,2.391767,4.069121,0.000000,0.000000,0.000000,0.000000,0.000000,0.000000
828.690000,3.352000,5,START g_bow,Note,47,B2,G,up,0.646958,0.322890,0.616623,0.088433,-1.613000,-1.725000,0.781000,1.188325,-2.634343,-1.440725,-1.076874,2.391733,4.069017,0.000000,0.000000,0.000000,0.000000,0.000000,0.000000
828.698000,3.360000,5,START g_bow,Note,47,B2,G,up,0.638958,0.322822,0.616321,0.088410,-1.613000,-1.725000,0.781000,1.188253,-2.633960,-1.441788,-1.076263,2.391703,4.068921,0.000000,0.000000,0.000000,0.000000,0.000000,0.000000
828.706000,3.368000,5,START g_bow,Note,47,B2,G,up,0.630958,0.322761,0.616046,0.088389,-1.613000,-1.725000,0.781000,1.188187,-2.633614,-1.442751,-1.075709,2.391675,4.068835,0.000000,0.000000,0.000000,0.000000,0.000000,0.000000
828.714000,3.376000,5,START g_bow,Note,47,B2,G,up,0.622958,0.322706,0.615800,0.088370,-1.613000,-1.725000,0.781000,1.188129,-2.633305,-1.443614,-1.075213,2.391650,4.068757,0.000000,0.000000,0.000000,0.000000,0.000000,0.000000
828.722000,3.384000,5,START g_bow,Note,47,B2,G,up,0.614958,0.322657,0.615583,0.088354,-1.613000,-1.725000,0.781000,1.188077,-2.633031,-1.444376,-1.074775,2.391628,4.068688,0.000000,0.000000,0.000000,0.000000,0.000000,0.000000
828.730000,3.392000,5,START g_bow,Note,47,B2,G,up,0.606958,0.322614,0.615394,0.088339,-1.613000,-1.725000,0.781000,1.188032,-2.632793,-1.445037,-1.074395,2.391609,4.068629,0.000000,0.000000,0.000000,0.000000,0.000000,0.000000
828.738000,3.400000,5,START g_bow,Note,47,B2,G,up,0.598958,0.322578,0.615234,0.088327,-1.613000,-1.725000,0.781000,1.187994,-2.632592,-1.445599,-1.074072,2.391592,4.068578,0.000000,0.000000,0.000000,0.000000,0.000000,0.000000
828.746000,3.408000,5,START g_bow,Note,47,B2,G,up,0.590958,0.322549,0.615102,0.088317,-1.613000,-1.725000,0.781000,1.187963,-2.632426,-1.446061,-1.073806,2.391579,4.068536,0.000000,0.000000,0.000000,0.000000,0.000000,0.000000
828.754000,3.416000,5,START g_bow,Note,47,B2,G,up,0.582958,0.322526,0.614999,0.088309,-1.613000,-1.725000,0.781000,1.187938,-2.632297,-1.446422,-1.073598,2.391569,4.068504,0.000000,0.000000,0.000000,0.000000,0.000000,0.000000
828.762000,3.424000,5,START g_bow,Note,47,B2,G,up,0.574958,0.322509,0.614924,0.088303,-1.613000,-1.725000,0.781000,1.187920,-2.632203,-1.446684,-1.073447,2.391561,4.068480,0.000000,0.000000,0.000000,0.000000,0.000000,0.000000
828.770000,3.432000,5,START g_bow,Note,47,B2,G,up,0.566958,0.322498,0.614878,0.088300,-1.613000,-1.725000,0.781000,1.187909,-2.632144,-1.446846,-1.073354,2.391556,4.068465,0.000000,0.000000,0.000000,0.000000,0.000000,0.000000
