Praneshv25/Robot-Cello-RL/Data-Files/URSim-Data/perpetual-bowings-sim.csv
timestamp_robot,time_elapsed_sec,event_flag,event_label,current_event_type,current_note_number,current_note_name,current_string,current_bowing,remaining_duration_sec,TCP_pose_x,TCP_pose_y,TCP_pose_z,TCP_pose_rx,TCP_pose_ry,TCP_pose_rz,q_base,q_shoulder,q_elbow,q_wrist1,q_wrist2,q_wrist3,TCP_force_x,TCP_force_y,TCP_force_z,TCP_force_rx,TCP_force_ry,TCP_force_rz
1174.378000,0.000000,3,START d_bow,Note,50,D3,D,up,0.248958,0.387924,0.689575,0.082284,-1.300458,-1.807279,1.083030,1.165691,-2.840312,-0.881876,-1.894656,2.338576,3.596425,0.000000,0.000000,0.000000,0.000000,0.000000,0.000000
1174.386000,0.008000,3,START d_bow,Note,50,D3,D,up,0.240958,0.387930,0.688656,0.082291,-1.300458,-1.807279,1.083030,1.165229,-2.838343,-0.886211,-1.892565,2.338213,3.596028,0.000000,0.000000,0.000000,0.000000,0.000000,0.000000
1174.394000,0.016000,3,START d_bow,Note,50,D3,D,up,0.232958,0.387936,0.687706,0.082297,-1.300458,-1.807279,1.083030,1.164750,-2.836319,-0.890670,-1.890415,2.337836,3.595617,0.000000,0.000000,0.000000,0.000000,0.000000,0.000000
1174.402000,0.024000,3,START d_bow,Note,50,D3,D,up,0.224958,0.387941,0.686756,0.082304,-1.300458,-1.807279,1.083030,1.164271,-2.834306,-0.895107,-1.888277,2.337459,3.595206,0.000000,0.000000,0.000000,0.000000,0.000000,0.000000
1174.410000,0.032000,3,START d_bow,Note,50,D3,D,up,0.216958,0.387947,0.685838,0.082310,-1.300458,-1.807279,1.083030,1.163806,-2.832369,-0.899377,-1.886220,2.337093,3.594807,0.000000,0.000000,0.000000,0.000000,0.000000,0.000000
1174.418000,0.040000,3,START d_bow,Note,50,D3,D,up,0.208958,0.387952,0.684950,0.082316,-1.300458,-1.807279,1.083030,1.163356,-2.830508,-0.903483,-1.884242,2.336739,3.594422,0.000000,0.000000,0.000000,0.000000,0.000000,0.000000
1174.426000,0.048000,3,START d_bow,Note,50,D3,D,up,0.200958,0.387957,0.684093,0.082322,-1.300458,-1.807279,1.083030,1.162920,-2.828720,-0.907428,-1.882343,2.336396,3.594049,0.000000,0.000000,0.000000,0.000000,0.000000,0.000000
1174.434000,0.056000,3,START d_bow,Note,50,D3,D,up,0.192958,0.387962,0.683267,0.082328,-1.300458,-1.807279,1.083030,1.162500,-2.827005,-0.911214,-1.880522,2.336065,3.593690,0.000000,0.000000,0.000000,0.000000,0.000000,0.000000
1174.442000,0.064000,3,START d_bow,Note,50,D3,D,up,0.184958,0.387967,0.682472,0.082333,-1.300458,-1.807279,1.083030,1.162095,-2.825362,-0.914842,-1.878777,2.335746,3.593343,0.000000,0.000000,0.000000,0.000000,0.000000,0.000000
1174.450000,0.072000,3,START d_bow,Note,50,D3,D,up,0.176958,0.387971,0.681708,0.082338,-1.300458,-1.807279,1.083030,1.161705,-2.823790,-0.918315,-1.877107,2.335439,3.593010,0.000000,0.000000,0.000000,0.000000,0.000000,0.000000
1174.458000,0.080000,3,START d_bow,Note,50,D3,D,up,0.168958,0.387975,0.680975,0.082343,-1.300458,-1.807279,1.083030,1.161330,-2.822288,-0.921634,-1.875511,2.335144,3.592690,0.000000,0.000000,0.000000,0.000000,0.000000,0.000000
1174.466000,0.088000,3,START d_bow,Note,50,D3,D,up,0.160958,0.387980,0.680274,0.082348,-1.300458,-1.807279,1.083030,1.160970,-2.820855,-0.924801,-1.873989,2.334860,3.592383,0.000000,0.000000,0.000000,0.000000,0.000000,0.000000
1174.474000,0.096000,3,START d_bow,Note,50,D3,D,up,0.152958,0.387984,0.679603,0.082353,-1.300458,-1.807279,1.083030,1.160626,-2.819490,-0.927818,-1.872540,2.334589,3.592090,0.000000,0.000000,0.000000,0.000000,0.000000,0.000000
1174.482000,0.104000,3,START d_bow,Note,50,D3,D,up,0.144958,0.387987,0.678963,0.082357,-1.300458,-1.807279,1.083030,1.160297,-2.818194,-0.930686,-1.871162,2.334330,3.591809,0.000000,0.000000,0.000000,0.000000,0.000000,0.000000
1174.490000,0.112000,3,START d_bow,Note,50,D3,D,up,0.136958,0.387991,0.678354,0.082362,-1.300458,-1.807279,1.083030,1.159984,-2.816964,-0.933407,-1.869856,2.334083,3.591542,0.000000,0.000000,0.000000,0.000000,0.000000,0.000000
1174.498000,0.120000,3,START d_bow,Note,50,D3,D,up,0.128958,0.387994,0.677777,0.082365,-1.300458,-1.807279,1.083030,1.159686,-2.815800,-0.935981,-1.868620,2.333848,3.591289,0.000000,0.000000,0.000000,0.000000,0.000000,0.000000
1174.506000,0.128000,3,START d_bow,Note,50,D3,D,up,0.120958,0.387998,0.677230,0.082369,-1.300458,-1.807279,1.083030,1.159404,-2.814703,-0.938411,-1.867454,2.333626,3.591049,0.000000,0.000000,0.000000,0.000000,0.000000,0.000000
1174.514000,0.136000,3,START d_bow,Note,50,D3,D,up,0.112958,0.388001,0.676714,0.082373,-1.300458,-1.807279,1.083030,1.159137,-2.813670,-0.940697,-1.866357,2.333416,3.590822,0.000000,0.000000,0.000000,0.000000,0.000000,0.000000
1174.522000,0.144000,3,START d_bow,Note,50,D3,D,up,0.104958,0.388004,0.676230,0.082376,-1.300458,-1.807279,1.083030,1.158887,-2.812703,-0.942840,-1.865329,2.333218,3.590609,0.000000,0.000000,0.000000,0.000000,0.000000,0.000000
1174.530000,0.152000,3,START d_bow,Note,50,D3,D,up,0.096958,0.388006,0.675776,0.082379,-1.300458,-1.807279,1.083030,1.158652,-2.811799,-0.944841,-1.864369,2.333033,3.590409,0.000000,0.000000,0.000000,0.000000,0.000000,0.000000
1174.538000,0.160000,3,START d_bow,Note,50,D3,D,up,0.088958,0.388009,0.675353,0.082382,-1.300458,-1.807279,1.083030,1.158433,-2.810959,-0.946702,-1.863477,2.332860,3.590223,0.000000,0.000000,0.000000,0.000000,0.000000,0.000000
1174.546000,0.168000,3,START d_bow,Note,50,D3,D,up,0.080958,0.388011,0.674962,0.082385,-1.300458,-1.807279,1.083030,1.158229,-2.810183,-0.948423,-1.862652,2.332700,3.590050,0.000000,0.000000,0.000000,0.000000,0.000000,0.000000
1174.554000,0.176000,3,START d_bow,Note,50,D3,D,up,0.072958,0.388013,0.674601,0.082387,-1.300458,-1.807279,1.083030,1.158042,-2.809469,-0.950004,-1.861894,2.332552,3.589891,0.000000,0.000000,0.000000,0.000000,0.000000,0.000000
1174.562000,0.184000,3,START d_bow,Note,50,D3,D,up,0.064958,0.388015,0.674272,0.082390,-1.300458,-1.807279,1.083030,1.157871,-2.808818,-0.951448,-1.861202,2.332417,3.589746,0.000000,0.000000,0.000000,0.000000,0.000000,0.000000
1174.570000,0.192000,3,START d_bow,Note,50,D3,D,up,0.056958,0.388017,0.673973,0.082392,-1.300458,-1.807279,1.083030,1.157716,-2.808229,-0.952753,-1.860577,2.332295,3.589614,0.000000,0.000000,0.000000,0.000000,0.000000,0.000000
1174.578000,0.200000,3,START d_bow,Note,50,D3,D,up,0.048958,0.388019,0.673705,0.082394,-1.300458,-1.807279,1.083030,1.157577,-2.807702,-0.953921,-1.860017,2.332185,3.589496,0.000000,0.000000,0.000000,0.000000,0.000000,0.000000
1174.586000,0.208000,3,START d_bow,Note,50,D3,D,up,0.040958,0.388020,0.673469,0.082395,-1.300458,-1.807279,1.083030,1.157453,-2.807237,-0.954953,-1.859523,2.332088,3.589391,0.000000,0.000000,0.000000,0.000000,0.000000,0.000000
1174.634000,0.256000,3,START d_bow,Note,52,E3,D,up,0.242958,0.388025,0.672701,0.082400,-1.300458,-1.807279,1.083030,1.157053,-2.805731,-0.958293,-1.857922,2.331772,3.589052,0.000000,0.000000,0.000000,0.000000,0.000000,0.000000
1174.642000,0.264000,3,START d_bow,Note,52,E3,D,up,0.234958,0.388025,0.672682,0.082401,-1.300458,-1.807279,1.083030,1.157043,-2.805693,-0.958377,-1.857882,2.331764,3.589043,0.000000,0.000000,0.000000,0.000000,0.000000,0.000000
1174.650000,0.272000,4,END d_bow,Note,52,E3,D,up,0.226958,0.388025,0.672682,0.082401,-1.300458,-1.807279,1.083030,1.157043,-2.805692,-0.958378,-1.857881,2.331764,3.589043,0.000000,0.000000,0.000000,0.000000,0.000000,0.000000
1174.658000,0.280000,4,END d_bow,Note,52,E3,D,up,0.218958,0.388025,0.672682,0.082401,-1.300458,-1.807279,1.083030,1.157043,-2.805692,-0.958378,-1.857881,2.331764,3.589043,0.000000,0.000000,0.000000,0.000000,0.000000,0.000000
1174.666000,0.288000,4,END d_bow,Note,52,E3,D,up,0.210958,0.388025,0.672682,0.082401,-1.300458,-1.807279,1.083030,1.157043,-2.805692,-0.958378,-1.857881,2.331764,3.589043,0.000000,0.000000,0.000000,0.000000,0.000000,0.000000
1174.674000,0.296000,3,START d_bow,Note,52,E3,D,down,0.202958,0.388025,0.672684,0.082401,-1.300458,-1.807279,1.083030,1.157044,-2.805697,-0.958369,-1.857886,2.331765,3.589044,0.000000,0.000000,0.000000,0.000000,0.000000,0.000000
1174.682000,0.304000,3,START d_bow,Note,52,E3,D,down,0.194958,0.388024,0.672711,0.082400,-1.300458,-1.807279,1.083030,1.157058,-2.805750,-0.958251,-1.857942,2.331776,3.589056,0.000000,0.000000,0.000000,0.000000,0.000000,0.000000
1174.690000,0.312000,3,START d_bow,Note,52,E3,D,down,0.186958,0.388024,0.672769,0.082400,-1.300458,-1.807279,1.083030,1.157089,-2.805864,-0.957998,-1.858064,2.331800,3.589082,0.000000,0.000000,0.000000,0.000000,0.000000,0.000000
1174.698000,0.320000,3,START d_bow,Note,52,E3,D,down,0.178958,0.388024,0.672858,0.082399,-1.300458,-1.807279,1.083030,1.157135,-2.806038,-0.957611,-1.858249,2.331837,3.589121,0.000000,0.000000,0.000000,0.000000,0.000000,0.000000
1174.706000,0.328000,3,START d_bow,Note,52,E3,D,down,0.170958,0.388023,0.672978,0.082399,-1.300458,-1.807279,1.083030,1.157198,-2.806274,-0.957088,-1.858499,2.331886,3.589175,0.000000,0.000000,0.000000,0.000000,0.000000,0.000000
1174.714000,0.336000,3,START d_bow,Note,52,E3,D,down,0.162958,0.388022,0.673130,0.082397,-1.300458,-1.807279,1.083030,1.157277,-2.806571,-0.956430,-1.858815,2.331948,3.589241,0.000000,0.000000,0.000000,0.000000,0.000000,0.000000
1174.722000,0.344000,3,START d_bow,Note,52,E3,D,down,0.154958,0.388021,0.673312,0.082396,-1.300458,-1.807279,1.083030,1.157372,-2.806928,-0.955637,-1.859195,2.332023,3.589322,0.000000,0.000000,0.000000,0.000000,0.000000,0.000000
1174.730000,0.352000,3,START d_bow,Note,52,E3,D,down,0.146958,0.388020,0.673525,0.082395,-1.300458,-1.807279,1.083030,1.157483,-2.807347,-0.954708,-1.859640,2.332111,3.589416,0.000000,0.000000,0.000000,0.000000,0.000000,0.000000
1174.738000,0.360000,3,START d_bow,Note,52,E3,D,down,0.138958,0.388018,0.673769,0.082393,-1.300458,-1.807279,1.083030,1.157610,-2.807828,-0.953642,-1.860151,2.332211,3.589524,0.000000,0.000000,0.000000,0.000000,0.000000,0.000000
1174.746000,0.368000,3,START d_bow,Note,52,E3,D,down,0.130958,0.388017,0.674045,0.082391,-1.300458,-1.807279,1.083030,1.157753,-2.808370,-0.952439,-1.860727,2.332324,3.589646,0.000000,0.000000,0.000000,0.000000,0.000000,0.000000
1174.754000,0.376000,3,START d_bow,Note,52,E3,D,down,0.122958,0.388015,0.674351,0.082389,-1.300458,-1.807279,1.083030,1.157912,-2.808975,-0.951100,-1.861369,2.332450,3.589781,0.000000,0.000000,0.000000,0.000000,0.000000,0.000000
1174.762000,0.384000,3,START d_bow,Note,52,E3,D,down,0.114958,0.388013,0.674688,0.082387,-1.300458,-1.807279,1.083030,1.158088,-2.809642,-0.949622,-1.862077,2.332588,3.589930,0.000000,0.000000,0.000000,0.000000,0.000000,0.000000
1174.770000,0.392000,3,START d_bow,Note,52,E3,D,down,0.106958,0.388011,0.675057,0.082384,-1.300458,-1.807279,1.083030,1.158279,-2.810371,-0.948006,-1.862852,2.332739,3.590092,0.000000,0.000000,0.000000,0.000000,0.000000,0.000000
1174.778000,0.400000,3,START d_bow,Note,52,E3,D,down,0.098958,0.388008,0.675456,0.082381,-1.300458,-1.807279,1.083030,1.158486,-2.811163,-0.946250,-1.863694,2.332902,3.590268,0.000000,0.000000,0.000000,0.000000,0.000000,0.000000
1174.786000,0.408000,3,START d_bow,Note,52,E3,D,down,0.090958,0.388006,0.675886,0.082379,-1.300458,-1.807279,1.083030,1.158709,-2.812019,-0.944354,-1.864603,2.333078,3.590458,0.000000,0.000000,0.000000,0.000000,0.000000,0.000000
1174.794000,0.416000,3,START d_bow,Note,52,E3,D,down,0.082958,0.388003,0.676348,0.082375,-1.300458,-1.807279,1.083030,1.158948,-2.812939,-0.942317,-1.865580,2.333266,3.590661,0.000000,0.000000,0.000000,0.000000,0.000000,0.000000
1174.802000,0.424000,3,START d_bow,Note,52,E3,D,down,0.074958,0.388000,0.676840,0.082372,-1.300458,-1.807279,1.083030,1.159202,-2.813922,-0.940139,-1.866625,2.333467,3.590877,0.000000,0.000000,0.000000,0.000000,0.000000,0.000000
1174.810000,0.432000,3,START d_bow,Note,52,E3,D,down,0.066958,0.387997,0.677364,0.082368,-1.300458,-1.807279,1.083030,1.159473,-2.814971,-0.937817,-1.867739,2.333680,3.591107,0.000000,0.000000,0.000000,0.000000,0.000000,0.000000
1174.818000,0.440000,3,START d_bow,Note,52,E3,D,down,0.058958,0.387994,0.677918,0.082365,-1.300458,-1.807279,1.083030,1.159759,-2.816085,-0.935351,-1.868922,2.333906,3.591351,0.000000,0.000000,0.000000,0.000000,0.000000,0.000000
1174.826000,0.448000,3,START d_bow,Note,52,E3,D,down,0.050958,0.387990,0.678504,0.082360,-1.300458,-1.807279,1.083030,1.160060,-2.817265,-0.932741,-1.870176,2.334144,3.591608,0.000000,0.000000,0.000000,0.000000,0.000000,0.000000
1174.834000,0.456000,3,START d_bow,Note,52,E3,D,down,0.042958,0.387986,0.679120,0.082356,-1.300458,-1.807279,1.083030,1.160378,-2.818511,-0.929983,-1.871500,2.334394,3.591878,0.000000,0.000000,0.000000,0.000000,0.000000,0.000000
1174.842000,0.464000,3,START d_bow,Note,52,E3,D,down,0.034958,0.387983,0.679768,0.082352,-1.300458,-1.807279,1.083030,1.160710,-2.819825,-0.927078,-1.872895,2.334656,3.592162,0.000000,0.000000,0.000000,0.000000,0.000000,0.000000
1174.850000,0.472000,3,START d_bow,Note,52,E3,D,down,0.026958,0.387979,0.680446,0.082347,-1.300458,-1.807279,1.083030,1.161058,-2.821206,-0.924024,-1.874363,2.334930,3.592459,0.000000,0.000000,0.000000,0.000000,0.000000,0.000000
1174.858000,0.480000,3,START d_bow,Note,52,E3,D,down,0.018958,0.387974,0.681156,0.082342,-1.300458,-1.807279,1.083030,1.161422,-2.822657,-0.920819,-1.875903,2.335216,3.592769,0.000000,0.000000,0.000000,0.000000,0.000000,0.000000
1174.866000,0.488000,3,START d_bow,Note,52,E3,D,down,0.010958,0.387970,0.681896,0.082337,-1.300458,-1.807279,1.083030,1.161801,-2.824176,-0.917461,-1.877517,2.335515,3.593092,0.000000,0.000000,0.000000,0.000000,0.000000,0.000000
1174.874000,0.496000,3,START d_bow,Note,52,E3,D,down,0.002958,0.387965,0.682668,0.082332,-1.300458,-1.807279,1.083030,1.162195,-2.825766,-0.913950,-1.879206,2.335825,3.593429,0.000000,0.000000,0.000000,0.000000,0.000000,0.000000
1174.882000,0.504000,3,START d_bow,Note,54,F#3,D,down,0.244958,0.387961,0.683470,0.082326,-1.300458,-1.807279,1.083030,1.162604,-2.827427,-0.910282,-1.880970,2.336147,3.593778,0.000000,0.000000,0.000000,0.000000,0.000000,0.000000
1174.890000,0.512000,3,START d_bow,Note,54,F#3,D,down,0.236958,0.387956,0.684304,0.082321,-1.300458,-1.807279,1.083030,1.163028,-2.829160,-0.906457,-1.882811,2.336481,3.594141,0.000000,0.000000,0.000000,0.000000,0.000000,0.000000
1174.898000,0.520000,3,START d_bow,Note,54,F#3,D,down,0.228958,0.387951,0.685169,0.082315,-1.300458,-1.807279,1.083030,1.163467,-2.830966,-0.902472,-1.884729,2.336826,3.594517,0.000000,0.000000,0.000000,0.000000,0.000000,0.000000
1174.906000,0.528000,3,START d_bow,Note,54,F#3,D,down,0.220958,0.387945,0.686064,0.082308,-1.300458,-1.807279,1.083030,1.163921,-2.832846,-0.898325,-1.886727,2.337183,3.594906,0.000000,0.000000,0.000000,0.000000,0.000000,0.000000
1174.914000,0.536000,3,START d_bow,Note,54,F#3,D,down,0.212958,0.387940,0.686991,0.082302,-1.300458,-1.807279,1.083030,1.164389,-2.834802,-0.894013,-1.888804,2.337552,3.595307,0.000000,0.000000,0.000000,0.000000,0.000000,0.000000
1174.922000,0.544000,3,START d_bow,Note,54,F#3,D,down,0.204958,0.387934,0.687947,0.082295,-1.300458,-1.807279,1.083030,1.164872,-2.836830,-0.889544,-1.890958,2.337931,3.595721,0.000000,0.000000,0.000000,0.000000,0.000000,0.000000
1174.930000,0.552000,3,START d_bow,Note,54,F#3,D,down,0.196958,0.387928,0.688889,0.082289,-1.300458,-1.807279,1.083030,1.165346,-2.838840,-0.885116,-1.893093,2.338305,3.596129,0.000000,0.000000,0.000000,0.000000,0.000000,0.000000
1174.938000,0.560000,3,START d_bow,Note,54,F#3,D,down,0.188958,0.387923,0.689800,0.082283,-1.300458,-1.807279,1.083030,1.165804,-2.840795,-0.880812,-1.895169,2.338665,3.596522,0.000000,0.000000,0.000000,0.000000,0.000000,0.000000
1174.946000,0.568000,3,START d_bow,Note,54,F#3,D,down,0.180958,0.387918,0.690680,0.082277,-1.300458,-1.807279,1.083030,1.166246,-2.842693,-0.876634,-1.897185,2.339012,3.596901,0.000000,0.000000,0.000000,0.000000,0.000000,0.000000
1174.954000,0.576000,3,START d_bow,Note,54,F#3,D,down,0.172958,0.387913,0.691529,0.082271,-1.300458,-1.807279,1.083030,1.166671,-2.844534,-0.872584,-1.899140,2.339346,3.597267,0.000000,0.000000,0.000000,0.000000,0.000000,0.000000
1174.962000,0.584000,3,START d_bow,Note,54,F#3,D,down,0.164958,0.387908,0.692348,0.082265,-1.300458,-1.807279,1.083030,1.167080,-2.846317,-0.868663,-1.901034,2.339667,3.597619,0.000000,0.000000,0.000000,0.000000,0.000000,0.000000
1174.970000,0.592000,3,START d_bow,Note,54,F#3,D,down,0.156958,0.387903,0.693135,0.082260,-1.300458,-1.807279,1.083030,1.167472,-2.848040,-0.864874,-1.902864,2.339975,3.597957,0.000000,0.000000,0.000000,0.000000,0.000000,0.000000
1174.978000,0.600000,3,START d_bow,Note,54,F#3,D,down,0.148958,0.387899,0.693891,0.082255,-1.300458,-1.807279,1.083030,1.167849,-2.849704,-0.861219,-1.904630,2.340271,3.598282,0.000000,0.000000,0.000000,0.000000,0.000000,0.000000
1174.986000,0.608000,3,START d_bow,Note,54,F#3,D,down,0.140958,0.387895,0.694616,0.082250,-1.300458,-1.807279,1.083030,1.168209,-2.851306,-0.857698,-1.906332,2.340554,3.598592,0.000000,0.000000,0.000000,0.000000,0.000000,0.000000
1174.994000,0.616000,3,START d_bow,Note,54,F#3,D,down,0.132958,0.387890,0.695310,0.082245,-1.300458,-1.807279,1.083030,1.168554,-2.852846,-0.854315,-1.907969,2.340824,3.598889,0.000000,0.000000,0.000000,0.000000,0.000000,0.000000
1175.010000,0.632000,3,START d_bow,Note,54,F#3,D,down,0.116958,0.387883,0.696605,0.082236,-1.300458,-1.807279,1.083030,1.169195,-2.855739,-0.847964,-1.911041,2.341328,3.599443,0.000000,0.000000,0.000000,0.000000,0.000000,0.000000
1175.018000,0.640000,3,START d_bow,Note,54,F#3,D,down,0.108958,0.387879,0.697206,0.082232,-1.300458,-1.807279,1.083030,1.169492,-2.857090,-0.845001,-1.912475,2.341561,3.599700,0.000000,0.000000,0.000000,0.000000,0.000000,0.000000
1175.026000,0.648000,3,START d_bow,Note,54,F#3,D,down,0.100958,0.387876,0.697776,0.082228,-1.300458,-1.807279,1.083030,1.169773,-2.858375,-0.842180,-1.913841,2.341782,3.599943,0.000000,0.000000,0.000000,0.000000,0.000000,0.000000
1175.034000,0.656000,3,START d_bow,Note,54,F#3,D,down,0.092958,0.387873,0.698315,0.082224,-1.300458,-1.807279,1.083030,1.170039,-2.859595,-0.839504,-1.915136,2.341990,3.600173,0.000000,0.000000,0.000000,0.000000,0.000000,0.000000
1175.042000,0.664000,3,START d_bow,Note,54,F#3,D,down,0.084958,0.387870,0.698823,0.082221,-1.300458,-1.807279,1.083030,1.170289,-2.860749,-0.836975,-1.916362,2.342186,3.600389,0.000000,0.000000,0.000000,0.000000,0.000000,0.000000
1175.050000,0.672000,3,START d_bow,Note,54,F#3,D,down,0.076958,0.387867,0.699300,0.082217,-1.300458,-1.807279,1.083030,1.170524,-2.861835,-0.834592,-1.917516,2.342370,3.600592,0.000000,0.000000,0.000000,0.000000,0.000000,0.000000
1175.058000,0.680000,3,START d_bow,Note,54,F#3,D,down,0.068958,0.387864,0.699745,0.082214,-1.300458,-1.807279,1.083030,1.170743,-2.862854,-0.832359,-1.918598,2.342542,3.600782,0.000000,0.000000,0.000000,0.000000,0.000000,0.000000
1175.066000,0.688000,3,START d_bow,Note,54,F#3,D,down,0.060958,0.387862,0.700160,0.082211,-1.300458,-1.807279,1.083030,1.170947,-2.863805,-0.830275,-1.919608,2.342702,3.600958,0.000000,0.000000,0.000000,0.000000,0.000000,0.000000
1175.074000,0.696000,3,START d_bow,Note,54,F#3,D,down,0.052958,0.387859,0.700544,0.082209,-1.300458,-1.807279,1.083030,1.171135,-2.864687,-0.828342,-1.920545,2.342850,3.601121,0.000000,0.000000,0.000000,0.000000,0.000000,0.000000
1175.082000,0.704000,3,START d_bow,Note,54,F#3,D,down,0.044958,0.387857,0.700897,0.082206,-1.300458,-1.807279,1.083030,1.171308,-2.865500,-0.826562,-1.921408,2.342985,3.601271,0.000000,0.000000,0.000000,0.000000,0.000000,0.000000
1175.090000,0.712000,3,START d_bow,Note,54,F#3,D,down,0.036958,0.387855,0.701219,0.082204,-1.300458,-1.807279,1.083030,1.171465,-2.866243,-0.824934,-1.922197,2.343109,3.601408,0.000000,0.000000,0.000000,0.000000,0.000000,0.000000
1175.098000,0.720000,3,START d_bow,Note,54,F#3,D,down,0.028958,0.387854,0.701510,0.082202,-1.300458,-1.807279,1.083030,1.171608,-2.866916,-0.823461,-1.922912,2.343220,3.601531,0.000000,0.000000,0.000000,0.000000,0.000000,0.000000
1175.106000,0.728000,3,START d_bow,Note,54,F#3,D,down,0.020958,0.387852,0.701769,0.082200,-1.300458,-1.807279,1.083030,1.171735,-2.867518,-0.822142,-1.923551,2.343320,3.601641,0.000000,0.000000,0.000000,0.000000,0.000000,0.000000
1175.114000,0.736000,3,START d_bow,Note,54,F#3,D,down,0.012958,0.387851,0.701998,0.082199,-1.300458,-1.807279,1.083030,1.171847,-2.868049,-0.820980,-1.924116,2.343407,3.601738,0.000000,0.000000,0.000000,0.000000,0.000000,0.000000
1175.122000,0.744000,3,START d_bow,Note,54,F#3,D,down,0.004958,0.387850,0.702196,0.082197,-1.300458,-1.807279,1.083030,1.171943,-2.868509,-0.819973,-1.924604,2.343483,3.601822,0.000000,0.000000,0.000000,0.000000,0.000000,0.000000
1175.130000,0.752000,3,START d_bow,Note,54,F#3,D,down,0.246958,0.387849,0.702363,0.082196,-1.300458,-1.807279,1.083030,1.172025,-2.868897,-0.819123,-1.925016,2.343547,3.601893,0.000000,0.000000,0.000000,0.000000,0.000000,0.000000
1175.138000,0.760000,3,START d_bow,Note,54,F#3,D,down,0.238958,0.387848,0.702498,0.082195,-1.300458,-1.807279,1.083030,1.172091,-2.869213,-0.818431,-1.925352,2.343599,3.601950,0.000000,0.000000,0.000000,0.000000,0.000000,0.000000
1175.146000,0.768000,3,START d_bow,Note,54,F#3,D,down,0.230958,0.387847,0.702603,0.082195,-1.300458,-1.807279,1.083030,1.172142,-2.869457,-0.817897,-1.925611,2.343639,3.601994,0.000000,0.000000,0.000000,0.000000,0.000000,0.000000
1175.154000,0.776000,3,START d_bow,Note,54,F#3,D,down,0.222958,0.387847,0.702677,0.082194,-1.300458,-1.807279,1.083030,1.172178,-2.869629,-0.817521,-1.925794,2.343667,3.602026,0.000000,0.000000,0.000000,0.000000,0.000000,0.000000
1175.162000,0.784000,3,START d_bow,Note,54,F#3,D,down,0.214958,0.387846,0.702719,0.082194,-1.300458,-1.807279,1.083030,1.172199,-2.869729,-0.817303,-1.925900,2.343684,3.602044,0.000000,0.000000,0.000000,0.000000,0.000000,0.000000
1175.170000,0.792000,3,START d_bow,Note,54,F#3,D,down,0.206958,0.387846,0.702731,0.082194,-1.300458,-1.807279,1.083030,1.172205,-2.869756,-0.817242,-1.925929,2.343688,3.602049,0.000000,0.000000,0.000000,0.000000,0.000000,0.000000
1175.178000,0.800000,4,END d_bow,Note,54,F#3,D,down,0.198958,0.387846,0.702731,0.082194,-1.300458,-1.807279,1.083030,1.172205,-2.869756,-0.817242,-1.925929,2.343688,3.602049,0.000000,0.000000,0.000000,0.000000,0.000000,0.000000
1175.186000,0.808000,4,END d_bow,Note,54,F#3,D,down,0.190958,0.387846,0.702731,0.082194,-1.300458,-1.807279,1.083030,1.172205,-2.869756,-0.817242,-1.925929,2.343688,3.602049,0.000000,0.000000,0.000000,0.000000,0.000000,0.000000
1175.194000,0.816000,4,END d_bow,Note,54,F#3,D,down,0.182958,0.387846,0.702731,0.082194,-1.300458,-1.807279,1.083030,1.172205,-2.869756,-0.817242,-1.925929,2.343688,3.602049,0.000000,0.000000,0.000000,0.000000,0.000000,0.000000
1175.202000,0.824000,3,START d_bow,Note,54,F#3,D,up,0.174958,0.387846,0.702725,0.082194,-1.300458,-1.807279,1.083030,1.172202,-2.869742,-0.817273,-1.925914,2.343686,3.602046,0.000000,0.000000,0.000000,0.000000,0.000000,0.000000
1175.210000,0.832000,3,START d_bow,Note,54,F#3,D,up,0.166958,0.387847,0.702690,0.082194,-1.300458,-1.807279,1.083030,1.172185,-2.869661,-0.817451,-1.925827,2.343672,3.602031,0.000000,0.000000,0.000000,0.000000,0.000000,0.000000
1175.218000,0.840000,3,START d_bow,Note,54,F#3,D,up,0.158958,0.387847,0.702624,0.082194,-1.300458,-1.807279,1.083030,1.172153,-2.869507,-0.817788,-1.925664,2.343647,3.602003,0.000000,0.000000,0.000000,0.000000,0.000000,0.000000
1175.226000,0.848000,3,START d_bow,Note,54,F#3,D,up,0.150958,0.387848,0.702527,0.082195,-1.300458,-1.807279,1.083030,1.172105,-2.869281,-0.818283,-1.925424,2.343610,3.601962,0.000000,0.000000,0.000000,0.000000,0.000000,0.000000
1175.234000,0.856000,3,START d_bow,Note,54,F#3,D,up,0.142958,0.387848,0.702399,0.082196,-1.300458,-1.807279,1.083030,1.172043,-2.868983,-0.818936,-1.925107,2.343561,3.601908,0.000000,0.000000,0.000000,0.000000,0.000000,0.000000
1175.242000,0.864000,3,START d_bow,Note,54,F#3,D,up,0.134958,0.387849,0.702240,0.082197,-1.300458,-1.807279,1.083030,1.171965,-2.868612,-0.819746,-1.924714,2.343500,3.601841,0.000000,0.000000,0.000000,0.000000,0.000000,0.000000
1175.250000,0.872000,3,START d_bow,Note,54,F#3,D,up,0.126958,0.387850,0.702050,0.082198,-1.300458,-1.807279,1.083030,1.171872,-2.868171,-0.820713,-1.924245,2.343428,3.601760,0.000000,0.000000,0.000000,0.000000,0.000000,0.000000
1175.258000,0.880000,3,START d_bow,Note,54,F#3,D,up,0.118958,0.387852,0.701829,0.082200,-1.300458,-1.807279,1.083030,1.171764,-2.867657,-0.821837,-1.923700,2.343343,3.601667,0.000000,0.000000,0.000000,0.000000,0.000000,0.000000
1175.266000,0.888000,3,START d_bow,Note,54,F#3,D,up,0.110958,0.387853,0.701577,0.082202,-1.300458,-1.807279,1.083030,1.171641,-2.867073,-0.823117,-1.923079,2.343246,3.601560,0.000000,0.000000,0.000000,0.000000,0.000000,0.000000
1175.274000,0.896000,3,START d_bow,Note,54,F#3,D,up,0.102958,0.387855,0.701294,0.082204,-1.300458,-1.807279,1.083030,1.171502,-2.866418,-0.824551,-1.922383,2.343138,3.601440,0.000000,0.000000,0.000000,0.000000,0.000000,0.000000
1175.282000,0.904000,3,START d_bow,Note,54,F#3,D,up,0.094958,0.387857,0.700980,0.082206,-1.300458,-1.807279,1.083030,1.171349,-2.865692,-0.826140,-1.921612,2.343017,3.601306,0.000000,0.000000,0.000000,0.000000,0.000000,0.000000
1175.290000,0.912000,3,START d_bow,Note,54,F#3,D,up,0.086958,0.387859,0.700635,0.082208,-1.300458,-1.807279,1.083030,1.171180,-2.864897,-0.827883,-1.920768,2.342885,3.601160,0.000000,0.000000,0.000000,0.000000,0.000000,0.000000
1175.298000,0.920000,3,START d_bow,Note,54,F#3,D,up,0.078958,0.387861,0.700259,0.082211,-1.300458,-1.807279,1.083030,1.170995,-2.864032,-0.829778,-1.919849,2.342740,3.601000,0.000000,0.000000,0.000000,0.000000,0.000000,0.000000
1175.306000,0.928000,3,START d_bow,Note,54,F#3,D,up,0.070958,0.387863,0.699852,0.082214,-1.300458,-1.807279,1.083030,1.170795,-2.863099,-0.831824,-1.918857,2.342583,3.600827,0.000000,0.000000,0.000000,0.000000,0.000000,0.000000
1175.314000,0.936000,3,START d_bow,Note,54,F#3,D,up,0.062958,0.387866,0.699414,0.082217,-1.300458,-1.807279,1.083030,1.170580,-2.862096,-0.834020,-1.917793,2.342414,3.600641,0.000000,0.000000,0.000000,0.000000,0.000000,0.000000
1175.322000,0.944000,3,START d_bow,Note,54,F#3,D,up,0.054958,0.387869,0.698945,0.082220,-1.300458,-1.807279,1.083030,1.170349,-2.861027,-0.836365,-1.916657,2.342233,3.600441,0.000000,0.000000,0.000000,0.000000,0.000000,0.000000
1175.330000,0.952000,3,START d_bow,Note,54,F#3,D,up,0.046958,0.387872,0.698445,0.082223,-1.300458,-1.807279,1.083030,1.170103,-2.859890,-0.838858,-1.915449,2.342040,3.600228,0.000000,0.000000,0.000000,0.000000,0.000000,0.000000
1175.338000,0.960000,3,START d_bow,Note,54,F#3,D,up,0.038958,0.387875,0.697913,0.082227,-1.300458,-1.807279,1.083030,1.169841,-2.858686,-0.841498,-1.914171,2.341835,3.600002,0.000000,0.000000,0.000000,0.000000,0.000000,0.000000
1175.346000,0.968000,3,START d_bow,Note,54,F#3,D,up,0.030958,0.387878,0.697351,0.082231,-1.300458,-1.807279,1.083030,1.169564,-2.857417,-0.844282,-1.912823,2.341617,3.599762,0.000000,0.000000,0.000000,0.000000,0.000000,0.000000
1175.354000,0.976000,3,START d_bow,Note,54,F#3,D,up,0.022958,0.387882,0.696758,0.082235,-1.300458,-1.807279,1.083030,1.169271,-2.856083,-0.847210,-1.911406,2.341387,3.599509,0.000000,0.000000,0.000000,0.000000,0.000000,0.000000
1175.362000,0.984000,3,START d_bow,Note,54,F#3,D,up,0.014958,0.387886,0.696134,0.082239,-1.300458,-1.807279,1.083030,1.168962,-2.854684,-0.850280,-1.909920,2.341145,3.599242,0.000000,0.000000,0.000000,0.000000,0.000000,0.000000
1175.370000,0.992000,3,START d_bow,Note,54,F#3,D,up,0.006958,0.387889,0.695478,0.082244,-1.300458,-1.807279,1.083030,1.168637,-2.853222,-0.853490,-1.908367,2.340890,3.598962,0.000000,0.000000,0.000000,0.000000,0.000000,0.000000
1175.378000,1.000000,3,START d_bow,Note,52,E3,D,up,0.248958,0.387893,0.694792,0.082248,-1.300458,-1.807279,1.083030,1.168297,-2.851697,-0.856840,-1.906748,2.340623,3.598668,0.000000,0.000000,0.000000,0.000000,0.000000,0.000000
1175.386000,1.008000,3,START d_bow,Note,52,E3,D,up,0.240958,0.387898,0.694075,0.082253,-1.300458,-1.807279,1.083030,1.167940,-2.850110,-0.860326,-1.905062,2.340343,3.598360,0.000000,0.000000,0.000000,0.000000,0.000000,0.000000
1175.394000,1.016000,3,START d_bow,Note,52,E3,D,up,0.232958,0.387902,0.693327,0.082258,-1.300458,-1.807279,1.083030,1.167568,-2.848462,-0.863948,-1.903312,2.340050,3.598039,0.000000,0.000000,0.000000,0.000000,0.000000,0.000000
1175.402000,1.024000,3,START d_bow,Note,52,E3,D,up,0.224958,0.387907,0.692547,0.082264,-1.300458,-1.807279,1.083030,1.167179,-2.846753,-0.867704,-1.901497,2.339745,3.597705,0.000000,0.000000,0.000000,0.000000,0.000000,0.000000
1175.410000,1.032000,3,START d_bow,Note,52,E3,D,up,0.216958,0.387912,0.691737,0.082269,-1.300458,-1.807279,1.083030,1.166774,-2.844985,-0.871591,-1.899619,2.339427,3.597356,0.000000,0.000000,0.000000,0.000000,0.000000,0.000000
1175.418000,1.040000,3,START d_bow,Note,52,E3,D,up,0.208958,0.387917,0.690895,0.082275,-1.300458,-1.807279,1.083030,1.166353,-2.843159,-0.875609,-1.897680,2.339096,3.596994,0.000000,0.000000,0.000000,0.000000,0.000000,0.000000
1175.426000,1.048000,3,START d_bow,Note,52,E3,D,up,0.200958,0.387922,0.690023,0.082281,-1.300458,-1.807279,1.083030,1.165916,-2.841275,-0.879755,-1.895679,2.338753,3.596618,0.000000,0.000000,0.000000,0.000000,0.000000,0.000000
1175.434000,1.056000,3,START d_bow,Note,52,E3,D,up,0.192958,0.387927,0.689120,0.082287,-1.300458,-1.807279,1.083030,1.165462,-2.839334,-0.884028,-1.893617,2.338396,3.596228,0.000000,0.000000,0.000000,0.000000,0.000000,0.000000
1175.442000,1.064000,3,START d_bow,Note,52,E3,D,up,0.184958,0.387933,0.688185,0.082294,-1.300458,-1.807279,1.083030,1.164992,-2.837338,-0.888426,-1.891497,2.338026,3.595824,0.000000,0.000000,0.000000,0.000000,0.000000,0.000000
1175.450000,1.072000,3,START d_bow,Note,52,E3,D,up,0.176958,0.387938,0.687228,0.082300,-1.300458,-1.807279,1.083030,1.164509,-2.835303,-0.892910,-1.889336,2.337646,3.595410,0.000000,0.000000,0.000000,0.000000,0.000000,0.000000
1175.458000,1.080000,3,START d_bow,Note,52,E3,D,up,0.168958,0.387944,0.686293,0.082307,-1.300458,-1.807279,1.083030,1.164036,-2.833328,-0.897262,-1.887238,2.337274,3.595005,0.000000,0.000000,0.000000,0.000000,0.000000,0.000000
1175.466000,1.088000,3,START d_bow,Note,52,E3,D,up,0.160958,0.387949,0.685390,0.082313,-1.300458,-1.807279,1.083030,1.163579,-2.831429,-0.901450,-1.885221,2.336914,3.594613,0.000000,0.000000,0.000000,0.000000,0.000000,0.000000
1175.474000,1.096000,3,START d_bow,Note,52,E3,D,up,0.152958,0.387954,0.684517,0.082319,-1.300458,-1.807279,1.083030,1.163136,-2.829605,-0.905476,-1.883283,2.336566,3.594234,0.000000,0.000000,0.000000,0.000000,0.000000,0.000000
1175.482000,1.104000,3,START d_bow,Note,52,E3,D,up,0.144958,0.387959,0.683676,0.082325,-1.300458,-1.807279,1.083030,1.162708,-2.827853,-0.909341,-1.881423,2.336229,3.593868,0.000000,0.000000,0.000000,0.000000,0.000000,0.000000
1175.490000,1.112000,3,START d_bow,Note,52,E3,D,up,0.136958,0.387964,0.682866,0.082330,-1.300458,-1.807279,1.083030,1.162295,-2.826174,-0.913048,-1.879640,2.335904,3.593515,0.000000,0.000000,0.000000,0.000000,0.000000,0.000000
1175.498000,1.120000,3,START d_bow,Note,52,E3,D,up,0.128958,0.387969,0.682086,0.082336,-1.300458,-1.807279,1.083030,1.161898,-2.824567,-0.916598,-1.877932,2.335591,3.593175,0.000000,0.000000,0.000000,0.000000,0.000000,0.000000
1175.506000,1.128000,3,START d_bow,Note,52,E3,D,up,0.120958,0.387973,0.681338,0.082341,-1.300458,-1.807279,1.083030,1.161515,-2.823030,-0.919994,-1.876300,2.335290,3.592848,0.000000,0.000000,0.000000,0.000000,0.000000,0.000000
1175.514000,1.136000,3,START d_bow,Note,52,E3,D,up,0.112958,0.387978,0.680621,0.082346,-1.300458,-1.807279,1.083030,1.161148,-2.821563,-0.923237,-1.874741,2.335001,3.592535,0.000000,0.000000,0.000000,0.000000,0.000000,0.000000
1175.522000,1.144000,3,START d_bow,Note,52,E3,D,up,0.104958,0.387982,0.679934,0.082351,-1.300458,-1.807279,1.083030,1.160796,-2.820164,-0.926329,-1.873255,2.334723,3.592235,0.000000,0.000000,0.000000,0.000000,0.000000,0.000000
1175.530000,1.152000,3,START d_bow,Note,52,E3,D,up,0.096958,0.387986,0.679279,0.082355,-1.300458,-1.807279,1.083030,1.160459,-2.818833,-0.929271,-1.871842,2.334458,3.591948,0.000000,0.000000,0.000000,0.000000,0.000000,0.000000
1175.538000,1.160000,3,START d_bow,Note,52,E3,D,up,0.088958,0.387989,0.678655,0.082359,-1.300458,-1.807279,1.083030,1.160138,-2.817570,-0.932065,-1.870500,2.334205,3.591674,0.000000,0.000000,0.000000,0.000000,0.000000,0.000000
1175.546000,1.168000,3,START d_bow,Note,52,E3,D,up,0.080958,0.387993,0.678062,0.082364,-1.300458,-1.807279,1.083030,1.159833,-2.816374,-0.934712,-1.869229,2.333964,3.591414,0.000000,0.000000,0.000000,0.000000,0.000000,0.000000
1175.554000,1.176000,3,START d_bow,Note,52,E3,D,up,0.072958,0.387996,0.677499,0.082367,-1.300458,-1.807279,1.083030,1.159543,-2.815243,-0.937214,-1.868028,2.333736,3.591167,0.000000,0.000000,0.000000,0.000000,0.000000,0.000000
1175.562000,1.184000,3,START d_bow,Note,52,E3,D,up,0.064958,0.387999,0.676968,0.082371,-1.300458,-1.807279,1.083030,1.159268,-2.814179,-0.939572,-1.866897,2.333519,3.590934,0.000000,0.000000,0.000000,0.000000,0.000000,0.000000
1175.570000,1.192000,3,START d_bow,Note,52,E3,D,up,0.056958,0.388002,0.676468,0.082374,-1.300458,-1.807279,1.083030,1.159010,-2.813178,-0.941786,-1.865835,2.333315,3.590714,0.000000,0.000000,0.000000,0.000000,0.000000,0.000000
1175.578000,1.200000,3,START d_bow,Note,52,E3,D,up,0.048958,0.388005,0.675999,0.082378,-1.300458,-1.807279,1.083030,1.158767,-2.812243,-0.943858,-1.864841,2.333124,3.590507,0.000000,0.000000,0.000000,0.000000,0.000000,0.000000
1175.586000,1.208000,3,START d_bow,Note,52,E3,D,up,0.040958,0.388008,0.675561,0.082381,-1.300458,-1.807279,1.083030,1.158540,-2.811371,-0.945789,-1.863915,2.332945,3.590314,0.000000,0.000000,0.000000,0.000000,0.000000,0.000000
1175.594000,1.216000,3,START d_bow,Note,52,E3,D,up,0.032958,0.388010,0.675154,0.082384,-1.300458,-1.807279,1.083030,1.158329,-2.810563,-0.947580,-1.863056,2.332779,3.590135,0.000000,0.000000,0.000000,0.000000,0.000000,0.000000
1175.602000,1.224000,3,START d_bow,Note,52,E3,D,up,0.024958,0.388012,0.674778,0.082386,-1.300458,-1.807279,1.083030,1.158134,-2.809818,-0.949231,-1.862265,2.332625,3.589969,0.000000,0.000000,0.000000,0.000000,0.000000,0.000000
1175.610000,1.232000,3,START d_bow,Note,52,E3,D,up,0.016958,0.388014,0.674432,0.082389,-1.300458,-1.807279,1.083030,1.157955,-2.809136,-0.950743,-1.861540,2.332483,3.589817,0.000000,0.000000,0.000000,0.000000,0.000000,0.000000
1175.618000,1.240000,3,START d_bow,Note,52,E3,D,up,0.008958,0.388016,0.674118,0.082391,-1.300458,-1.807279,1.083030,1.157791,-2.808516,-0.952117,-1.860881,2.332354,3.589678,0.000000,0.000000,0.000000,0.000000,0.000000,0.000000
1175.626000,1.248000,3,START d_bow,Note,52,E3,D,up,0.000958,0.388018,0.673835,0.082393,-1.300458,-1.807279,1.083030,1.157644,-2.807958,-0.953354,-1.860288,2.332238,3.589553,0.000000,0.000000,0.000000,0.000000,0.000000,0.000000
1175.634000,1.256000,3,START d_bow,Note,54,F#3,D,up,0.242958,0.388019,0.673583,0.082394,-1.300458,-1.807279,1.083030,1.157513,-2.807462,-0.954454,-1.859761,2.332135,3.589442,0.000000,0.000000,0.000000,0.000000,0.000000,0.000000
1175.642000,1.264000,3,START d_bow,Note,54,F#3,D,up,0.234958,0.388021,0.673362,0.082396,-1.300458,-1.807279,1.083030,1.157398,-2.807027,-0.955417,-1.859300,2.332044,3.589344,0.000000,0.000000,0.000000,0.000000,0.000000,0.000000
1175.650000,1.272000,3,START d_bow,Note,54,F#3,D,up,0.226958,0.388022,0.673172,0.082397,-1.300458,-1.807279,1.083030,1.157299,-2.806654,-0.956245,-1.858904,2.331966,3.589260,0.000000,0.000000,0.000000,0.000000,0.000000,0.000000
1175.658000,1.280000,3,START d_bow,Note,54,F#3,D,up,0.218958,0.388023,0.673013,0.082398,-1.300458,-1.807279,1.083030,1.157216,-2.806342,-0.956936,-1.858572,2.331900,3.589190,0.000000,0.000000,0.000000,0.000000,0.000000,0.000000
1175.666000,1.288000,3,START d_bow,Note,54,F#3,D,up,0.210958,0.388023,0.672885,0.082399,-1.300458,-1.807279,1.083030,1.157149,-2.806092,-0.957493,-1.858306,2.331848,3.589133,0.000000,0.000000,0.000000,0.000000,0.000000,0.000000
1175.674000,1.296000,3,START d_bow,Note,54,F#3,D,up,0.202958,0.388024,0.672788,0.082400,-1.300458,-1.807279,1.083030,1.157099,-2.805902,-0.957914,-1.858104,2.331808,3.589091,0.000000,0.000000,0.000000,0.000000,0.000000,0.000000
1175.682000,1.304000,3,START d_bow,Note,54,F#3,D,up,0.194958,0.388024,0.672723,0.082400,-1.300458,-1.807279,1.083030,1.157064,-2.805773,-0.958201,-1.857967,2.331781,3.589061,0.000000,0.000000,0.000000,0.000000,0.000000,0.000000
1175.690000,1.312000,3,START d_bow,Note,54,F#3,D,up,0.186958,0.388025,0.672688,0.082401,-1.300458,-1.807279,1.083030,1.157046,-2.805704,-0.958352,-1.857894,2.331766,3.589046,0.000000,0.000000,0.000000,0.000000,0.000000,0.000000
1175.698000,1.320000,4,END d_bow,Note,54,F#3,D,up,0.178958,0.388025,0.672682,0.082401,-1.300458,-1.807279,1.083030,1.157043,-2.805692,-0.958378,-1.857881,2.331764,3.589043,0.000000,0.000000,0.000000,0.000000,0.000000,0.000000
1175.706000,1.328000,4,END d_bow,Note,54,F#3,D,up,0.170958,0.388025,0.672682,0.082401,-1.300458,-1.807279,1.083030,1.157043,-2.805692,-0.958378,-1.857881,2.331764,3.589043,0.000000,0.000000,0.000000,0.000000,0.000000,0.000000
1175.722000,1.344000,4,END d_bow,Note,54,F#3,D,up,0.154958,0.388025,0.672682,0.082401,-1.300458,-1.807279,1.083030,1.157043,-2.805692,-0.958378,-1.857881,2.331764,3.589043,0.000000,0.000000,0.000000,0.000000,0.000000,0.000000
1175.730000,1.352000,3,START d_bow,Note,55,G3,D,down,0.396958,0.388025,0.672693,0.082400,-1.300458,-1.807279,1.083030,1.157049,-2.805716,-0.958327,-1.857906,2.331769,3.589048,0.000000,0.000000,0.000000,0.000000,0.000000,0.000000
1175.754000,1.376000,3,START d_bow,Note,55,G3,D,down,0.372958,0.388023,0.672914,0.082399,-1.300458,-1.807279,1.083030,1.157164,-2.806149,-0.957366,-1.858366,2.331860,3.589146,0.000000,0.000000,0.000000,0.000000,0.000000,0.000000
1175.762000,1.384000,3,START d_bow,Note,55,G3,D,down,0.364958,0.388022,0.673050,0.082398,-1.300458,-1.807279,1.083030,1.157235,-2.806415,-0.956776,-1.858649,2.331916,3.589206,0.000000,0.000000,0.000000,0.000000,0.000000,0.000000
1175.770000,1.392000,3,START d_bow,Note,55,G3,D,down,0.356958,0.388021,0.673217,0.082397,-1.300458,-1.807279,1.083030,1.157322,-2.806742,-0.956051,-1.858997,2.331984,3.589280,0.000000,0.000000,0.000000,0.000000,0.000000,0.000000
1175.778000,1.400000,3,START d_bow,Note,55,G3,D,down,0.348958,0.388020,0.673415,0.082396,-1.300458,-1.807279,1.083030,1.157425,-2.807130,-0.955189,-1.859409,2.332065,3.589367,0.000000,0.000000,0.000000,0.000000,0.000000,0.000000
1175.786000,1.408000,3,START d_bow,Note,55,G3,D,down,0.340958,0.388019,0.673643,0.082394,-1.300458,-1.807279,1.083030,1.157544,-2.807580,-0.954192,-1.859887,2.332159,3.589468,0.000000,0.000000,0.000000,0.000000,0.000000,0.000000
1175.794000,1.416000,3,START d_bow,Note,55,G3,D,down,0.332958,0.388017,0.673903,0.082392,-1.300458,-1.807279,1.083030,1.157679,-2.808092,-0.953058,-1.860430,2.332266,3.589583,0.000000,0.000000,0.000000,0.000000,0.000000,0.000000
1175.802000,1.424000,3,START d_bow,Note,55,G3,D,down,0.324958,0.388016,0.674194,0.082390,-1.300458,-1.807279,1.083030,1.157831,-2.808665,-0.951787,-1.861040,2.332385,3.589712,0.000000,0.000000,0.000000,0.000000,0.000000,0.000000
1175.810000,1.432000,3,START d_bow,Note,55,G3,D,down,0.316958,0.388014,0.674516,0.082388,-1.300458,-1.807279,1.083030,1.157998,-2.809300,-0.950378,-1.861715,2.332517,3.589854,0.000000,0.000000,0.000000,0.000000,0.000000,0.000000
1175.818000,1.440000,3,START d_bow,Note,55,G3,D,down,0.308958,0.388012,0.674869,0.082386,-1.300458,-1.807279,1.083030,1.158181,-2.809998,-0.948831,-1.862456,2.332662,3.590009,0.000000,0.000000,0.000000,0.000000,0.000000,0.000000
1175.826000,1.448000,3,START d_bow,Note,55,G3,D,down,0.300958,0.388009,0.675252,0.082383,-1.300458,-1.807279,1.083030,1.158380,-2.810759,-0.947145,-1.863265,2.332819,3.590178,0.000000,0.000000,0.000000,0.000000,0.000000,0.000000
1175.834000,1.456000,3,START d_bow,Note,55,G3,D,down,0.292958,0.388007,0.675667,0.082380,-1.300458,-1.807279,1.083030,1.158595,-2.811583,-0.945320,-1.864140,2.332989,3.590361,0.000000,0.000000,0.000000,0.000000,0.000000,0.000000
1175.842000,1.464000,3,START d_bow,Note,55,G3,D,down,0.284958,0.388004,0.676113,0.082377,-1.300458,-1.807279,1.083030,1.158826,-2.812471,-0.943354,-1.865083,2.333171,3.590557,0.000000,0.000000,0.000000,0.000000,0.000000,0.000000
1175.850000,1.472000,3,START d_bow,Note,55,G3,D,down,0.276958,0.388001,0.676590,0.082374,-1.300458,-1.807279,1.083030,1.159073,-2.813422,-0.941246,-1.866094,2.333365,3.590767,0.000000,0.000000,0.000000,0.000000,0.000000,0.000000
1175.858000,1.480000,3,START d_bow,Note,55,G3,D,down,0.268958,0.387998,0.677098,0.082370,-1.300458,-1.807279,1.083030,1.159336,-2.814439,-0.938996,-1.867173,2.333572,3.590991,0.000000,0.000000,0.000000,0.000000,0.000000,0.000000
1175.866000,1.488000,3,START d_bow,Note,55,G3,D,down,0.260958,0.387995,0.677637,0.082366,-1.300458,-1.807279,1.083030,1.159614,-2.815520,-0.936602,-1.868322,2.333792,3.591227,0.000000,0.000000,0.000000,0.000000,0.000000,0.000000
1175.874000,1.496000,3,START d_bow,Note,55,G3,D,down,0.252958,0.387992,0.678207,0.082363,-1.300458,-1.807279,1.083030,1.159908,-2.816667,-0.934064,-1.869540,2.334023,3.591478,0.000000,0.000000,0.000000,0.000000,0.000000,0.000000
1175.882000,1.504000,3,START d_bow,Note,55,G3,D,down,0.244958,0.387988,0.678808,0.082358,-1.300458,-1.807279,1.083030,1.160217,-2.817880,-0.931380,-1.870829,2.334267,3.591741,0.000000,0.000000,0.000000,0.000000,0.000000,0.000000
1175.890000,1.512000,3,START d_bow,Note,55,G3,D,down,0.236958,0.387985,0.679440,0.082354,-1.300458,-1.807279,1.083030,1.160542,-2.819160,-0.928549,-1.872189,2.334523,3.592018,0.000000,0.000000,0.000000,0.000000,0.000000,0.000000
1175.898000,1.520000,3,START d_bow,Note,55,G3,D,down,0.228958,0.387981,0.680103,0.082349,-1.300458,-1.807279,1.083030,1.160882,-2.820507,-0.925570,-1.873620,2.334791,3.592308,0.000000,0.000000,0.000000,0.000000,0.000000,0.000000
1175.906000,1.528000,3,START d_bow,Note,55,G3,D,down,0.220958,0.387976,0.680797,0.082345,-1.300458,-1.807279,1.083030,1.161238,-2.821923,-0.922440,-1.875124,2.335072,3.592612,0.000000,0.000000,0.000000,0.000000,0.000000,0.000000
1175.914000,1.536000,3,START d_bow,Note,55,G3,D,down,0.212958,0.387972,0.681522,0.082340,-1.300458,-1.807279,1.083030,1.161609,-2.823408,-0.919159,-1.876701,2.335364,3.592929,0.000000,0.000000,0.000000,0.000000,0.000000,0.000000
1175.922000,1.544000,3,START d_bow,Note,55,G3,D,down,0.204958,0.387968,0.682278,0.082335,-1.300458,-1.807279,1.083030,1.161996,-2.824962,-0.915725,-1.878352,2.335668,3.593259,0.000000,0.000000,0.000000,0.000000,0.000000,0.000000
1175.930000,1.552000,3,START d_bow,Note,55,G3,D,down,0.196958,0.387963,0.683065,0.082329,-1.300458,-1.807279,1.083030,1.162397,-2.826587,-0.912136,-1.880078,2.335984,3.593602,0.000000,0.000000,0.000000,0.000000,0.000000,0.000000
1175.938000,1.560000,3,START d_bow,Note,55,G3,D,down,0.188958,0.387958,0.683883,0.082323,-1.300458,-1.807279,1.083030,1.162814,-2.828284,-0.908390,-1.881881,2.336312,3.593958,0.000000,0.000000,0.000000,0.000000,0.000000,0.000000
1175.946000,1.568000,3,START d_bow,Note,55,G3,D,down,0.180958,0.387953,0.684732,0.082318,-1.300458,-1.807279,1.083030,1.163245,-2.830054,-0.904485,-1.883760,2.336652,3.594327,0.000000,0.000000,0.000000,0.000000,0.000000,0.000000
1175.954000,1.576000,3,START d_bow,Note,55,G3,D,down,0.172958,0.387948,0.685613,0.082312,-1.300458,-1.807279,1.083030,1.163692,-2.831897,-0.900419,-1.885718,2.337003,3.594710,0.000000,0.000000,0.000000,0.000000,0.000000,0.000000
1175.962000,1.584000,3,START d_bow,Note,55,G3,D,down,0.164958,0.387943,0.686524,0.082305,-1.300458,-1.807279,1.083030,1.164153,-2.833815,-0.896190,-1.887755,2.337366,3.595105,0.000000,0.000000,0.000000,0.000000,0.000000,0.000000
1175.970000,1.592000,3,START d_bow,Note,55,G3,D,down,0.156958,0.387937,0.687466,0.082299,-1.300458,-1.807279,1.083030,1.164629,-2.835809,-0.891795,-1.889873,2.337741,3.595513,0.000000,0.000000,0.000000,0.000000,0.000000,0.000000
1175.986000,1.608000,3,START d_bow,Note,55,G3,D,down,0.140958,0.387926,0.689348,0.082286,-1.300458,-1.807279,1.083030,1.165577,-2.839825,-0.882948,-1.894138,2.338486,3.596327,0.000000,0.000000,0.000000,0.000000,0.000000,0.000000
1175.994000,1.616000,3,START d_bow,Note,55,G3,D,down,0.132958,0.387920,0.690244,0.082280,-1.300458,-1.807279,1.083030,1.166027,-2.841751,-0.878707,-1.896185,2.338840,3.596713,0.000000,0.000000,0.000000,0.000000,0.000000,0.000000
1176.002000,1.624000,3,START d_bow,Note,55,G3,D,down,0.124958,0.387915,0.691109,0.082274,-1.300458,-1.807279,1.083030,1.166460,-2.843621,-0.874593,-1.898170,2.339180,3.597086,0.000000,0.000000,0.000000,0.000000,0.000000,0.000000
1176.010000,1.632000,3,START d_bow,Note,55,G3,D,down,0.116958,0.387910,0.691942,0.082268,-1.300458,-1.807279,1.083030,1.166877,-2.845433,-0.870607,-1.900095,2.339508,3.597445,0.000000,0.000000,0.000000,0.000000,0.000000,0.000000
1176.018000,1.640000,3,START d_bow,Note,55,G3,D,down,0.108958,0.387906,0.692745,0.082262,-1.300458,-1.807279,1.083030,1.167278,-2.847186,-0.866752,-1.901957,2.339823,3.597790,0.000000,0.000000,0.000000,0.000000,0.000000,0.000000
1176.026000,1.648000,3,START d_bow,Note,55,G3,D,down,0.100958,0.387901,0.693517,0.082257,-1.300458,-1.807279,1.083030,1.167662,-2.848879,-0.863030,-1.903755,2.340125,3.598121,0.000000,0.000000,0.000000,0.000000,0.000000,0.000000
1176.034000,1.656000,3,START d_bow,Note,55,G3,D,down,0.092958,0.387897,0.694257,0.082252,-1.300458,-1.807279,1.083030,1.168031,-2.850512,-0.859442,-1.905490,2.340414,3.598439,0.000000,0.000000,0.000000,0.000000,0.000000,0.000000
1176.042000,1.664000,3,START d_bow,Note,55,G3,D,down,0.084958,0.387892,0.694967,0.082247,-1.300458,-1.807279,1.083030,1.168383,-2.852084,-0.855989,-1.907159,2.340691,3.598743,0.000000,0.000000,0.000000,0.000000,0.000000,0.000000
1176.050000,1.672000,3,START d_bow,Note,55,G3,D,down,0.076958,0.387888,0.695645,0.082242,-1.300458,-1.807279,1.083030,1.168720,-2.853593,-0.852675,-1.908762,2.340955,3.599033,0.000000,0.000000,0.000000,0.000000,0.000000,0.000000
1176.058000,1.680000,3,START d_bow,Note,55,G3,D,down,0.068958,0.387885,0.696293,0.082238,-1.300458,-1.807279,1.083030,1.169041,-2.855040,-0.849499,-1.910298,2.341207,3.599310,0.000000,0.000000,0.000000,0.000000,0.000000,0.000000
1176.066000,1.688000,3,START d_bow,Note,55,G3,D,down,0.060958,0.387881,0.696909,0.082234,-1.300458,-1.807279,1.083030,1.169346,-2.856422,-0.846465,-1.911767,2.341446,3.599573,0.000000,0.000000,0.000000,0.000000,0.000000,0.000000
1176.074000,1.696000,3,START d_bow,Note,55,G3,D,down,0.052958,0.387877,0.697495,0.082230,-1.300458,-1.807279,1.083030,1.169635,-2.857741,-0.843572,-1.913167,2.341673,3.599823,0.000000,0.000000,0.000000,0.000000,0.000000,0.000000
1176.082000,1.704000,3,START d_bow,Note,55,G3,D,down,0.044958,0.387874,0.698049,0.082226,-1.300458,-1.807279,1.083030,1.169908,-2.858993,-0.840824,-1.914497,2.341887,3.600060,0.000000,0.000000,0.000000,0.000000,0.000000,0.000000
1176.090000,1.712000,3,START d_bow,Note,55,G3,D,down,0.036958,0.387871,0.698573,0.082222,-1.300458,-1.807279,1.083030,1.170166,-2.860180,-0.838221,-1.915758,2.342090,3.600283,0.000000,0.000000,0.000000,0.000000,0.000000,0.000000
1176.098000,1.720000,3,START d_bow,Note,55,G3,D,down,0.028958,0.387868,0.699065,0.082219,-1.300458,-1.807279,1.083030,1.170409,-2.861300,-0.835765,-1.916948,2.342280,3.600492,0.000000,0.000000,0.000000,0.000000,0.000000,0.000000
1176.106000,1.728000,3,START d_bow,Note,55,G3,D,down,0.020958,0.387865,0.699526,0.082216,-1.300458,-1.807279,1.083030,1.170635,-2.862353,-0.833457,-1.918066,2.342458,3.600689,0.000000,0.000000,0.000000,0.000000,0.000000,0.000000
1176.114000,1.736000,3,START d_bow,Note,55,G3,D,down,0.012958,0.387863,0.699957,0.082213,-1.300458,-1.807279,1.083030,1.170847,-2.863338,-0.831298,-1.919112,2.342624,3.600872,0.000000,0.000000,0.000000,0.000000,0.000000,0.000000
1176.122000,1.744000,3,START d_bow,Note,55,G3,D,down,0.004958,0.387860,0.700356,0.082210,-1.300458,-1.807279,1.083030,1.171043,-2.864255,-0.829290,-1.920086,2.342777,3.601041,0.000000,0.000000,0.000000,0.000000,0.000000,0.000000
1176.130000,1.752000,3,START d_bow,Note,55,G3,D,down,0.246958,0.387858,0.700724,0.082208,-1.300458,-1.807279,1.083030,1.171223,-2.865102,-0.827433,-1.920986,2.342919,3.601198,0.000000,0.000000,0.000000,0.000000,0.000000,0.000000
1176.138000,1.760000,3,START d_bow,Note,55,G3,D,down,0.238958,0.387856,0.701062,0.082205,-1.300458,-1.807279,1.083030,1.171389,-2.865880,-0.825729,-1.921812,2.343048,3.601341,0.000000,0.000000,0.000000,0.000000,0.000000,0.000000
1176.146000,1.768000,3,START d_bow,Note,55,G3,D,down,0.230958,0.387854,0.701368,0.082203,-1.300458,-1.807279,1.083030,1.171539,-2.866588,-0.824178,-1.922564,2.343166,3.601471,0.000000,0.000000,0.000000,0.000000,0.000000,0.000000
1176.154000,1.776000,3,START d_bow,Note,55,G3,D,down,0.222958,0.387853,0.701643,0.082201,-1.300458,-1.807279,1.083030,1.171673,-2.867226,-0.822782,-1.923241,2.343272,3.601588,0.000000,0.000000,0.000000,0.000000,0.000000,0.000000
1176.162000,1.784000,3,START d_bow,Note,55,G3,D,down,0.214958,0.387851,0.701888,0.082200,-1.300458,-1.807279,1.083030,1.171793,-2.867792,-0.821541,-1.923843,2.343365,3.601691,0.000000,0.000000,0.000000,0.000000,0.000000,0.000000
1176.178000,1.800000,3,START d_bow,Note,55,G3,D,down,0.198958,0.387849,0.702283,0.082197,-1.300458,-1.807279,1.083030,1.171986,-2.868712,-0.819529,-1.924819,2.343517,3.601859,0.000000,0.000000,0.000000,0.000000,0.000000,0.000000
1176.186000,1.808000,3,START d_bow,Note,55,G3,D,down,0.190958,0.387848,0.702434,0.082196,-1.300458,-1.807279,1.083030,1.172060,-2.869064,-0.818758,-1.925194,2.343574,3.601923,0.000000,0.000000,0.000000,0.000000,0.000000,0.000000
1176.194000,1.816000,3,START d_bow,Note,55,G3,D,down,0.182958,0.387847,0.702554,0.082195,-1.300458,-1.807279,1.083030,1.172118,-2.869344,-0.818144,-1.925491,2.343620,3.601974,0.000000,0.000000,0.000000,0.000000,0.000000,0.000000
1176.202000,1.824000,3,START d_bow,Note,55,G3,D,down,0.174958,0.387847,0.702644,0.082194,-1.300458,-1.807279,1.083030,1.172162,-2.869552,-0.817689,-1.925712,2.343655,3.602012,0.000000,0.000000,0.000000,0.000000,0.000000,0.000000
1176.210000,1.832000,3,START d_bow,Note,55,G3,D,down,0.166958,0.387847,0.702702,0.082194,-1.300458,-1.807279,1.083030,1.172190,-2.869688,-0.817392,-1.925856,2.343677,3.602036,0.000000,0.000000,0.000000,0.000000,0.000000,0.000000
1176.218000,1.840000,3,START d_bow,Note,55,G3,D,down,0.158958,0.387846,0.702729,0.082194,-1.300458,-1.807279,1.083030,1.172204,-2.869751,-0.817253,-1.925924,2.343687,3.602048,0.000000,0.000000,0.000000,0.000000,0.000000,0.000000
1176.226000,1.848000,4,END d_bow,Note,55,G3,D,down,0.150958,0.387846,0.702731,0.082194,-1.300458,-1.807279,1.083030,1.172205,-2.869756,-0.817242,-1.925929,2.343688,3.602049,0.000000,0.000000,0.000000,0.000000,0.000000,0.000000
1176.234000,1.856000,4,END d_bow,Note,55,G3,D,down,0.142958,0.387846,0.702731,0.082194,-1.300458,-1.807279,1.083030,1.172205,-2.869756,-0.817242,-1.925929,2.343688,3.602049,0.000000,0.000000,0.000000,0.000000,0.000000,0.000000
1176.242000,1.864000,4,END d_bow,Note,55,G3,D,down,0.134958,0.387846,0.702731,0.082194,-1.300458,-1.807279,1.083030,1.172205,-2.869756,-0.817242,-1.925929,2.343688,3.602049,0.000000,0.000000,0.000000,0.000000,0.000000,0.000000
1176.250000,1.872000,3,START d_bow,Note,54,F#3,D,up,0.376958,0.387846,0.702731,0.082194,-1.300458,-1.807279,1.083030,1.172205,-2.869756,-0.817243,-1.925928,2.343688,3.602049,0.000000,0.000000,0.000000,0.000000,0.000000,0.000000
1176.258000,1.880000,3,START d_bow,Note,54,F#3,D,up,0.368958,0.387846,0.702712,0.082194,-1.300458,-1.807279,1.083030,1.172195,-2.869710,-0.817342,-1.925880,2.343681,3.602040,0.000000,0.000000,0.000000,0.000000,0.000000,0.000000
1176.266000,1.888000,3,START d_bow,Note,54,F#3,D,up,0.360958,0.387847,0.702661,0.082194,-1.300458,-1.807279,1.083030,1.172170,-2.869593,-0.817600,-1.925755,2.343661,3.602019,0.000000,0.000000,0.000000,0.000000,0.000000,0.000000
1176.274000,1.896000,3,START d_bow,Note,54,F#3,D,up,0.352958,0.387847,0.702580,0.082195,-1.300458,-1.807279,1.083030,1.172131,-2.869403,-0.818016,-1.925554,2.343630,3.601985,0.000000,0.000000,0.000000,0.000000,0.000000,0.000000
1176.282000,1.904000,3,START d_bow,Note,54,F#3,D,up,0.344958,0.387848,0.702467,0.082196,-1.300458,-1.807279,1.083030,1.172076,-2.869141,-0.818589,-1.925275,2.343587,3.601937,0.000000,0.000000,0.000000,0.000000,0.000000,0.000000
1176.290000,1.912000,3,START d_bow,Note,54,F#3,D,up,0.336958,0.387849,0.702324,0.082197,-1.300458,-1.807279,1.083030,1.172006,-2.868806,-0.819321,-1.924920,2.343532,3.601876,0.000000,0.000000,0.000000,0.000000,0.000000,0.000000
1176.298000,1.920000,3,START d_bow,Note,54,F#3,D,up,0.328958,0.387850,0.702149,0.082198,-1.300458,-1.807279,1.083030,1.171921,-2.868400,-0.820210,-1.924489,2.343465,3.601802,0.000000,0.000000,0.000000,0.000000,0.000000,0.000000
1176.306000,1.928000,3,START d_bow,Note,54,F#3,D,up,0.320958,0.387851,0.701944,0.082199,-1.300458,-1.807279,1.083030,1.171820,-2.867923,-0.821256,-1.923982,2.343387,3.601715,0.000000,0.000000,0.000000,0.000000,0.000000,0.000000
1176.314000,1.936000,3,START d_bow,Note,54,F#3,D,up,0.312958,0.387852,0.701707,0.082201,-1.300458,-1.807279,1.083030,1.171705,-2.867374,-0.822457,-1.923399,2.343296,3.601615,0.000000,0.000000,0.000000,0.000000,0.000000,0.000000
1176.322000,1.944000,3,START d_bow,Note,54,F#3,D,up,0.304958,0.387854,0.701440,0.082203,-1.300458,-1.807279,1.083030,1.171574,-2.866754,-0.823815,-1.922740,2.343193,3.601501,0.000000,0.000000,0.000000,0.000000,0.000000,0.000000
1176.330000,1.952000,3,START d_bow,Note,54,F#3,D,up,0.296958,0.387856,0.701141,0.082205,-1.300458,-1.807279,1.083030,1.171428,-2.866064,-0.825327,-1.922007,2.343079,3.601375,0.000000,0.000000,0.000000,0.000000,0.000000,0.000000
1176.338000,1.960000,3,START d_bow,Note,54,F#3,D,up,0.288958,0.387858,0.700812,0.082207,-1.300458,-1.807279,1.083030,1.171266,-2.865303,-0.826992,-1.921199,2.342952,3.601235,0.000000,0.000000,0.000000,0.000000,0.000000,0.000000
1176.346000,1.968000,3,START d_bow,Note,54,F#3,D,up,0.280958,0.387860,0.700451,0.082209,-1.300458,-1.807279,1.083030,1.171089,-2.864473,-0.828811,-1.920318,2.342814,3.601082,0.000000,0.000000,0.000000,0.000000,0.000000,0.000000
1176.354000,1.976000,3,START d_bow,Note,54,F#3,D,up,0.272958,0.387862,0.700059,0.082212,-1.300458,-1.807279,1.083030,1.170897,-2.863574,-0.830782,-1.919362,2.342663,3.600915,0.000000,0.000000,0.000000,0.000000,0.000000,0.000000
1176.362000,1.984000,3,START d_bow,Note,54,F#3,D,up,0.264958,0.387865,0.699637,0.082215,-1.300458,-1.807279,1.083030,1.170690,-2.862606,-0.832903,-1.918334,2.342500,3.600736,0.000000,0.000000,0.000000,0.000000,0.000000,0.000000
1176.378000,2.000000,3,START d_bow,Note,54,F#3,D,up,0.248958,0.387870,0.698699,0.082221,-1.300458,-1.807279,1.083030,1.170228,-2.860467,-0.837593,-1.916062,2.342138,3.600336,0.000000,0.000000,0.000000,0.000000,0.000000,0.000000
1176.386000,2.008000,3,START d_bow,Note,54,F#3,D,up,0.240958,0.387873,0.698183,0.082225,-1.300458,-1.807279,1.083030,1.169974,-2.859296,-0.840160,-1.914819,2.341939,3.600117,0.000000,0.000000,0.000000,0.000000,0.000000,0.000000
1176.402000,2.024000,3,START d_bow,Note,54,F#3,D,up,0.224958,0.387880,0.697058,0.082233,-1.300458,-1.807279,1.083030,1.169419,-2.856758,-0.845728,-1.912123,2.341504,3.599637,0.000000,0.000000,0.000000,0.000000,0.000000,0.000000
1176.410000,2.032000,3,START d_bow,Note,54,F#3,D,up,0.216958,0.387884,0.696450,0.082237,-1.300458,-1.807279,1.083030,1.169118,-2.855391,-0.848727,-1.910672,2.341268,3.599377,0.000000,0.000000,0.000000,0.000000,0.000000,0.000000
1176.426000,2.048000,3,START d_bow,Note,54,F#3,D,up,0.200958,0.387891,0.695139,0.082246,-1.300458,-1.807279,1.083030,1.168469,-2.852467,-0.855148,-1.907566,2.340758,3.598816,0.000000,0.000000,0.000000,0.000000,0.000000,0.000000
1176.434000,2.056000,3,START d_bow,Note,54,F#3,D,up,0.192958,0.387896,0.694437,0.082251,-1.300458,-1.807279,1.083030,1.168121,-2.850911,-0.858566,-1.905913,2.340484,3.598516,0.000000,0.000000,0.000000,0.000000,0.000000,0.000000
1176.450000,2.072000,3,START d_bow,Note,54,F#3,D,up,0.176958,0.387904,0.692941,0.082261,-1.300458,-1.807279,1.083030,1.167376,-2.847615,-0.865809,-1.902412,2.339899,3.597874,0.000000,0.000000,0.000000,0.000000,0.000000,0.000000
1176.466000,2.088000,3,START d_bow,Note,54,F#3,D,up,0.160958,0.387914,0.691320,0.082272,-1.300458,-1.807279,1.083030,1.166566,-2.844080,-0.873584,-1.898657,2.339263,3.597177,0.000000,0.000000,0.000000,0.000000,0.000000,0.000000
1176.474000,2.096000,3,START d_bow,Note,54,F#3,D,up,0.152958,0.387919,0.690463,0.082278,-1.300458,-1.807279,1.083030,1.166137,-2.842224,-0.877666,-1.896687,2.338926,3.596808,0.000000,0.000000,0.000000,0.000000,0.000000,0.000000
1176.482000,2.104000,3,START d_bow,Note,54,F#3,D,up,0.144958,0.387924,0.689575,0.082284,-1.300458,-1.807279,1.083030,1.165691,-2.840312,-0.881876,-1.894656,2.338576,3.596425,0.000000,0.000000,0.000000,0.000000,0.000000,0.000000
1176.490000,2.112000,3,START d_bow,Note,54,F#3,D,up,0.136958,0.387930,0.688656,0.082291,-1.300458,-1.807279,1.083030,1.165229,-2.838343,-0.886211,-1.892565,2.338213,3.596028,0.000000,0.000000,0.000000,0.000000,0.000000,0.000000
1176.498000,2.120000,3,START d_bow,Note,54,F#3,D,up,0.128958,0.387936,0.687706,0.082297,-1.300458,-1.807279,1.083030,1.164750,-2.836319,-0.890670,-1.890415,2.337836,3.595617,0.000000,0.000000,0.000000,0.000000,0.000000,0.000000
1176.506000,2.128000,3,START d_bow,Note,54,F#3,D,up,0.120958,0.387941,0.686756,0.082304,-1.300458,-1.807279,1.083030,1.164271,-2.834306,-0.895107,-1.888277,2.337459,3.595206,0.000000,0.000000,0.000000,0.000000,0.000000,0.000000
1176.514000,2.136000,3,START d_bow,Note,54,F#3,D,up,0.112958,0.387947,0.685838,0.082310,-1.300458,-1.807279,1.083030,1.163806,-2.832369,-0.899377,-1.886220,2.337093,3.594807,0.000000,0.000000,0.000000,0.000000,0.000000,0.000000
1176.522000,2.144000,3,START d_bow,Note,54,F#3,D,up,0.104958,0.387952,0.684950,0.082316,-1.300458,-1.807279,1.083030,1.163356,-2.830508,-0.903483,-1.884242,2.336739,3.594422,0.000000,0.000000,0.000000,0.000000,0.000000,0.000000
1176.530000,2.152000,3,START d_bow,Note,54,F#3,D,up,0.096958,0.387957,0.684093,0.082322,-1.300458,-1.807279,1.083030,1.162920,-2.828720,-0.907428,-1.882343,2.336396,3.594049,0.000000,0.000000,0.000000,0.000000,0.000000,0.000000
1176.538000,2.160000,3,START d_bow,Note,54,F#3,D,up,0.088958,0.387962,0.683267,0.082328,-1.300458,-1.807279,1.083030,1.162500,-2.827005,-0.911214,-1.880522,2.336065,3.593690,0.000000,0.000000,0.000000,0.000000,0.000000,0.000000
1176.546000,2.168000,3,START d_bow,Note,54,F#3,D,up,0.080958,0.387967,0.682472,0.082333,-1.300458,-1.807279,1.083030,1.162095,-2.825362,-0.914842,-1.878777,2.335746,3.593343,0.000000,0.000000,0.000000,0.000000,0.000000,0.000000
1176.554000,2.176000,3,START d_bow,Note,54,F#3,D,up,0.072958,0.387971,0.681708,0.082338,-1.300458,-1.807279,1.083030,1.161705,-2.823790,-0.918315,-1.877107,2.335439,3.593010,0.000000,0.000000,0.000000,0.000000,0.000000,0.000000
1176.562000,2.184000,3,START d_bow,Note,54,F#3,D,up,0.064958,0.387975,0.680975,0.082343,-1.300458,-1.807279,1.083030,1.161330,-2.822288,-0.921634,-1.875511,2.335144,3.592690,0.000000,0.000000,0.000000,0.000000,0.000000,0.000000
1176.570000,2.192000,3,START d_bow,Note,54,F#3,D,up,0.056958,0.387980,0.680274,0.082348,-1.300458,-1.807279,1.083030,1.160970,-2.820855,-0.924801,-1.873989,2.334860,3.592383,0.000000,0.000000,0.000000,0.000000,0.000000,0.000000
1176.578000,2.200000,3,START d_bow,Note,54,F#3,D,up,0.048958,0.387984,0.679603,0.082353,-1.300458,-1.807279,1.083030,1.160626,-2.819490,-0.927818,-1.872540,2.334589,3.592090,0.000000,0.000000,0.000000,0.000000,0.000000,0.000000
1176.586000,2.208000,3,START d_bow,Note,54,F#3,D,up,0.040958,0.387987,0.678963,0.082357,-1.300458,-1.807279,1.083030,1.160297,-2.818194,-0.930686,-1.871162,2.334330,3.591809,0.000000,0.000000,0.000000,0.000000,0.000000,0.000000
1176.602000,2.224000,3,START d_bow,Note,54,F#3,D,up,0.024958,0.387994,0.677777,0.082365,-1.300458,-1.807279,1.083030,1.159686,-2.815800,-0.935981,-1.868620,2.333848,3.591289,0.000000,0.000000,0.000000,0.000000,0.000000,0.000000
1176.618000,2.240000,3,START d_bow,Note,54,F#3,D,up,0.008958,0.388001,0.676714,0.082373,-1.300458,-1.807279,1.083030,1.159137,-2.813670,-0.940697,-1.866357,2.333416,3.590822,0.000000,0.000000,0.000000,0.000000,0.000000,0.000000
1176.626000,2.248000,3,START d_bow,Note,54,F#3,D,up,0.000958,0.388004,0.676230,0.082376,-1.300458,-1.807279,1.083030,1.158887,-2.812703,-0.942840,-1.865329,2.333218,3.590609,0.000000,0.000000,0.000000,0.000000,0.000000,0.000000
1176.634000,2.256000,3,START d_bow,Note,55,G3,D,up,0.242958,0.388006,0.675776,0.082379,-1.300458,-1.807279,1.083030,1.158652,-2.811799,-0.944841,-1.864369,2.333033,3.590409,0.000000,0.000000,0.000000,0.000000,0.000000,0.000000
1176.642000,2.264000,3,START d_bow,Note,55,G3,D,up,0.234958,0.388009,0.675353,0.082382,-1.300458,-1.807279,1.083030,1.158433,-2.810959,-0.946702,-1.863477,2.332860,3.590223,0.000000,0.000000,0.000000,0.000000,0.000000,0.000000
1176.658000,2.280000,3,START d_bow,Note,55,G3,D,up,0.218958,0.388013,0.674601,0.082387,-1.300458,-1.807279,1.083030,1.158042,-2.809469,-0.950004,-1.861894,2.332552,3.589891,0.000000,0.000000,0.000000,0.000000,0.000000,0.000000
1176.674000,2.296000,3,START d_bow,Note,55,G3,D,up,0.202958,0.388017,0.673973,0.082392,-1.300458,-1.807279,1.083030,1.157716,-2.808229,-0.952753,-1.860577,2.332295,3.589614,0.000000,0.000000,0.000000,0.000000,0.000000,0.000000
1176.682000,2.304000,3,START d_bow,Note,55,G3,D,up,0.194958,0.388019,0.673705,0.082394,-1.300458,-1.807279,1.083030,1.157577,-2.807702,-0.953921,-1.860017,2.332185,3.589496,0.000000,0.000000,0.000000,0.000000,0.000000,0.000000
1176.690000,2.312000,3,START d_bow,Note,55,G3,D,up,0.186958,0.388020,0.673469,0.082395,-1.300458,-1.807279,1.083030,1.157453,-2.807237,-0.954953,-1.859523,2.332088,3.589391,0.000000,0.000000,0.000000,0.000000,0.000000,0.000000
1176.698000,2.320000,3,START d_bow,Note,55,G3,D,up,0.178958,0.388021,0.673263,0.082397,-1.300458,-1.807279,1.083030,1.157346,-2.806833,-0.955848,-1.859094,2.332003,3.589301,0.000000,0.000000,0.000000,0.000000,0.000000,0.000000
1176.706000,2.328000,3,START d_bow,Note,55,G3,D,up,0.170958,0.388022,0.673089,0.082398,-1.300458,-1.807279,1.083030,1.157255,-2.806491,-0.956608,-1.858730,2.331931,3.589223,0.000000,0.000000,0.000000,0.000000,0.000000,0.000000
1176.730000,2.352000,3,START d_bow,Note,55,G3,D,up,0.146958,0.388024,0.672752,0.082400,-1.300458,-1.807279,1.083030,1.157080,-2.805829,-0.958074,-1.858027,2.331793,3.589074,0.000000,0.000000,0.000000,0.000000,0.000000,0.000000
1176.738000,2.360000,3,START d_bow,Note,55,G3,D,up,0.138958,0.388025,0.672701,0.082400,-1.300458,-1.807279,1.083030,1.157053,-2.805731,-0.958293,-1.857922,2.331772,3.589052,0.000000,0.000000,0.000000,0.000000,0.000000,0.000000
1176.746000,2.368000,3,START d_bow,Note,55,G3,D,up,0.130958,0.388025,0.672682,0.082401,-1.300458,-1.807279,1.083030,1.157043,-2.805693,-0.958377,-1.857882,2.331764,3.589043,0.000000,0.000000,0.000000,0.000000,0.000000,0.000000
1176.754000,2.376000,4,END d_bow,Note,55,G3,D,up,0.122958,0.388025,0.672682,0.082401,-1.300458,-1.807279,1.083030,1.157043,-2.805692,-0.958378,-1.857881,2.331764,3.589043,0.000000,0.000000,0.000000,0.000000,0.000000,0.000000
1176.762000,2.384000,4,END d_bow,Note,55,G3,D,up,0.114958,0.388025,0.672682,0.082401,-1.300458,-1.807279,1.083030,1.157043,-2.805692,-0.958378,-1.857881,2.331764,3.589043,0.000000,0.000000,0.000000,0.000000,0.000000,0.000000
1176.770000,2.392000,4,END d_bow,Note,55,G3,D,up,0.106958,0.388025,0.672682,0.082401,-1.300458,-1.807279,1.083030,1.157043,-2.805692,-0.958378,-1.857881,2.331764,3.589043,0.000000,0.000000,0.000000,0.000000,0.000000,0.000000
1176.778000,2.400000,3,START d_bow,Transition,transition,transition D->A,D-A,down,0.298958,0.388025,0.672684,0.082401,-1.300458,-1.807279,1.083030,1.157044,-2.805697,-0.958369,-1.857886,2.331765,3.589044,0.000000,0.000000,0.000000,0.000000,0.000000,0.000000
1176.786000,2.408000,3,START d_bow,Transition,transition,transition D->A,D-A,down,0.290958,0.388024,0.672711,0.082400,-1.300458,-1.807279,1.083030,1.157058,-2.805750,-0.958251,-1.857942,2.331776,3.589056,0.000000,0.000000,0.000000,0.000000,0.000000,0.000000
1176.794000,2.416000,3,START d_bow,Transition,transition,transition D->A,D-A,down,0.282958,0.388024,0.672769,0.082400,-1.300458,-1.807279,1.083030,1.157089,-2.805864,-0.957998,-1.858064,2.331800,3.589082,0.000000,0.000000,0.000000,0.000000,0.000000,0.000000
1176.802000,2.424000,3,START d_bow,Transition,transition,transition D->A,D-A,down,0.274958,0.388024,0.672858,0.082399,-1.300458,-1.807279,1.083030,1.157135,-2.806038,-0.957611,-1.858249,2.331837,3.589121,0.000000,0.000000,0.000000,0.000000,0.000000,0.000000
1176.810000,2.432000,3,START d_bow,Transition,transition,transition D->A,D-A,down,0.266958,0.388023,0.672978,0.082399,-1.300458,-1.807279,1.083030,1.157198,-2.806274,-0.957088,-1.858499,2.331886,3.589175,0.000000,0.000000,0.000000,0.000000,0.000000,0.000000
1176.818000,2.440000,3,START d_bow,Transition,transition,transition D->A,D-A,down,0.258958,0.388022,0.673130,0.082397,-1.300458,-1.807279,1.083030,1.157277,-2.806571,-0.956430,-1.858815,2.331948,3.589241,0.000000,0.000000,0.000000,0.000000,0.000000,0.000000
1176.826000,2.448000,3,START d_bow,Transition,transition,transition D->A,D-A,down,0.250958,0.388021,0.673312,0.082396,-1.300458,-1.807279,1.083030,1.157372,-2.806928,-0.955637,-1.859195,2.332023,3.589322,0.000000,0.000000,0.000000,0.000000,0.000000,0.000000
1176.834000,2.456000,3,START d_bow,Transition,transition,transition D->A,D-A,down,0.242958,0.388020,0.673525,0.082395,-1.300458,-1.807279,1.083030,1.157483,-2.807347,-0.954708,-1.859640,2.332111,3.589416,0.000000,0.000000,0.000000,0.000000,0.000000,0.000000
1176.842000,2.464000,3,START d_bow,Transition,transition,transition D->A,D-A,down,0.234958,0.388018,0.673769,0.082393,-1.300458,-1.807279,1.083030,1.157610,-2.807828,-0.953642,-1.860151,2.332211,3.589524,0.000000,0.000000,0.000000,0.000000,0.000000,0.000000
1176.850000,2.472000,3,START d_bow,Transition,transition,transition D->A,D-A,down,0.226958,0.388017,0.674045,0.082391,-1.300458,-1.807279,1.083030,1.157753,-2.808370,-0.952439,-1.860727,2.332324,3.589646,0.000000,0.000000,0.000000,0.000000,0.000000,0.000000
1176.858000,2.480000,3,START d_bow,Transition,transition,transition D->A,D-A,down,0.218958,0.388015,0.674351,0.082389,-1.300458,-1.807279,1.083030,1.157912,-2.808975,-0.951100,-1.861369,2.332450,3.589781,0.000000,0.000000,0.000000,0.000000,0.000000,0.000000
1176.866000,2.488000,3,START d_bow,Transition,transition,transition D->A,D-A,down,0.210958,0.388013,0.674688,0.082387,-1.300458,-1.807279,1.083030,1.158088,-2.809642,-0.949622,-1.862077,2.332588,3.589930,0.000000,0.000000,0.000000,0.000000,0.000000,0.000000
1176.874000,2.496000,3,START d_bow,Transition,transition,transition D->A,D-A,down,0.202958,0.388011,0.675057,0.082384,-1.300458,-1.807279,1.083030,1.158279,-2.810371,-0.948006,-1.862852,2.332739,3.590092,0.000000,0.000000,0.000000,0.000000,0.000000,0.000000
1176.882000,2.504000,3,START d_bow,Transition,transition,transition D->A,D-A,down,0.194958,0.388008,0.675456,0.082381,-1.300458,-1.807279,1.083030,1.158486,-2.811163,-0.946250,-1.863694,2.332902,3.590268,0.000000,0.000000,0.000000,0.000000,0.000000,0.000000
1176.890000,2.512000,3,START d_bow,Transition,transition,transition D->A,D-A,down,0.186958,0.388006,0.675886,0.082379,-1.300458,-1.807279,1.083030,1.158709,-2.812019,-0.944354,-1.864603,2.333078,3.590458,0.000000,0.000000,0.000000,0.000000,0.000000,0.000000
1176.898000,2.520000,3,START d_bow,Transition,transition,transition D->A,D-A,down,0.178958,0.388003,0.676348,0.082375,-1.300458,-1.807279,1.083030,1.158948,-2.812939,-0.942317,-1.865580,2.333266,3.590661,0.000000,0.000000,0.000000,0.000000,0.000000,0.000000
1176.906000,2.528000,3,START d_bow,Transition,transition,transition D->A,D-A,down,0.170958,0.388000,0.676840,0.082372,-1.300458,-1.807279,1.083030,1.159202,-2.813922,-0.940139,-1.866625,2.333467,3.590877,0.000000,0.000000,0.000000,0.000000,0.000000,0.000000
1176.914000,2.536000,3,START d_bow,Transition,transition,transition D->A,D-A,down,0.162958,0.387997,0.677364,0.082368,-1.300458,-1.807279,1.083030,1.159473,-2.814971,-0.937817,-1.867739,2.333680,3.591107,0.000000,0.000000,0.000000,0.000000,0.000000,0.000000
1176.922000,2.544000,3,START d_bow,Transition,transition,transition D->A,D-A,down,0.154958,0.387994,0.677918,0.082365,-1.300458,-1.807279,1.083030,1.159759,-2.816085,-0.935351,-1.868922,2.333906,3.591351,0.000000,0.000000,0.000000,0.000000,0.000000,0.000000
1176.930000,2.552000,3,START d_bow,Transition,transition,transition D->A,D-A,down,0.146958,0.387990,0.678504,0.082360,-1.300458,-1.807279,1.083030,1.160060,-2.817265,-0.932741,-1.870176,2.334144,3.591608,0.000000,0.000000,0.000000,0.000000,0.000000,0.000000
1176.938000,2.560000,3,START d_bow,Transition,transition,transition D->A,D-A,down,0.138958,0.387986,0.679120,0.082356,-1.300458,-1.807279,1.083030,1.160378,-2.818511,-0.929983,-1.871500,2.334394,3.591878,0.000000,0.000000,0.000000,0.000000,0.000000,0.000000
1176.946000,2.568000,3,START d_bow,Transition,transition,transition D->A,D-A,down,0.130958,0.387983,0.679768,0.082352,-1.300458,-1.807279,1.083030,1.160710,-2.819825,-0.927078,-1.872895,2.334656,3.592162,0.000000,0.000000,0.000000,0.000000,0.000000,0.000000
1176.954000,2.576000,3,START d_bow,Transition,transition,transition D->A,D-A,down,0.122958,0.387979,0.680446,0.082347,-1.300458,-1.807279,1.083030,1.161058,-2.821206,-0.924024,-1.874363,2.334930,3.592459,0.000000,0.000000,0.000000,0.000000,0.000000,0.000000
1176.962000,2.584000,3,START d_bow,Transition,transition,transition D->A,D-A,down,0.114958,0.387974,0.681156,0.082342,-1.300458,-1.807279,1.083030,1.161422,-2.822657,-0.920819,-1.875903,2.335216,3.592769,0.000000,0.000000,0.000000,0.000000,0.000000,0.000000
1176.970000,2.592000,3,START d_bow,Transition,transition,transition D->A,D-A,down,0.106958,0.387970,0.681896,0.082337,-1.300458,-1.807279,1.083030,1.161801,-2.824176,-0.917461,-1.877517,2.335515,3.593092,0.000000,0.000000,0.000000,0.000000,0.000000,0.000000
1176.978000,2.600000,3,START d_bow,Transition,transition,transition D->A,D-A,down,0.098958,0.387965,0.682668,0.082332,-1.300458,-1.807279,1.083030,1.162195,-2.825766,-0.913950,-1.879206,2.335825,3.593429,0.000000,0.000000,0.000000,0.000000,0.000000,0.000000
1176.986000,2.608000,3,START d_bow,Transition,transition,transition D->A,D-A,down,0.090958,0.387961,0.683470,0.082326,-1.300458,-1.807279,1.083030,1.162604,-2.827427,-0.910282,-1.880970,2.336147,3.593778,0.000000,0.000000,0.000000,0.000000,0.000000,0.000000
1176.994000,2.616000,3,START d_bow,Transition,transition,transition D->A,D-A,down,0.082958,0.387956,0.684304,0.082321,-1.300458,-1.807279,1.083030,1.163028,-2.829160,-0.906457,-1.882811,2.336481,3.594141,0.000000,0.000000,0.000000,0.000000,0.000000,0.000000
1177.002000,2.624000,3,START d_bow,Transition,transition,transition D->A,D-A,down,0.074958,0.387951,0.685169,0.082315,-1.300458,-1.807279,1.083030,1.163467,-2.830966,-0.902472,-1.884729,2.336826,3.594517,0.000000,0.000000,0.000000,0.000000,0.000000,0.000000
1177.010000,2.632000,3,START d_bow,Transition,transition,transition D->A,D-A,down,0.066958,0.387945,0.686064,0.082308,-1.300458,-1.807279,1.083030,1.163921,-2.832846,-0.898325,-1.886727,2.337183,3.594906,0.000000,0.000000,0.000000,0.000000,0.000000,0.000000
1177.018000,2.640000,3,START d_bow,Transition,transition,transition D->A,D-A,down,0.058958,0.387940,0.686991,0.082302,-1.300458,-1.807279,1.083030,1.164389,-2.834802,-0.894013,-1.888804,2.337552,3.595307,0.000000,0.000000,0.000000,0.000000,0.000000,0.000000
1177.026000,2.648000,3,START d_bow,Transition,transition,transition D->A,D-A,down,0.050958,0.387934,0.687947,0.082295,-1.300458,-1.807279,1.083030,1.164872,-2.836830,-0.889544,-1.890958,2.337931,3.595721,0.000000,0.000000,0.000000,0.000000,0.000000,0.000000
1177.034000,2.656000,3,START d_bow,Transition,transition,transition D->A,D-A,down,0.042958,0.387928,0.688889,0.082289,-1.300458,-1.807279,1.083030,1.165346,-2.838840,-0.885116,-1.893093,2.338305,3.596129,0.000000,0.000000,0.000000,0.000000,0.000000,0.000000
1177.042000,2.664000,3,START d_bow,Transition,transition,transition D->A,D-A,down,0.034958,0.387923,0.689800,0.082283,-1.300458,-1.807279,1.083030,1.165804,-2.840795,-0.880812,-1.895169,2.338665,3.596522,0.000000,0.000000,0.000000,0.000000,0.000000,0.000000
1177.050000,2.672000,3,START d_bow,Transition,transition,transition D->A,D-A,down,0.026958,0.387918,0.690680,0.082277,-1.300458,-1.807279,1.083030,1.166246,-2.842693,-0.876634,-1.897185,2.339012,3.596901,0.000000,0.000000,0.000000,0.000000,0.000000,0.000000
1177.058000,2.680000,3,START d_bow,Transition,transition,transition D->A,D-A,down,0.018958,0.387913,0.691529,0.082271,-1.300458,-1.807279,1.083030,1.166671,-2.844534,-0.872584,-1.899140,2.339346,3.597267,0.000000,0.000000,0.000000,0.000000,0.000000,0.000000
1177.066000,2.688000,3,START d_bow,Transition,transition,transition D->A,D-A,down,0.010958,0.387908,0.692348,0.082265,-1.300458,-1.807279,1.083030,1.167080,-2.846317,-0.868663,-1.901034,2.339667,3.597619,0.000000,0.000000,0.000000,0.000000,0.000000,0.000000
1177.074000,2.696000,3,START d_bow,Transition,transition,transition D->A,D-A,down,0.002958,0.387903,0.693135,0.082260,-1.300458,-1.807279,1.083030,1.167472,-2.848040,-0.864874,-1.902864,2.339975,3.597957,0.000000,0.000000,0.000000,0.000000,0.000000,0.000000
1177.082000,2.704000,3,START d_bow,Note,57,A3,A,down,0.044958,0.387899,0.693891,0.082255,-1.300458,-1.807279,1.083030,1.167849,-2.849704,-0.861219,-1.904630,2.340271,3.598282,0.000000,0.000000,0.000000,0.000000,0.000000,0.000000
1177.090000,2.712000,3,START d_bow,Note,57,A3,A,down,0.036958,0.387895,0.694616,0.082250,-1.300458,-1.807279,1.083030,1.168209,-2.851306,-0.857698,-1.906332,2.340554,3.598592,0.000000,0.000000,0.000000,0.000000,0.000000,0.000000
1177.098000,2.720000,3,START d_bow,Note,57,A3,A,down,0.028958,0.387890,0.695310,0.082245,-1.300458,-1.807279,1.083030,1.168554,-2.852846,-0.854315,-1.907969,2.340824,3.598889,0.000000,0.000000,0.000000,0.000000,0.000000,0.000000
1177.106000,2.728000,3,START d_bow,Note,57,A3,A,down,0.020958,0.387886,0.695973,0.082240,-1.300458,-1.807279,1.083030,1.168882,-2.854325,-0.851069,-1.909538,2.341082,3.599173,0.000000,0.000000,0.000000,0.000000,0.000000,0.000000
1177.114000,2.736000,3,START d_bow,Note,57,A3,A,down,0.012958,0.387883,0.696605,0.082236,-1.300458,-1.807279,1.083030,1.169195,-2.855739,-0.847964,-1.911041,2.341328,3.599443,0.000000,0.000000,0.000000,0.000000,0.000000,0.000000
1177.122000,2.744000,3,START d_bow,Note,57,A3,A,down,0.004958,0.387879,0.697206,0.082232,-1.300458,-1.807279,1.083030,1.169492,-2.857090,-0.845001,-1.912475,2.341561,3.599700,0.000000,0.000000,0.000000,0.000000,0.000000,0.000000
1177.130000,2.752000,3,START d_bow,Transition,transition,transition A->D,A-D,down,0.196958,0.387876,0.697776,0.082228,-1.300458,-1.807279,1.083030,1.169773,-2.858375,-0.842180,-1.913841,2.341782,3.599943,0.000000,0.000000,0.000000,0.000000,0.000000,0.000000
1177.138000,2.760000,3,START d_bow,Transition,transition,transition A->D,A-D,down,0.188958,0.387873,0.698315,0.082224,-1.300458,-1.807279,1.083030,1.170039,-2.859595,-0.839504,-1.915136,2.341990,3.600173,0.000000,0.000000,0.000000,0.000000,0.000000,0.000000
1177.146000,2.768000,3,START d_bow,Transition,transition,transition A->D,A-D,down,0.180958,0.387870,0.698823,0.082221,-1.300458,-1.807279,1.083030,1.170289,-2.860749,-0.836975,-1.916362,2.342186,3.600389,0.000000,0.000000,0.000000,0.000000,0.000000,0.000000
1177.154000,2.776000,3,START d_bow,Transition,transition,transition A->D,A-D,down,0.172958,0.387867,0.699300,0.082217,-1.300458,-1.807279,1.083030,1.170524,-2.861835,-0.834592,-1.917516,2.342370,3.600592,0.000000,0.000000,0.000000,0.000000,0.000000,0.000000
1177.162000,2.784000,3,START d_bow,Transition,transition,transition A->D,A-D,down,0.164958,0.387864,0.699745,0.082214,-1.300458,-1.807279,1.083030,1.170743,-2.862854,-0.832359,-1.918598,2.342542,3.600782,0.000000,0.000000,0.000000,0.000000,0.000000,0.000000
1177.170000,2.792000,3,START d_bow,Transition,transition,transition A->D,A-D,down,0.156958,0.387862,0.700160,0.082211,-1.300458,-1.807279,1.083030,1.170947,-2.863805,-0.830275,-1.919608,2.342702,3.600958,0.000000,0.000000,0.000000,0.000000,0.000000,0.000000
1177.178000,2.800000,3,START d_bow,Transition,transition,transition A->D,A-D,down,0.148958,0.387859,0.700544,0.082209,-1.300458,-1.807279,1.083030,1.171135,-2.864687,-0.828342,-1.920545,2.342850,3.601121,0.000000,0.000000,0.000000,0.000000,0.000000,0.000000
1177.186000,2.808000,3,START d_bow,Transition,transition,transition A->D,A-D,down,0.140958,0.387857,0.700897,0.082206,-1.300458,-1.807279,1.083030,1.171308,-2.865500,-0.826562,-1.921408,2.342985,3.601271,0.000000,0.000000,0.000000,0.000000,0.000000,0.000000
1177.194000,2.816000,3,START d_bow,Transition,transition,transition A->D,A-D,down,0.132958,0.387855,0.701219,0.082204,-1.300458,-1.807279,1.083030,1.171465,-2.866243,-0.824934,-1.922197,2.343109,3.601408,0.000000,0.000000,0.000000,0.000000,0.000000,0.000000
1177.202000,2.824000,3,START d_bow,Transition,transition,transition A->D,A-D,down,0.124958,0.387854,0.701510,0.082202,-1.300458,-1.807279,1.083030,1.171608,-2.866916,-0.823461,-1.922912,2.343220,3.601531,0.000000,0.000000,0.000000,0.000000,0.000000,0.000000
1177.210000,2.832000,3,START d_bow,Transition,transition,transition A->D,A-D,down,0.116958,0.387852,0.701769,0.082200,-1.300458,-1.807279,1.083030,1.171735,-2.867518,-0.822142,-1.923551,2.343320,3.601641,0.000000,0.000000,0.000000,0.000000,0.000000,0.000000
1177.218000,2.840000,3,START d_bow,Transition,transition,transition A->D,A-D,down,0.108958,0.387851,0.701998,0.082199,-1.300458,-1.807279,1.083030,1.171847,-2.868049,-0.820980,-1.924116,2.343407,3.601738,0.000000,0.000000,0.000000,0.000000,0.000000,0.000000
1177.226000,2.848000,3,START d_bow,Transition,transition,transition A->D,A-D,down,0.100958,0.387850,0.702196,0.082197,-1.300458,-1.807279,1.083030,1.171943,-2.868509,-0.819973,-1.924604,2.343483,3.601822,0.000000,0.000000,0.000000,0.000000,0.000000,0.000000
1177.234000,2.856000,3,START d_bow,Transition,transition,transition A->D,A-D,down,0.092958,0.387849,0.702363,0.082196,-1.300458,-1.807279,1.083030,1.172025,-2.868897,-0.819123,-1.925016,2.343547,3.601893,0.000000,0.000000,0.000000,0.000000,0.000000,0.000000
1177.242000,2.864000,3,START d_bow,Transition,transition,transition A->D,A-D,down,0.084958,0.387848,0.702498,0.082195,-1.300458,-1.807279,1.083030,1.172091,-2.869213,-0.818431,-1.925352,2.343599,3.601950,0.000000,0.000000,0.000000,0.000000,0.000000,0.000000
1177.250000,2.872000,3,START d_bow,Transition,transition,transition A->D,A-D,down,0.076958,0.387847,0.702603,0.082195,-1.300458,-1.807279,1.083030,1.172142,-2.869457,-0.817897,-1.925611,2.343639,3.601994,0.000000,0.000000,0.000000,0.000000,0.000000,0.000000
1177.258000,2.880000,3,START d_bow,Transition,transition,transition A->D,A-D,down,0.068958,0.387847,0.702677,0.082194,-1.300458,-1.807279,1.083030,1.172178,-2.869629,-0.817521,-1.925794,2.343667,3.602026,0.000000,0.000000,0.000000,0.000000,0.000000,0.000000
1177.266000,2.888000,3,START d_bow,Transition,transition,transition A->D,A-D,down,0.060958,0.387846,0.702719,0.082194,-1.300458,-1.807279,1.083030,1.172199,-2.869729,-0.817303,-1.925900,2.343684,3.602044,0.000000,0.000000,0.000000,0.000000,0.000000,0.000000
1177.274000,2.896000,3,START d_bow,Transition,transition,transition A->D,A-D,down,0.052958,0.387846,0.702731,0.082194,-1.300458,-1.807279,1.083030,1.172205,-2.869756,-0.817242,-1.925929,2.343688,3.602049,0.000000,0.000000,0.000000,0.000000,0.000000,0.000000
1177.282000,2.904000,4,END d_bow,Transition,transition,transition A->D,A-D,down,0.044958,0.387846,0.702731,0.082194,-1.300458,-1.807279,1.083030,1.172205,-2.869756,-0.817242,-1.925929,2.343688,3.602049,0.000000,0.000000,0.000000,0.000000,0.000000,0.000000
1177.290000,2.912000,4,END d_bow,Transition,transition,transition A->D,A-D,down,0.036958,0.387846,0.702731,0.082194,-1.300458,-1.807279,1.083030,1.172205,-2.869756,-0.817242,-1.925929,2.343688,3.602049,0.000000,0.000000,0.000000,0.000000,0.000000,0.000000
1177.298000,2.920000,4,END d_bow,Transition,transition,transition A->D,A-D,down,0.028958,0.387846,0.702731,0.082194,-1.300458,-1.807279,1.083030,1.172205,-2.869756,-0.817242,-1.925929,2.343688,3.602049,0.000000,0.000000,0.000000,0.000000,0.000000,0.000000
1177.306000,2.928000,3,START d_bow,Note,55,G3,D,up,0.320958,0.387846,0.702725,0.082194,-1.300458,-1.807279,1.083030,1.172202,-2.869742,-0.817273,-1.925914,2.343686,3.602046,0.000000,0.000000,0.000000,0.000000,0.000000,0.000000
1177.314000,2.936000,3,START d_bow,Note,55,G3,D,up,0.312958,0.387847,0.702690,0.082194,-1.300458,-1.807279,1.083030,1.172185,-2.869661,-0.817451,-1.925827,2.343672,3.602031,0.000000,0.000000,0.000000,0.000000,0.000000,0.000000
1177.322000,2.944000,3,START d_bow,Note,55,G3,D,up,0.304958,0.387847,0.702624,0.082194,-1.300458,-1.807279,1.083030,1.172153,-2.869507,-0.817788,-1.925664,2.343647,3.602003,0.000000,0.000000,0.000000,0.000000,0.000000,0.000000
1177.330000,2.952000,3,START d_bow,Note,55,G3,D,up,0.296958,0.387848,0.702527,0.082195,-1.300458,-1.807279,1.083030,1.172105,-2.869281,-0.818283,-1.925424,2.343610,3.601962,0.000000,0.000000,0.000000,0.000000,0.000000,0.000000
1177.338000,2.960000,3,START d_bow,Note,55,G3,D,up,0.288958,0.387848,0.702399,0.082196,-1.300458,-1.807279,1.083030,1.172043,-2.868983,-0.818936,-1.925107,2.343561,3.601908,0.000000,0.000000,0.000000,0.000000,0.000000,0.000000
1177.346000,2.968000,3,START d_bow,Note,55,G3,D,up,0.280958,0.387849,0.702240,0.082197,-1.300458,-1.807279,1.083030,1.171965,-2.868612,-0.819746,-1.924714,2.343500,3.601841,0.000000,0.000000,0.000000,0.000000,0.000000,0.000000
1177.354000,2.976000,3,START d_bow,Note,55,G3,D,up,0.272958,0.387850,0.702050,0.082198,-1.300458,-1.807279,1.083030,1.171872,-2.868171,-0.820713,-1.924245,2.343428,3.601760,0.000000,0.000000,0.000000,0.000000,0.000000,0.000000
1177.362000,2.984000,3,START d_bow,Note,55,G3,D,up,0.264958,0.387852,0.701829,0.082200,-1.300458,-1.807279,1.083030,1.171764,-2.867657,-0.821837,-1.923700,2.343343,3.601667,0.000000,0.000000,0.000000,0.000000,0.000000,0.000000
1177.370000,2.992000,3,START d_bow,Note,55,G3,D,up,0.256958,0.387853,0.701577,0.082202,-1.300458,-1.807279,1.083030,1.171641,-2.867073,-0.823117,-1.923079,2.343246,3.601560,0.000000,0.000000,0.000000,0.000000,0.000000,0.000000
1177.378000,3.000000,3,START d_bow,Note,55,G3,D,up,0.248958,0.387855,0.701294,0.082204,-1.300458,-1.807279,1.083030,1.171502,-2.866418,-0.824551,-1.922383,2.343138,3.601440,0.000000,0.000000,0.000000,0.000000,0.000000,0.000000
1177.386000,3.008000,3,START d_bow,Note,55,G3,D,up,0.240958,0.387857,0.700980,0.082206,-1.300458,-1.807279,1.083030,1.171349,-2.865692,-0.826140,-1.921612,2.343017,3.601306,0.000000,0.000000,0.000000,0.000000,0.000000,0.000000
1177.394000,3.016000,3,START d_bow,Note,55,G3,D,up,0.232958,0.387859,0.700635,0.082208,-1.300458,-1.807279,1.083030,1.171180,-2.864897,-0.827883,-1.920768,2.342885,3.601160,0.000000,0.000000,0.000000,0.000000,0.000000,0.000000
1177.402000,3.024000,3,START d_bow,Note,55,G3,D,up,0.224958,0.387861,0.700259,0.082211,-1.300458,-1.807279,1.083030,1.170995,-2.864032,-0.829778,-1.919849,2.342740,3.601000,0.000000,0.000000,0.000000,0.000000,0.000000,0.000000
1177.410000,3.032000,3,START d_bow,Note,55,G3,D,up,0.216958,0.387863,0.699852,0.082214,-1.300458,-1.807279,1.083030,1.170795,-2.863099,-0.831824,-1.918857,2.342583,3.600827,0.000000,0.000000,0.000000,0.000000,0.000000,0.000000
1177.418000,3.040000,3,START d_bow,Note,55,G3,D,up,0.208958,0.387866,0.699414,0.082217,-1.300458,-1.807279,1.083030,1.170580,-2.862096,-0.834020,-1.917793,2.342414,3.600641,0.000000,0.000000,0.000000,0.000000,0.000000,0.000000
1177.426000,3.048000,3,START d_bow,Note,55,G3,D,up,0.200958,0.387869,0.698945,0.082220,-1.300458,-1.807279,1.083030,1.170349,-2.861027,-0.836365,-1.916657,2.342233,3.600441,0.000000,0.000000,0.000000,0.000000,0.000000,0.000000
1177.434000,3.056000,3,START d_bow,Note,55,G3,D,up,0.192958,0.387872,0.698445,0.082223,-1.300458,-1.807279,1.083030,1.170103,-2.859890,-0.838858,-1.915449,2.342040,3.600228,0.000000,0.000000,0.000000,0.000000,0.000000,0.000000
1177.442000,3.064000,3,START d_bow,Note,55,G3,D,up,0.184958,0.387875,0.697913,0.082227,-1.300458,-1.807279,1.083030,1.169841,-2.858686,-0.841498,-1.914171,2.341835,3.600002,0.000000,0.000000,0.000000,0.000000,0.000000,0.000000
1177.450000,3.072000,3,START d_bow,Note,55,G3,D,up,0.176958,0.387878,0.697351,0.082231,-1.300458,-1.807279,1.083030,1.169564,-2.857417,-0.844282,-1.912823,2.341617,3.599762,0.000000,0.000000,0.000000,0.000000,0.000000,0.000000
1177.458000,3.080000,3,START d_bow,Note,55,G3,D,up,0.168958,0.387882,0.696758,0.082235,-1.300458,-1.807279,1.083030,1.169271,-2.856083,-0.847210,-1.911406,2.341387,3.599509,0.000000,0.000000,0.000000,0.000000,0.000000,0.000000
1177.466000,3.088000,3,START d_bow,Note,55,G3,D,up,0.160958,0.387886,0.696134,0.082239,-1.300458,-1.807279,1.083030,1.168962,-2.854684,-0.850280,-1.909920,2.341145,3.599242,0.000000,0.000000,0.000000,0.000000,0.000000,0.000000
1177.474000,3.096000,3,START d_bow,Note,55,G3,D,up,0.152958,0.387889,0.695478,0.082244,-1.300458,-1.807279,1.083030,1.168637,-2.853222,-0.853490,-1.908367,2.340890,3.598962,0.000000,0.000000,0.000000,0.000000,0.000000,0.000000
1177.482000,3.104000,3,START d_bow,Note,55,G3,D,up,0.144958,0.387893,0.694792,0.082248,-1.300458,-1.807279,1.083030,1.168297,-2.851697,-0.856840,-1.906748,2.340623,3.598668,0.000000,0.000000,0.000000,0.000000,0.000000,0.000000
1177.490000,3.112000,3,START d_bow,Note,55,G3,D,up,0.136958,0.387898,0.694075,0.082253,-1.300458,-1.807279,1.083030,1.167940,-2.850110,-0.860326,-1.905062,2.340343,3.598360,0.000000,0.000000,0.000000,0.000000,0.000000,0.000000
1177.498000,3.120000,3,START d_bow,Note,55,G3,D,up,0.128958,0.387902,0.693327,0.082258,-1.300458,-1.807279,1.083030,1.167568,-2.848462,-0.863948,-1.903312,2.340050,3.598039,0.000000,0.000000,0.000000,0.000000,0.000000,0.000000
1177.506000,3.128000,3,START d_bow,Note,55,G3,D,up,0.120958,0.387907,0.692547,0.082264,-1.300458,-1.807279,1.083030,1.167179,-2.846753,-0.867704,-1.901497,2.339745,3.597705,0.000000,0.000000,0.000000,0.000000,0.000000,0.000000
1177.514000,3.136000,3,START d_bow,Note,55,G3,D,up,0.112958,0.387912,0.691737,0.082269,-1.300458,-1.807279,1.083030,1.166774,-2.844985,-0.871591,-1.899619,2.339427,3.597356,0.000000,0.000000,0.000000,0.000000,0.000000,0.000000
1177.522000,3.144000,3,START d_bow,Note,55,G3,D,up,0.104958,0.387917,0.690895,0.082275,-1.300458,-1.807279,1.083030,1.166353,-2.843159,-0.875609,-1.897680,2.339096,3.596994,0.000000,0.000000,0.000000,0.000000,0.000000,0.000000
1177.530000,3.152000,3,START d_bow,Note,55,G3,D,up,0.096958,0.387922,0.690023,0.082281,-1.300458,-1.807279,1.083030,1.165916,-2.841275,-0.879755,-1.895679,2.338753,3.596618,0.000000,0.000000,0.000000,0.000000,0.000000,0.000000
1177.538000,3.160000,3,START d_bow,Note,55,G3,D,up,0.088958,0.387927,0.689120,0.082287,-1.300458,-1.807279,1.083030,1.165462,-2.839334,-0.884028,-1.893617,2.338396,3.596228,0.000000,0.000000,0.000000,0.000000,0.000000,0.000000
1177.546000,3.168000,3,START d_bow,Note,55,G3,D,up,0.080958,0.387933,0.688185,0.082294,-1.300458,-1.807279,1.083030,1.164992,-2.837338,-0.888426,-1.891497,2.338026,3.595824,0.000000,0.000000,0.000000,0.000000,0.000000,0.000000
1177.554000,3.176000,3,START d_bow,Note,55,G3,D,up,0.072958,0.387938,0.687228,0.082300,-1.300458,-1.807279,1.083030,1.164509,-2.835303,-0.892910,-1.889336,2.337646,3.595410,0.000000,0.000000,0.000000,0.000000,0.000000,0.000000
1177.562000,3.184000,3,START d_bow,Note,55,G3,D,up,0.064958,0.387944,0.686293,0.082307,-1.300458,-1.807279,1.083030,1.164036,-2.833328,-0.897262,-1.887238,2.337274,3.595005,0.000000,0.000000,0.000000,0.000000,0.000000,0.000000
1177.570000,3.192000,3,START d_bow,Note,55,G3,D,up,0.056958,0.387949,0.685390,0.082313,-1.300458,-1.807279,1.083030,1.163579,-2.831429,-0.901450,-1.885221,2.336914,3.594613,0.000000,0.000000,0.000000,0.000000,0.000000,0.000000
1177.578000,3.200000,3,START d_bow,Note,55,G3,D,up,0.048958,0.387954,0.684517,0.082319,-1.300458,-1.807279,1.083030,1.163136,-2.829605,-0.905476,-1.883283,2.336566,3.594234,0.000000,0.000000,0.000000,0.000000,0.000000,0.000000
1177.586000,3.208000,3,START d_bow,Note,55,G3,D,up,0.040958,0.387959,0.683676,0.082325,-1.300458,-1.807279,1.083030,1.162708,-2.827853,-0.909341,-1.881423,2.336229,3.593868,0.000000,0.000000,0.000000,0.000000,0.000000,0.000000
1177.594000,3.216000,3,START d_bow,Note,55,G3,D,up,0.032958,0.387964,0.682866,0.082330,-1.300458,-1.807279,1.083030,1.162295,-2.826174,-0.913048,-1.879640,2.335904,3.593515,0.000000,0.000000,0.000000,0.000000,0.000000,0.000000
1177.602000,3.224000,3,START d_bow,Note,55,G3,D,up,0.024958,0.387969,0.682086,0.082336,-1.300458,-1.807279,1.083030,1.161898,-2.824567,-0.916598,-1.877932,2.335591,3.593175,0.000000,0.000000,0.000000,0.000000,0.000000,0.000000
1177.610000,3.232000,3,START d_bow,Note,55,G3,D,up,0.016958,0.387973,0.681338,0.082341,-1.300458,-1.807279,1.083030,1.161515,-2.823030,-0.919994,-1.876300,2.335290,3.592848,0.000000,0.000000,0.000000,0.000000,0.000000,0.000000
1177.618000,3.240000,3,START d_bow,Note,55,G3,D,up,0.008958,0.387978,0.680621,0.082346,-1.300458,-1.807279,1.083030,1.161148,-2.821563,-0.923237,-1.874741,2.335001,3.592535,0.000000,0.000000,0.000000,0.000000,0.000000,0.000000
1177.626000,3.248000,3,START d_bow,Note,55,G3,D,up,0.000958,0.387982,0.679934,0.082351,-1.300458,-1.807279,1.083030,1.160796,-2.820164,-0.926329,-1.873255,2.334723,3.592235,0.000000,0.000000,0.000000,0.000000,0.000000,0.000000
1177.634000,3.256000,3,START d_bow,Note,52,E3,D,up,0.242958,0.387986,0.679279,0.082355,-1.300458,-1.807279,1.083030,1.160459,-2.818833,-0.929271,-1.871842,2.334458,3.591948,0.000000,0.000000,0.000000,0.000000,0.000000,0.000000
1177.642000,3.264000,3,START d_bow,Note,52,E3,D,up,0.234958,0.387989,0.678655,0.082359,-1.300458,-1.807279,1.083030,1.160138,-2.817570,-0.932065,-1.870500,2.334205,3.591674,0.000000,0.000000,0.000000,0.000000,0.000000,0.000000
1177.650000,3.272000,3,START d_bow,Note,52,E3,D,up,0.226958,0.387993,0.678062,0.082364,-1.300458,-1.807279,1.083030,1.159833,-2.816374,-0.934712,-1.869229,2.333964,3.591414,0.000000,0.000000,0.000000,0.000000,0.000000,0.000000
1177.658000,3.280000,3,START d_bow,Note,52,E3,D,up,0.218958,0.387996,0.677499,0.082367,-1.300458,-1.807279,1.083030,1.159543,-2.815243,-0.937214,-1.868028,2.333736,3.591167,0.000000,0.000000,0.000000,0.000000,0.000000,0.000000
1177.666000,3.288000,3,START d_bow,Note,52,E3,D,up,0.210958,0.387999,0.676968,0.082371,-1.300458,-1.807279,1.083030,1.159268,-2.814179,-0.939572,-1.866897,2.333519,3.590934,0.000000,0.000000,0.000000,0.000000,0.000000,0.000000
1177.674000,3.296000,3,START d_bow,Note,52,E3,D,up,0.202958,0.388002,0.676468,0.082374,-1.300458,-1.807279,1.083030,1.159010,-2.813178,-0.941786,-1.865835,2.333315,3.590714,0.000000,0.000000,0.000000,0.000000,0.000000,0.000000
1177.682000,3.304000,3,START d_bow,Note,52,E3,D,up,0.194958,0.388005,0.675999,0.082378,-1.300458,-1.807279,1.083030,1.158767,-2.812243,-0.943858,-1.864841,2.333124,3.590507,0.000000,0.000000,0.000000,0.000000,0.000000,0.000000
1177.690000,3.312000,3,START d_bow,Note,52,E3,D,up,0.186958,0.388008,0.675561,0.082381,-1.300458,-1.807279,1.083030,1.158540,-2.811371,-0.945789,-1.863915,2.332945,3.590314,0.000000,0.000000,0.000000,0.000000,0.000000,0.000000
1177.698000,3.320000,3,START d_bow,Note,52,E3,D,up,0.178958,0.388010,0.675154,0.082384,-1.300458,-1.807279,1.083030,1.158329,-2.810563,-0.947580,-1.863056,2.332779,3.590135,0.000000,0.000000,0.000000,0.000000,0.000000,0.000000
1177.706000,3.328000,3,START d_bow,Note,52,E3,D,up,0.170958,0.388012,0.674778,0.082386,-1.300458,-1.807279,1.083030,1.158134,-2.809818,-0.949231,-1.862265,2.332625,3.589969,0.000000,0.000000,0.000000,0.000000,0.000000,0.000000
1177.714000,3.336000,3,START d_bow,Note,52,E3,D,up,0.162958,0.388014,0.674432,0.082389,-1.300458,-1.807279,1.083030,1.157955,-2.809136,-0.950743,-1.861540,2.332483,3.589817,0.000000,0.000000,0.000000,0.000000,0.000000,0.000000
1177.722000,3.344000,3,START d_bow,Note,52,E3,D,up,0.154958,0.388016,0.674118,0.082391,-1.300458,-1.807279,1.083030,1.157791,-2.808516,-0.952117,-1.860881,2.332354,3.589678,0.000000,0.000000,0.000000,0.000000,0.000000,0.000000
1177.730000,3.352000,3,START d_bow,Note,52,E3,D,up,0.146958,0.388018,0.673835,0.082393,-1.300458,-1.807279,1.083030,1.157644,-2.807958,-0.953354,-1.860288,2.332238,3.589553,0.000000,0.000000,0.000000,0.000000,0.000000,0.000000
1177.738000,3.360000,3,START d_bow,Note,52,E3,D,up,0.138958,0.388019,0.673583,0.082394,-1.300458,-1.807279,1.083030,1.157513,-2.807462,-0.954454,-1.859761,2.332135,3.589442,0.000000,0.000000,0.000000,0.000000,0.000000,0.000000
1177.746000,3.368000,3,START d_bow,Note,52,E3,D,up,0.130958,0.388021,0.673362,0.082396,-1.300458,-1.807279,1.083030,1.157398,-2.807027,-0.955417,-1.859300,2.332044,3.589344,0.000000,0.000000,0.000000,0.000000,0.000000,0.000000
1177.754000,3.376000,3,START d_bow,Note,52,E3,D,up,0.122958,0.388022,0.673172,0.082397,-1.300458,-1.807279,1.083030,1.157299,-2.806654,-0.956245,-1.858904,2.331966,3.589260,0.000000,0.000000,0.000000,0.000000,0.000000,0.000000
1177.762000,3.384000,3,START d_bow,Note,52,E3,D,up,0.114958,0.388023,0.673013,0.082398,-1.300458,-1.807279,1.083030,1.157216,-2.806342,-0.956936,-1.858572,2.331900,3.589190,0.000000,0.000000,0.000000,0.000000,0.000000,0.000000
1177.770000,3.392000,3,START d_bow,Note,52,E3,D,up,0.106958,0.388023,0.672885,0.082399,-1.300458,-1.807279,1.083030,1.157149,-2.806092,-0.957493,-1.858306,2.331848,3.589133,0.000000,0.000000,0.000000,0.000000,0.000000,0.000000
1177.778000,3.400000,3,START d_bow,Note,52,E3,D,up,0.098958,0.388024,0.672788,0.082400,-1.300458,-1.807279,1.083030,1.157099,-2.805902,-0.957914,-1.858104,2.331808,3.589091,0.000000,0.000000,0.000000,0.000000,0.000000,0.000000
1177.786000,3.408000,3,START d_bow,Note,52,E3,D,up,0.090958,0.388024,0.672723,0.082400,-1.300458,-1.807279,1.083030,1.157064,-2.805773,-0.958201,-1.857967,2.331781,3.589061,0.000000,0.000000,0.000000,0.000000,0.000000,0.000000
1177.794000,3.416000,3,START d_bow,Note,52,E3,D,up,0.082958,0.388025,0.672688,0.082401,-1.300458,-1.807279,1.083030,1.157046,-2.805704,-0.958352,-1.857894,2.331766,3.589046,0.000000,0.000000,0.000000,0.000000,0.000000,0.000000
1177.802000,3.424000,4,END d_bow,Note,52,E3,D,up,0.074958,0.388025,0.672682,0.082401,-1.300458,-1.807279,1.083030,1.157043,-2.805692,-0.958378,-1.857881,2.331764,3.589043,0.000000,0.000000,0.000000,0.000000,0.000000,0.000000
1177.810000,3.432000,4,END d_bow,Note,52,E3,D,up,0.066958,0.388025,0.672682,0.082401,-1.300458,-1.807279,1.083030,1.157043,-2.805692,-0.958378,-1.857881,2.331764,3.589043,0.000000,0.000000,0.000000,0.000000,0.000000,0.000000
1177.818000,3.440000,4,END d_bow,Note,52,E3,D,up,0.058958,0.388025,0.672682,0.082401,-1.300458,-1.807279,1.083030,1.157043,-2.805692,-0.958378,-1.857881,2.331764,3.589043,0.000000,0.000000,0.000000,0.000000,0.000000,0.000000
1177.826000,3.448000,4,END d_bow,Note,52,E3,D,up,0.050958,0.388025,0.672682,0.082401,-1.300458,-1.807279,1.083030,1.157043,-2.805692,-0.958378,-1.857881,2.331764,3.589043,0.000000,0.000000,0.000000,0.000000,0.000000,0.000000
1177.834000,3.456000,3,START d_bow,Transition,transition,transition D->A,D-A,down,0.242958,0.388025,0.672693,0.082400,-1.300458,-1.807279,1.083030,1.157049,-2.805716,-0.958327,-1.857906,2.331769,3.589048,0.000000,0.000000,0.000000,0.000000,0.000000,0.000000
1177.842000,3.464000,3,START d_bow,Transition,transition,transition D->A,D-A,down,0.234958,0.388024,0.672736,0.082400,-1.300458,-1.807279,1.083030,1.157071,-2.805799,-0.958142,-1.857995,2.331786,3.589067,0.000000,0.000000,0.000000,0.000000,0.000000,0.000000
1177.850000,3.472000,3,START d_bow,Transition,transition,transition D->A,D-A,down,0.226958,0.388024,0.672810,0.082400,-1.300458,-1.807279,1.083030,1.157110,-2.805943,-0.957821,-1.858148,2.331817,3.589100,0.000000,0.000000,0.000000,0.000000,0.000000,0.000000
1177.858000,3.480000,3,START d_bow,Transition,transition,transition D->A,D-A,down,0.218958,0.388023,0.672914,0.082399,-1.300458,-1.807279,1.083030,1.157164,-2.806149,-0.957366,-1.858366,2.331860,3.589146,0.000000,0.000000,0.000000,0.000000,0.000000,0.000000
1177.866000,3.488000,3,START d_bow,Transition,transition,transition D->A,D-A,down,0.210958,0.388022,0.673050,0.082398,-1.300458,-1.807279,1.083030,1.157235,-2.806415,-0.956776,-1.858649,2.331916,3.589206,0.000000,0.000000,0.000000,0.000000,0.000000,0.000000
1177.874000,3.496000,3,START d_bow,Transition,transition,transition D->A,D-A,down,0.202958,0.388021,0.673217,0.082397,-1.300458,-1.807279,1.083030,1.157322,-2.806742,-0.956051,-1.858997,2.331984,3.589280,0.000000,0.000000,0.000000,0.000000,0.000000,0.000000
1177.882000,3.504000,3,START d_bow,Transition,transition,transition D->A,D-A,down,0.194958,0.388020,0.673415,0.082396,-1.300458,-1.807279,1.083030,1.157425,-2.807130,-0.955189,-1.859409,2.332065,3.589367,0.000000,0.000000,0.000000,0.000000,0.000000,0.000000
1177.890000,3.512000,3,START d_bow,Transition,transition,transition D->A,D-A,down,0.186958,0.388019,0.673643,0.082394,-1.300458,-1.807279,1.083030,1.157544,-2.807580,-0.954192,-1.859887,2.332159,3.589468,0.000000,0.000000,0.000000,0.000000,0.000000,0.000000
1177.898000,3.520000,3,START d_bow,Transition,transition,transition D->A,D-A,down,0.178958,0.388017,0.673903,0.082392,-1.300458,-1.807279,1.083030,1.157679,-2.808092,-0.953058,-1.860430,2.332266,3.589583,0.000000,0.000000,0.000000,0.000000,0.000000,0.000000
1177.906000,3.528000,3,START d_bow,Transition,transition,transition D->A,D-A,down,0.170958,0.388016,0.674194,0.082390,-1.300458,-1.807279,1.083030,1.157831,-2.808665,-0.951787,-1.861040,2.332385,3.589712,0.000000,0.000000,0.000000,0.000000,0.000000,0.000000
1177.914000,3.536000,3,START d_bow,Transition,transition,transition D->A,D-A,down,0.162958,0.388014,0.674516,0.082388,-1.300458,-1.807279,1.083030,1.157998,-2.809300,-0.950378,-1.861715,2.332517,3.589854,0.000000,0.000000,0.000000,0.000000,0.000000,0.000000
1177.922000,3.544000,3,START d_bow,Transition,transition,transition D->A,D-A,down,0.154958,0.388012,0.674869,0.082386,-1.300458,-1.807279,1.083030,1.158181,-2.809998,-0.948831,-1.862456,2.332662,3.590009,0.000000,0.000000,0.000000,0.000000,0.000000,0.000000
1177.930000,3.552000,3,START d_bow,Transition,transition,transition D->A,D-A,down,0.146958,0.388009,0.675252,0.082383,-1.300458,-1.807279,1.083030,1.158380,-2.810759,-0.947145,-1.863265,2.332819,3.590178,0.000000,0.000000,0.000000,0.000000,0.000000,0.000000
1177.938000,3.560000,3,START d_bow,Transition,transition,transition D->A,D-A,down,0.138958,0.388007,0.675667,0.082380,-1.300458,-1.807279,1.083030,1.158595,-2.811583,-0.945320,-1.864140,2.332989,3.590361,0.000000,0.000000,0.000000,0.000000,0.000000,0.000000
1177.946000,3.568000,3,START d_bow,Transition,transition,transition D->A,D-A,down,0.130958,0.388004,0.676113,0.082377,-1.300458,-1.807279,1.083030,1.158826,-2.812471,-0.943354,-1.865083,2.333171,3.590557,0.000000,0.000000,0.000000,0.000000,0.000000,0.000000
1177.954000,3.576000,3,START d_bow,Transition,transition,transition D->A,D-A,down,0.122958,0.388001,0.676590,0.082374,-1.300458,-1.807279,1.083030,1.159073,-2.813422,-0.941246,-1.866094,2.333365,3.590767,0.000000,0.000000,0.000000,0.000000,0.000000,0.000000
