Praneshv25/Robot-Cello-RL/Data-Files/URSim-Data/twinkle-bowings-sim.csv
timestamp_robot,time_elapsed_sec,event_flag,event_label,current_event_type,current_note_number,current_note_name,current_string,current_bowing,remaining_duration_sec,TCP_pose_x,TCP_pose_y,TCP_pose_z,TCP_pose_rx,TCP_pose_ry,TCP_pose_rz,q_base,q_shoulder,q_elbow,q_wrist1,q_wrist2,q_wrist3,TCP_force_x,TCP_force_y,TCP_force_z,TCP_force_rx,TCP_force_ry,TCP_force_rz
1052.870000,0.000000,3,START d_bow,Note,50,D3,D,up,0.498958,0.387907,0.693191,0.082256,-1.299999,-1.807000,1.083000,1.167551,-2.848233,-0.864474,-1.903368,2.340366,3.597492,0.000000,0.000000,0.000000,0.000000,0.000000,0.000000
1052.878000,0.008000,3,START d_bow,Note,50,D3,D,up,0.490958,0.387911,0.692386,0.082261,-1.299999,-1.807000,1.083000,1.167149,-2.846468,-0.868355,-1.901493,2.340051,3.597146,0.000000,0.000000,0.000000,0.000000,0.000000,0.000000
1052.886000,0.016000,3,START d_bow,Note,50,D3,D,up,0.482958,0.387916,0.691536,0.082267,-1.299999,-1.807000,1.083000,1.166725,-2.844617,-0.872426,-1.899527,2.339717,3.596781,0.000000,0.000000,0.000000,0.000000,0.000000,0.000000
1052.894000,0.024000,3,START d_bow,Note,50,D3,D,up,0.474958,0.387922,0.690654,0.082273,-1.299999,-1.807000,1.083000,1.166283,-2.842703,-0.876636,-1.897495,2.339370,3.596401,0.000000,0.000000,0.000000,0.000000,0.000000,0.000000
1052.902000,0.032000,3,START d_bow,Note,50,D3,D,up,0.466958,0.387927,0.689738,0.082279,-1.299999,-1.807000,1.083000,1.165824,-2.840727,-0.880985,-1.895396,2.339008,3.596006,0.000000,0.000000,0.000000,0.000000,0.000000,0.000000
1052.910000,0.040000,3,START d_bow,Note,50,D3,D,up,0.458958,0.387933,0.688788,0.082286,-1.299999,-1.807000,1.083000,1.165346,-2.838691,-0.885469,-1.893233,2.338633,3.595596,0.000000,0.000000,0.000000,0.000000,0.000000,0.000000
1052.918000,0.048000,3,START d_bow,Note,50,D3,D,up,0.450958,0.387939,0.687805,0.082293,-1.299999,-1.807000,1.083000,1.164851,-2.836594,-0.890088,-1.891007,2.338244,3.595171,0.000000,0.000000,0.000000,0.000000,0.000000,0.000000
1052.926000,0.056000,3,START d_bow,Note,50,D3,D,up,0.442958,0.387945,0.686788,0.082300,-1.299999,-1.807000,1.083000,1.164338,-2.834439,-0.894838,-1.888718,2.337840,3.594731,0.000000,0.000000,0.000000,0.000000,0.000000,0.000000
1052.934000,0.064000,3,START d_bow,Note,50,D3,D,up,0.434958,0.387951,0.685738,0.082307,-1.299999,-1.807000,1.083000,1.163807,-2.832226,-0.899717,-1.886367,2.337422,3.594275,0.000000,0.000000,0.000000,0.000000,0.000000,0.000000
1052.942000,0.072000,3,START d_bow,Note,50,D3,D,up,0.426958,0.387957,0.684655,0.082314,-1.299999,-1.807000,1.083000,1.163257,-2.829956,-0.904723,-1.883956,2.336989,3.593805,0.000000,0.000000,0.000000,0.000000,0.000000,0.000000
1052.950000,0.080000,3,START d_bow,Note,50,D3,D,up,0.418958,0.387964,0.683538,0.082322,-1.299999,-1.807000,1.083000,1.162689,-2.827631,-0.909855,-1.881487,2.336542,3.593319,0.000000,0.000000,0.000000,0.000000,0.000000,0.000000
1052.958000,0.088000,3,START d_bow,Note,50,D3,D,up,0.410958,0.387971,0.682387,0.082330,-1.299999,-1.807000,1.083000,1.162103,-2.825251,-0.915110,-1.878959,2.336080,3.592818,0.000000,0.000000,0.000000,0.000000,0.000000,0.000000
1052.966000,0.096000,3,START d_bow,Note,50,D3,D,up,0.402958,0.387978,0.681203,0.082338,-1.299999,-1.807000,1.083000,1.161498,-2.822818,-0.920486,-1.876375,2.335604,3.592301,0.000000,0.000000,0.000000,0.000000,0.000000,0.000000
1052.974000,0.104000,3,START d_bow,Note,50,D3,D,up,0.394958,0.387985,0.679986,0.082347,-1.299999,-1.807000,1.083000,1.160874,-2.820333,-0.925980,-1.873734,2.335112,3.591769,0.000000,0.000000,0.000000,0.000000,0.000000,0.000000
1052.982000,0.112000,3,START d_bow,Note,50,D3,D,up,0.386958,0.387992,0.678735,0.082355,-1.299999,-1.807000,1.083000,1.160231,-2.817796,-0.931590,-1.871040,2.334606,3.591221,0.000000,0.000000,0.000000,0.000000,0.000000,0.000000
1052.990000,0.120000,3,START d_bow,Note,50,D3,D,up,0.378958,0.388000,0.677451,0.082364,-1.299999,-1.807000,1.083000,1.159569,-2.815209,-0.937315,-1.868292,2.334084,3.590657,0.000000,0.000000,0.000000,0.000000,0.000000,0.000000
1052.998000,0.128000,3,START d_bow,Note,50,D3,D,up,0.370958,0.388008,0.676136,0.082373,-1.299999,-1.807000,1.083000,1.158890,-2.812579,-0.943138,-1.865498,2.333548,3.590079,0.000000,0.000000,0.000000,0.000000,0.000000,0.000000
1053.006000,0.136000,3,START d_bow,Note,50,D3,D,up,0.362958,0.388016,0.674816,0.082382,-1.299999,-1.807000,1.083000,1.158205,-2.809956,-0.948949,-1.862711,2.333008,3.589498,0.000000,0.000000,0.000000,0.000000,0.000000,0.000000
1053.014000,0.144000,3,START d_bow,Note,50,D3,D,up,0.354958,0.388023,0.673496,0.082391,-1.299999,-1.807000,1.083000,1.157519,-2.807351,-0.954724,-1.859944,2.332466,3.588915,0.000000,0.000000,0.000000,0.000000,0.000000,0.000000
1053.022000,0.152000,3,START d_bow,Note,50,D3,D,up,0.346958,0.388031,0.672175,0.082400,-1.299999,-1.807000,1.083000,1.156831,-2.804764,-0.960462,-1.857195,2.331923,3.588331,0.000000,0.000000,0.000000,0.000000,0.000000,0.000000
1053.030000,0.160000,3,START d_bow,Note,50,D3,D,up,0.338958,0.388039,0.670855,0.082409,-1.299999,-1.807000,1.083000,1.156140,-2.802194,-0.966166,-1.854465,2.331378,3.587746,0.000000,0.000000,0.000000,0.000000,0.000000,0.000000
1053.038000,0.168000,3,START d_bow,Note,50,D3,D,up,0.330958,0.388047,0.669535,0.082419,-1.299999,-1.807000,1.083000,1.155448,-2.799642,-0.971835,-1.851753,2.330831,3.587160,0.000000,0.000000,0.000000,0.000000,0.000000,0.000000
1053.046000,0.176000,3,START d_bow,Note,50,D3,D,up,0.322958,0.388055,0.668215,0.082428,-1.299999,-1.807000,1.083000,1.154753,-2.797106,-0.977470,-1.849058,2.330282,3.586573,0.000000,0.000000,0.000000,0.000000,0.000000,0.000000
1053.054000,0.184000,3,START d_bow,Note,50,D3,D,up,0.314958,0.388063,0.666894,0.082437,-1.299999,-1.807000,1.083000,1.154056,-2.794586,-0.983072,-1.846381,2.329731,3.585985,0.000000,0.000000,0.000000,0.000000,0.000000,0.000000
1053.062000,0.192000,3,START d_bow,Note,50,D3,D,up,0.306958,0.388070,0.665574,0.082446,-1.299999,-1.807000,1.083000,1.153358,-2.792083,-0.988640,-1.843720,2.329179,3.585395,0.000000,0.000000,0.000000,0.000000,0.000000,0.000000
1053.070000,0.200000,3,START d_bow,Note,50,D3,D,up,0.298958,0.388078,0.664254,0.082455,-1.299999,-1.807000,1.083000,1.152657,-2.789596,-0.994177,-1.841077,2.328625,3.584804,0.000000,0.000000,0.000000,0.000000,0.000000,0.000000
1053.078000,0.208000,3,START d_bow,Note,50,D3,D,up,0.290958,0.388086,0.662934,0.082464,-1.299999,-1.807000,1.083000,1.151954,-2.787125,-0.999682,-1.838450,2.328068,3.584213,0.000000,0.000000,0.000000,0.000000,0.000000,0.000000
1053.086000,0.216000,3,START d_bow,Note,50,D3,D,up,0.282958,0.388094,0.661613,0.082473,-1.299999,-1.807000,1.083000,1.151249,-2.784669,-1.005155,-1.835840,2.327510,3.583620,0.000000,0.000000,0.000000,0.000000,0.000000,0.000000
1053.094000,0.224000,3,START d_bow,Note,50,D3,D,up,0.274958,0.388102,0.660293,0.082482,-1.299999,-1.807000,1.083000,1.150542,-2.782228,-1.010598,-1.833245,2.326951,3.583026,0.000000,0.000000,0.000000,0.000000,0.000000,0.000000
1053.102000,0.232000,3,START d_bow,Note,50,D3,D,up,0.266958,0.388110,0.658973,0.082491,-1.299999,-1.807000,1.083000,1.149832,-2.779802,-1.016010,-1.830667,2.326389,3.582430,0.000000,0.000000,0.000000,0.000000,0.000000,0.000000
1053.110000,0.240000,3,START d_bow,Note,50,D3,D,up,0.258958,0.388117,0.657653,0.082500,-1.299999,-1.807000,1.083000,1.149121,-2.777392,-1.021393,-1.828104,2.325826,3.581834,0.000000,0.000000,0.000000,0.000000,0.000000,0.000000
1053.118000,0.248000,3,START d_bow,Note,50,D3,D,up,0.250958,0.388125,0.656333,0.082509,-1.299999,-1.807000,1.083000,1.148408,-2.774996,-1.026746,-1.825556,2.325260,3.581237,0.000000,0.000000,0.000000,0.000000,0.000000,0.000000
1053.126000,0.256000,3,START d_bow,Note,50,D3,D,up,0.242958,0.388133,0.655012,0.082519,-1.299999,-1.807000,1.083000,1.147692,-2.772614,-1.032071,-1.823024,2.324693,3.580638,0.000000,0.000000,0.000000,0.000000,0.000000,0.000000
1053.134000,0.264000,3,START d_bow,Note,50,D3,D,up,0.234958,0.388141,0.653692,0.082528,-1.299999,-1.807000,1.083000,1.146974,-2.770246,-1.037366,-1.820506,2.324124,3.580038,0.000000,0.000000,0.000000,0.000000,0.000000,0.000000
1053.142000,0.272000,3,START d_bow,Note,50,D3,D,up,0.226958,0.388149,0.652372,0.082537,-1.299999,-1.807000,1.083000,1.146254,-2.767893,-1.042634,-1.818003,2.323553,3.579437,0.000000,0.000000,0.000000,0.000000,0.000000,0.000000
1053.150000,0.280000,3,START d_bow,Note,50,D3,D,up,0.218958,0.388157,0.651052,0.082546,-1.299999,-1.807000,1.083000,1.145532,-2.765553,-1.047874,-1.815514,2.322980,3.578835,0.000000,0.000000,0.000000,0.000000,0.000000,0.000000
1053.158000,0.288000,3,START d_bow,Note,50,D3,D,up,0.210958,0.388164,0.649731,0.082555,-1.299999,-1.807000,1.083000,1.144807,-2.763227,-1.053087,-1.813040,2.322405,3.578231,0.000000,0.000000,0.000000,0.000000,0.000000,0.000000
1053.166000,0.296000,3,START d_bow,Note,50,D3,D,up,0.202958,0.388172,0.648411,0.082564,-1.299999,-1.807000,1.083000,1.144081,-2.760914,-1.058272,-1.810579,2.321828,3.577627,0.000000,0.000000,0.000000,0.000000,0.000000,0.000000
1053.174000,0.304000,3,START d_bow,Note,50,D3,D,up,0.194958,0.388180,0.647091,0.082573,-1.299999,-1.807000,1.083000,1.143352,-2.758614,-1.063432,-1.808133,2.321249,3.577021,0.000000,0.000000,0.000000,0.000000,0.000000,0.000000
1053.182000,0.312000,3,START d_bow,Note,50,D3,D,up,0.186958,0.388188,0.645771,0.082582,-1.299999,-1.807000,1.083000,1.142621,-2.756328,-1.068565,-1.805700,2.320669,3.576414,0.000000,0.000000,0.000000,0.000000,0.000000,0.000000
1053.190000,0.320000,3,START d_bow,Note,50,D3,D,up,0.178958,0.388196,0.644450,0.082591,-1.299999,-1.807000,1.083000,1.141888,-2.754054,-1.073672,-1.803281,2.320086,3.575806,0.000000,0.000000,0.000000,0.000000,0.000000,0.000000
1053.198000,0.328000,3,START d_bow,Note,50,D3,D,up,0.170958,0.388204,0.643130,0.082600,-1.299999,-1.807000,1.083000,1.141153,-2.751793,-1.078754,-1.800875,2.319501,3.575197,0.000000,0.000000,0.000000,0.000000,0.000000,0.000000
1053.206000,0.336000,3,START d_bow,Note,50,D3,D,up,0.162958,0.388211,0.641810,0.082609,-1.299999,-1.807000,1.083000,1.140415,-2.749545,-1.083811,-1.798482,2.318915,3.574586,0.000000,0.000000,0.000000,0.000000,0.000000,0.000000
1053.214000,0.344000,3,START d_bow,Note,50,D3,D,up,0.154958,0.388219,0.640490,0.082618,-1.299999,-1.807000,1.083000,1.139675,-2.747309,-1.088843,-1.796102,2.318326,3.573975,0.000000,0.000000,0.000000,0.000000,0.000000,0.000000
1053.222000,0.352000,3,START d_bow,Note,50,D3,D,up,0.146958,0.388227,0.639169,0.082628,-1.299999,-1.807000,1.083000,1.138933,-2.745085,-1.093850,-1.793734,2.317736,3.573362,0.000000,0.000000,0.000000,0.000000,0.000000,0.000000
1053.230000,0.360000,3,START d_bow,Note,50,D3,D,up,0.138958,0.388235,0.637849,0.082637,-1.299999,-1.807000,1.083000,1.138189,-2.742874,-1.098833,-1.791379,2.317143,3.572748,0.000000,0.000000,0.000000,0.000000,0.000000,0.000000
1053.238000,0.368000,3,START d_bow,Note,50,D3,D,up,0.130958,0.388243,0.636529,0.082646,-1.299999,-1.807000,1.083000,1.137442,-2.740674,-1.103793,-1.789037,2.316549,3.572133,0.000000,0.000000,0.000000,0.000000,0.000000,0.000000
1053.246000,0.376000,3,START d_bow,Note,50,D3,D,up,0.122958,0.388251,0.635209,0.082655,-1.299999,-1.807000,1.083000,1.136693,-2.738486,-1.108729,-1.786707,2.315952,3.571516,0.000000,0.000000,0.000000,0.000000,0.000000,0.000000
1053.254000,0.384000,3,START d_bow,Note,50,D3,D,up,0.114958,0.388258,0.633888,0.082664,-1.299999,-1.807000,1.083000,1.135942,-2.736310,-1.113642,-1.784389,2.315354,3.570899,0.000000,0.000000,0.000000,0.000000,0.000000,0.000000
1053.262000,0.392000,3,START d_bow,Note,50,D3,D,up,0.106958,0.388266,0.632568,0.082673,-1.299999,-1.807000,1.083000,1.135188,-2.734146,-1.118531,-1.782083,2.314753,3.570280,0.000000,0.000000,0.000000,0.000000,0.000000,0.000000
1053.270000,0.400000,3,START d_bow,Note,50,D3,D,up,0.098958,0.388274,0.631248,0.082682,-1.299999,-1.807000,1.083000,1.134432,-2.731992,-1.123399,-1.779789,2.314151,3.569660,0.000000,0.000000,0.000000,0.000000,0.000000,0.000000
1053.278000,0.408000,3,START d_bow,Note,50,D3,D,up,0.090958,0.388282,0.629928,0.082691,-1.299999,-1.807000,1.083000,1.133674,-2.729850,-1.128243,-1.777507,2.313546,3.569038,0.000000,0.000000,0.000000,0.000000,0.000000,0.000000
1053.286000,0.416000,3,START d_bow,Note,50,D3,D,up,0.082958,0.388290,0.628607,0.082700,-1.299999,-1.807000,1.083000,1.132914,-2.727719,-1.133066,-1.775236,2.312940,3.568416,0.000000,0.000000,0.000000,0.000000,0.000000,0.000000
1053.294000,0.424000,3,START d_bow,Note,50,D3,D,up,0.074958,0.388298,0.627287,0.082709,-1.299999,-1.807000,1.083000,1.132151,-2.725599,-1.137867,-1.772977,2.312331,3.567792,0.000000,0.000000,0.000000,0.000000,0.000000,0.000000
1053.302000,0.432000,3,START d_bow,Note,50,D3,D,up,0.066958,0.388305,0.625967,0.082718,-1.299999,-1.807000,1.083000,1.131386,-2.723490,-1.142646,-1.770728,2.311720,3.567167,0.000000,0.000000,0.000000,0.000000,0.000000,0.000000
1053.310000,0.440000,3,START d_bow,Note,50,D3,D,up,0.058958,0.388313,0.624647,0.082728,-1.299999,-1.807000,1.083000,1.130618,-2.721392,-1.147404,-1.768491,2.311107,3.566541,0.000000,0.000000,0.000000,0.000000,0.000000,0.000000
1053.318000,0.448000,3,START d_bow,Note,50,D3,D,up,0.050958,0.388321,0.623327,0.082737,-1.299999,-1.807000,1.083000,1.129848,-2.719304,-1.152141,-1.766265,2.310493,3.565914,0.000000,0.000000,0.000000,0.000000,0.000000,0.000000
1053.326000,0.456000,3,START d_bow,Note,50,D3,D,up,0.042958,0.388329,0.622006,0.082746,-1.299999,-1.807000,1.083000,1.129076,-2.717227,-1.156857,-1.764050,2.309876,3.565285,0.000000,0.000000,0.000000,0.000000,0.000000,0.000000
1053.334000,0.464000,3,START d_bow,Note,50,D3,D,up,0.034958,0.388337,0.620686,0.082755,-1.299999,-1.807000,1.083000,1.128301,-2.715160,-1.161552,-1.761846,2.309256,3.564655,0.000000,0.000000,0.000000,0.000000,0.000000,0.000000
1053.342000,0.472000,3,START d_bow,Note,50,D3,D,up,0.026958,0.388345,0.619366,0.082764,-1.299999,-1.807000,1.083000,1.127524,-2.713104,-1.166227,-1.759652,2.308635,3.564024,0.000000,0.000000,0.000000,0.000000,0.000000,0.000000
1053.350000,0.480000,3,START d_bow,Note,50,D3,D,up,0.018958,0.388352,0.618046,0.082773,-1.299999,-1.807000,1.083000,1.126745,-2.711058,-1.170882,-1.757469,2.308012,3.563392,0.000000,0.000000,0.000000,0.000000,0.000000,0.000000
1053.358000,0.488000,3,START d_bow,Note,50,D3,D,up,0.010958,0.388360,0.616725,0.082782,-1.299999,-1.807000,1.083000,1.125963,-2.709021,-1.175516,-1.755296,2.307386,3.562759,0.000000,0.000000,0.000000,0.000000,0.000000,0.000000
1053.366000,0.496000,3,START d_bow,Note,50,D3,D,up,0.002958,0.388368,0.615411,0.082791,-1.299999,-1.807000,1.083000,1.125182,-2.707004,-1.180112,-1.753142,2.306761,3.562126,0.000000,0.000000,0.000000,0.000000,0.000000,0.000000
1053.374000,0.504000,3,START d_bow,Note,50,D3,D,up,0.494958,0.388376,0.614126,0.082800,-1.299999,-1.807000,1.083000,1.124417,-2.705042,-1.184583,-1.751048,2.306149,3.561508,0.000000,0.000000,0.000000,0.000000,0.000000,0.000000
1053.382000,0.512000,3,START d_bow,Note,50,D3,D,up,0.486958,0.388383,0.612875,0.082809,-1.299999,-1.807000,1.083000,1.123669,-2.703140,-1.188920,-1.749018,2.305550,3.560904,0.000000,0.000000,0.000000,0.000000,0.000000,0.000000
1053.390000,0.520000,3,START d_bow,Note,50,D3,D,up,0.478958,0.388390,0.611658,0.082817,-1.299999,-1.807000,1.083000,1.122939,-2.701298,-1.193124,-1.747050,2.304966,3.560315,0.000000,0.000000,0.000000,0.000000,0.000000,0.000000
1053.398000,0.528000,3,START d_bow,Note,50,D3,D,up,0.470958,0.388397,0.610474,0.082825,-1.299999,-1.807000,1.083000,1.122228,-2.699514,-1.197198,-1.745145,2.304396,3.559742,0.000000,0.000000,0.000000,0.000000,0.000000,0.000000
1053.406000,0.536000,3,START d_bow,Note,50,D3,D,up,0.462958,0.388404,0.609324,0.082833,-1.299999,-1.807000,1.083000,1.121534,-2.697788,-1.201141,-1.743301,2.303840,3.559184,0.000000,0.000000,0.000000,0.000000,0.000000,0.000000
1053.414000,0.544000,3,START d_bow,Note,50,D3,D,up,0.454958,0.388411,0.608207,0.082841,-1.299999,-1.807000,1.083000,1.120859,-2.696118,-1.204957,-1.741518,2.303299,3.558641,0.000000,0.000000,0.000000,0.000000,0.000000,0.000000
1053.422000,0.552000,3,START d_bow,Note,50,D3,D,up,0.446958,0.388417,0.607123,0.082848,-1.299999,-1.807000,1.083000,1.120203,-2.694506,-1.208645,-1.739795,2.302772,3.558113,0.000000,0.000000,0.000000,0.000000,0.000000,0.000000
1053.430000,0.560000,3,START d_bow,Note,50,D3,D,up,0.438958,0.388423,0.606073,0.082855,-1.299999,-1.807000,1.083000,1.119565,-2.692949,-1.212208,-1.738131,2.302261,3.557601,0.000000,0.000000,0.000000,0.000000,0.000000,0.000000
1053.438000,0.568000,3,START d_bow,Note,50,D3,D,up,0.430958,0.388429,0.605057,0.082862,-1.299999,-1.807000,1.083000,1.118946,-2.691447,-1.215647,-1.736526,2.301764,3.557105,0.000000,0.000000,0.000000,0.000000,0.000000,0.000000
1053.446000,0.576000,3,START d_bow,Note,50,D3,D,up,0.422958,0.388435,0.604073,0.082869,-1.299999,-1.807000,1.083000,1.118346,-2.690000,-1.218962,-1.734979,2.301283,3.556624,0.000000,0.000000,0.000000,0.000000,0.000000,0.000000
1053.454000,0.584000,3,START d_bow,Note,50,D3,D,up,0.414958,0.388441,0.603124,0.082876,-1.299999,-1.807000,1.083000,1.117765,-2.688606,-1.222155,-1.733490,2.300817,3.556159,0.000000,0.000000,0.000000,0.000000,0.000000,0.000000
1053.462000,0.592000,3,START d_bow,Note,50,D3,D,up,0.406958,0.388446,0.602208,0.082882,-1.299999,-1.807000,1.083000,1.117203,-2.687267,-1.225226,-1.732057,2.300366,3.555710,0.000000,0.000000,0.000000,0.000000,0.000000,0.000000
1053.470000,0.600000,3,START d_bow,Note,50,D3,D,up,0.398958,0.388452,0.601325,0.082888,-1.299999,-1.807000,1.083000,1.116661,-2.685980,-1.228178,-1.730681,2.299930,3.555276,0.000000,0.000000,0.000000,0.000000,0.000000,0.000000
1053.478000,0.608000,3,START d_bow,Note,50,D3,D,up,0.390958,0.388457,0.600476,0.082894,-1.299999,-1.807000,1.083000,1.116138,-2.684746,-1.231010,-1.729361,2.299510,3.554859,0.000000,0.000000,0.000000,0.000000,0.000000,0.000000
1053.486000,0.616000,3,START d_bow,Note,50,D3,D,up,0.382958,0.388462,0.599660,0.082900,-1.299999,-1.807000,1.083000,1.115635,-2.683564,-1.233724,-1.728097,2.299106,3.554457,0.000000,0.000000,0.000000,0.000000,0.000000,0.000000
1053.494000,0.624000,3,START d_bow,Note,50,D3,D,up,0.374958,0.388466,0.598878,0.082905,-1.299999,-1.807000,1.083000,1.115151,-2.682434,-1.236320,-1.726888,2.298717,3.554071,0.000000,0.000000,0.000000,0.000000,0.000000,0.000000
1053.502000,0.632000,3,START d_bow,Note,50,D3,D,up,0.366958,0.388471,0.598129,0.082910,-1.299999,-1.807000,1.083000,1.114688,-2.681355,-1.238799,-1.725733,2.298345,3.553702,0.000000,0.000000,0.000000,0.000000,0.000000,0.000000
1053.510000,0.640000,3,START d_bow,Note,50,D3,D,up,0.358958,0.388475,0.597413,0.082915,-1.299999,-1.807000,1.083000,1.114244,-2.680326,-1.241163,-1.724633,2.297988,3.553348,0.000000,0.000000,0.000000,0.000000,0.000000,0.000000
1053.518000,0.648000,3,START d_bow,Note,50,D3,D,up,0.350958,0.388479,0.596732,0.082920,-1.299999,-1.807000,1.083000,1.113820,-2.679349,-1.243411,-1.723587,2.297648,3.553011,0.000000,0.000000,0.000000,0.000000,0.000000,0.000000
1053.526000,0.656000,3,START d_bow,Note,50,D3,D,up,0.342958,0.388483,0.596083,0.082924,-1.299999,-1.807000,1.083000,1.113417,-2.678421,-1.245545,-1.722594,2.297323,3.552690,0.000000,0.000000,0.000000,0.000000,0.000000,0.000000
1053.534000,0.664000,3,START d_bow,Note,50,D3,D,up,0.334958,0.388486,0.595468,0.082928,-1.299999,-1.807000,1.083000,1.113033,-2.677543,-1.247565,-1.721654,2.297015,3.552385,0.000000,0.000000,0.000000,0.000000,0.000000,0.000000
1053.542000,0.672000,3,START d_bow,Note,50,D3,D,up,0.326958,0.388490,0.594887,0.082932,-1.299999,-1.807000,1.083000,1.112671,-2.676715,-1.249471,-1.720767,2.296723,3.552097,0.000000,0.000000,0.000000,0.000000,0.000000,0.000000
1053.550000,0.680000,3,START d_bow,Note,50,D3,D,up,0.318958,0.388493,0.594339,0.082936,-1.299999,-1.807000,1.083000,1.112328,-2.675935,-1.251265,-1.719933,2.296448,3.551825,0.000000,0.000000,0.000000,0.000000,0.000000,0.000000
1053.558000,0.688000,3,START d_bow,Note,50,D3,D,up,0.310958,0.388496,0.593824,0.082940,-1.299999,-1.807000,1.083000,1.112006,-2.675205,-1.252947,-1.719151,2.296188,3.551569,0.000000,0.000000,0.000000,0.000000,0.000000,0.000000
1053.566000,0.696000,3,START d_bow,Note,50,D3,D,up,0.302958,0.388499,0.593343,0.082943,-1.299999,-1.807000,1.083000,1.111705,-2.674523,-1.254517,-1.718422,2.295946,3.551330,0.000000,0.000000,0.000000,0.000000,0.000000,0.000000
1053.574000,0.704000,3,START d_bow,Note,50,D3,D,up,0.294958,0.388502,0.592895,0.082946,-1.299999,-1.807000,1.083000,1.111424,-2.673890,-1.255976,-1.717744,2.295720,3.551107,0.000000,0.000000,0.000000,0.000000,0.000000,0.000000
1053.582000,0.712000,3,START d_bow,Note,50,D3,D,up,0.286958,0.388504,0.592481,0.082949,-1.299999,-1.807000,1.083000,1.111164,-2.673305,-1.257324,-1.717117,2.295511,3.550901,0.000000,0.000000,0.000000,0.000000,0.000000,0.000000
1053.590000,0.720000,3,START d_bow,Note,50,D3,D,up,0.278958,0.388506,0.592100,0.082952,-1.299999,-1.807000,1.083000,1.110925,-2.672768,-1.258562,-1.716542,2.295318,3.550712,0.000000,0.000000,0.000000,0.000000,0.000000,0.000000
1053.598000,0.728000,3,START d_bow,Note,50,D3,D,up,0.270958,0.388508,0.591753,0.082954,-1.299999,-1.807000,1.083000,1.110706,-2.672279,-1.259690,-1.716018,2.295143,3.550539,0.000000,0.000000,0.000000,0.000000,0.000000,0.000000
1053.606000,0.736000,3,START d_bow,Note,50,D3,D,up,0.262958,0.388510,0.591439,0.082956,-1.299999,-1.807000,1.083000,1.110509,-2.671837,-1.260708,-1.715545,2.294984,3.550382,0.000000,0.000000,0.000000,0.000000,0.000000,0.000000
1053.614000,0.744000,3,START d_bow,Note,50,D3,D,up,0.254958,0.388512,0.591159,0.082958,-1.299999,-1.807000,1.083000,1.110332,-2.671443,-1.261617,-1.715123,2.294841,3.550242,0.000000,0.000000,0.000000,0.000000,0.000000,0.000000
1053.622000,0.752000,3,START d_bow,Note,50,D3,D,up,0.246958,0.388513,0.590912,0.082960,-1.299999,-1.807000,1.083000,1.110177,-2.671097,-1.262416,-1.714752,2.294716,3.550119,0.000000,0.000000,0.000000,0.000000,0.000000,0.000000
1053.630000,0.760000,3,START d_bow,Note,50,D3,D,up,0.238958,0.388515,0.590699,0.082961,-1.299999,-1.807000,1.083000,1.110042,-2.670797,-1.263107,-1.714431,2.294608,3.550013,0.000000,0.000000,0.000000,0.000000,0.000000,0.000000
1053.638000,0.768000,3,START d_bow,Note,50,D3,D,up,0.230958,0.388516,0.590519,0.082962,-1.299999,-1.807000,1.083000,1.109929,-2.670545,-1.263689,-1.714161,2.294516,3.549923,0.000000,0.000000,0.000000,0.000000,0.000000,0.000000
1053.646000,0.776000,3,START d_bow,Note,50,D3,D,up,0.222958,0.388517,0.590373,0.082963,-1.299999,-1.807000,1.083000,1.109836,-2.670340,-1.264163,-1.713941,2.294442,3.549850,0.000000,0.000000,0.000000,0.000000,0.000000,0.000000
1053.654000,0.784000,3,START d_bow,Note,50,D3,D,up,0.214958,0.388517,0.590260,0.082964,-1.299999,-1.807000,1.083000,1.109765,-2.670182,-1.264528,-1.713771,2.294385,3.549793,0.000000,0.000000,0.000000,0.000000,0.000000,0.000000
1053.662000,0.792000,3,START d_bow,Note,50,D3,D,up,0.206958,0.388518,0.590180,0.082965,-1.299999,-1.807000,1.083000,1.109715,-2.670070,-1.264785,-1.713652,2.294344,3.549754,0.000000,0.000000,0.000000,0.000000,0.000000,0.000000
1053.670000,0.800000,3,START d_bow,Note,50,D3,D,up,0.198958,0.388518,0.590134,0.082965,-1.299999,-1.807000,1.083000,1.109686,-2.670006,-1.264933,-1.713583,2.294321,3.549731,0.000000,0.000000,0.000000,0.000000,0.000000,0.000000
1053.678000,0.808000,3,START d_bow,Note,50,D3,D,up,0.190958,0.388518,0.590121,0.082965,-1.299999,-1.807000,1.083000,1.109678,-2.669988,-1.264975,-1.713564,2.294314,3.549724,0.000000,0.000000,0.000000,0.000000,0.000000,0.000000
1053.686000,0.816000,4,END d_bow,Note,50,D3,D,up,0.182958,0.388518,0.590121,0.082965,-1.299999,-1.807000,1.083000,1.109678,-2.669988,-1.264975,-1.713564,2.294314,3.549724,0.000000,0.000000,0.000000,0.000000,0.000000,0.000000
1053.694000,0.824000,4,END d_bow,Note,50,D3,D,up,0.174958,0.388518,0.590121,0.082965,-1.299999,-1.807000,1.083000,1.109678,-2.669988,-1.264975,-1.713564,2.294314,3.549724,0.000000,0.000000,0.000000,0.000000,0.000000,0.000000
1053.710000,0.840000,3,START d_bow,Transition,transition,transition D->A,D-A,down,0.358958,0.388518,0.590128,0.082965,-1.299999,-1.807000,1.083000,1.109682,-2.669997,-1.264954,-1.713574,2.294318,3.549727,0.000000,0.000000,0.000000,0.000000,0.000000,0.000000
1053.718000,0.848000,3,START d_bow,Transition,transition,transition D->A,D-A,down,0.350958,0.388518,0.590166,0.082965,-1.299999,-1.807001,1.083000,1.109705,-2.670050,-1.264832,-1.713630,2.294337,3.549746,0.000000,0.000000,0.000000,0.000000,0.000000,0.000000
1053.742000,0.872000,3,START d_bow,Transition,transition,transition D->A,D-A,down,0.326958,0.388516,0.590479,0.082963,-1.300001,-1.807001,1.083000,1.109903,-2.670489,-1.263818,-1.714100,2.294495,3.549905,0.000000,0.000000,0.000000,0.000000,0.000000,0.000000
1053.750000,0.880000,3,START d_bow,Transition,transition,transition D->A,D-A,down,0.318958,0.388515,0.590651,0.082962,-1.300001,-1.807002,1.083000,1.110012,-2.670730,-1.263263,-1.714357,2.294582,3.549991,0.000000,0.000000,0.000000,0.000000,0.000000,0.000000
1053.758000,0.888000,3,START d_bow,Transition,transition,transition D->A,D-A,down,0.310958,0.388514,0.590856,0.082960,-1.300002,-1.807002,1.083000,1.110141,-2.671017,-1.262600,-1.714664,2.294685,3.550094,0.000000,0.000000,0.000000,0.000000,0.000000,0.000000
1053.766000,0.896000,3,START d_bow,Transition,transition,transition D->A,D-A,down,0.302958,0.388512,0.591094,0.082958,-1.300003,-1.807003,1.083001,1.110291,-2.671352,-1.261828,-1.715022,2.294805,3.550214,0.000000,0.000000,0.000000,0.000000,0.000000,0.000000
1053.774000,0.904000,3,START d_bow,Transition,transition,transition D->A,D-A,down,0.294958,0.388511,0.591366,0.082957,-1.300004,-1.807004,1.083001,1.110462,-2.671734,-1.260946,-1.715431,2.294942,3.550351,0.000000,0.000000,0.000000,0.000000,0.000000,0.000000
1053.782000,0.912000,3,START d_bow,Transition,transition,transition D->A,D-A,down,0.286958,0.388509,0.591672,0.082955,-1.300005,-1.807004,1.083001,1.110654,-2.672164,-1.259956,-1.715890,2.295096,3.550505,0.000000,0.000000,0.000000,0.000000,0.000000,0.000000
1053.790000,0.920000,3,START d_bow,Transition,transition,transition D->A,D-A,down,0.278958,0.388507,0.592010,0.082952,-1.300007,-1.807005,1.083001,1.110867,-2.672641,-1.258856,-1.716400,2.295267,3.550675,0.000000,0.000000,0.000000,0.000000,0.000000,0.000000
1053.798000,0.928000,3,START d_bow,Transition,transition,transition D->A,D-A,down,0.270958,0.388505,0.592383,0.082950,-1.300008,-1.807006,1.083001,1.111101,-2.673166,-1.257646,-1.716961,2.295454,3.550862,0.000000,0.000000,0.000000,0.000000,0.000000,0.000000
1053.806000,0.936000,3,START d_bow,Transition,transition,transition D->A,D-A,down,0.262958,0.388502,0.592789,0.082947,-1.300010,-1.807007,1.083001,1.111356,-2.673738,-1.256326,-1.717574,2.295658,3.551066,0.000000,0.000000,0.000000,0.000000,0.000000,0.000000
1053.814000,0.944000,3,START d_bow,Transition,transition,transition D->A,D-A,down,0.254958,0.388500,0.593228,0.082944,-1.300012,-1.807008,1.083001,1.111631,-2.674359,-1.254895,-1.718237,2.295878,3.551286,0.000000,0.000000,0.000000,0.000000,0.000000,0.000000
1053.822000,0.952000,3,START d_bow,Transition,transition,transition D->A,D-A,down,0.246958,0.388497,0.593701,0.082941,-1.300014,-1.807009,1.083001,1.111927,-2.675029,-1.253353,-1.718953,2.296115,3.551523,0.000000,0.000000,0.000000,0.000000,0.000000,0.000000
1053.830000,0.960000,3,START d_bow,Transition,transition,transition D->A,D-A,down,0.238958,0.388494,0.594207,0.082937,-1.300016,-1.807011,1.083001,1.112244,-2.675746,-1.251700,-1.719720,2.296368,3.551777,0.000000,0.000000,0.000000,0.000000,0.000000,0.000000
1053.838000,0.968000,3,START d_bow,Transition,transition,transition D->A,D-A,down,0.230958,0.388490,0.594746,0.082933,-1.300018,-1.807012,1.083001,1.112581,-2.676513,-1.249934,-1.720539,2.296638,3.552047,0.000000,0.000000,0.000000,0.000000,0.000000,0.000000
1053.846000,0.976000,3,START d_bow,Transition,transition,transition D->A,D-A,down,0.222958,0.388487,0.595319,0.082929,-1.300020,-1.807013,1.083002,1.112938,-2.677329,-1.248056,-1.721411,2.296924,3.552334,0.000000,0.000000,0.000000,0.000000,0.000000,0.000000
1053.854000,0.984000,3,START d_bow,Transition,transition,transition D->A,D-A,down,0.214958,0.388483,0.595926,0.082925,-1.300023,-1.807015,1.083002,1.113316,-2.678194,-1.246065,-1.722335,2.297226,3.552637,0.000000,0.000000,0.000000,0.000000,0.000000,0.000000
1053.862000,0.992000,3,START d_bow,Transition,transition,transition D->A,D-A,down,0.206958,0.388480,0.596566,0.082921,-1.300025,-1.807016,1.083002,1.113714,-2.679109,-1.243961,-1.723313,2.297544,3.552957,0.000000,0.000000,0.000000,0.000000,0.000000,0.000000
1053.870000,1.000000,3,START d_bow,Transition,transition,transition D->A,D-A,down,0.198958,0.388476,0.597240,0.082916,-1.300028,-1.807018,1.083002,1.114132,-2.680074,-1.241741,-1.724344,2.297878,3.553293,0.000000,0.000000,0.000000,0.000000,0.000000,0.000000
1053.878000,1.008000,3,START d_bow,Transition,transition,transition D->A,D-A,down,0.190958,0.388471,0.597947,0.082911,-1.300031,-1.807020,1.083002,1.114571,-2.681089,-1.239407,-1.725428,2.298229,3.553645,0.000000,0.000000,0.000000,0.000000,0.000000,0.000000
1053.886000,1.016000,3,START d_bow,Transition,transition,transition D->A,D-A,down,0.182958,0.388467,0.598687,0.082906,-1.300034,-1.807022,1.083003,1.115029,-2.682155,-1.236958,-1.726567,2.298595,3.554014,0.000000,0.000000,0.000000,0.000000,0.000000,0.000000
1053.894000,1.024000,3,START d_bow,Transition,transition,transition D->A,D-A,down,0.174958,0.388462,0.599461,0.082901,-1.300037,-1.807024,1.083003,1.115507,-2.683273,-1.234391,-1.727760,2.298977,3.554399,0.000000,0.000000,0.000000,0.000000,0.000000,0.000000
1053.902000,1.032000,3,START d_bow,Transition,transition,transition D->A,D-A,down,0.166958,0.388458,0.600268,0.082895,-1.300041,-1.807026,1.083003,1.116005,-2.684441,-1.231708,-1.729007,2.299375,3.554800,0.000000,0.000000,0.000000,0.000000,0.000000,0.000000
1053.910000,1.040000,3,START d_bow,Transition,transition,transition D->A,D-A,down,0.158958,0.388453,0.601109,0.082890,-1.300044,-1.807028,1.083003,1.116523,-2.685662,-1.228906,-1.730311,2.299788,3.555217,0.000000,0.000000,0.000000,0.000000,0.000000,0.000000
1053.918000,1.048000,3,START d_bow,Transition,transition,transition D->A,D-A,down,0.150958,0.388447,0.601984,0.082884,-1.300048,-1.807030,1.083003,1.117060,-2.686935,-1.225985,-1.731670,2.300217,3.555650,0.000000,0.000000,0.000000,0.000000,0.000000,0.000000
1053.926000,1.056000,3,START d_bow,Transition,transition,transition D->A,D-A,down,0.142958,0.388442,0.602891,0.082877,-1.300051,-1.807032,1.083004,1.117616,-2.688261,-1.222945,-1.733085,2.300661,3.556100,0.000000,0.000000,0.000000,0.000000,0.000000,0.000000
1053.934000,1.064000,3,START d_bow,Transition,transition,transition D->A,D-A,down,0.134958,0.388436,0.603833,0.082871,-1.300055,-1.807034,1.083004,1.118192,-2.689640,-1.219783,-1.734557,2.301120,3.556565,0.000000,0.000000,0.000000,0.000000,0.000000,0.000000
1053.942000,1.072000,3,START d_bow,Transition,transition,transition D->A,D-A,down,0.126958,0.388430,0.604807,0.082864,-1.300059,-1.807037,1.083004,1.118787,-2.691073,-1.216499,-1.736086,2.301595,3.557046,0.000000,0.000000,0.000000,0.000000,0.000000,0.000000
1053.950000,1.080000,3,START d_bow,Transition,transition,transition D->A,D-A,down,0.118958,0.388424,0.605816,0.082857,-1.300063,-1.807039,1.083004,1.119400,-2.692561,-1.213093,-1.737674,2.302085,3.557543,0.000000,0.000000,0.000000,0.000000,0.000000,0.000000
1053.958000,1.088000,3,START d_bow,Transition,transition,transition D->A,D-A,down,0.110958,0.388418,0.606857,0.082850,-1.300067,-1.807042,1.083005,1.120033,-2.694104,-1.209562,-1.739319,2.302589,3.558056,0.000000,0.000000,0.000000,0.000000,0.000000,0.000000
1053.966000,1.096000,3,START d_bow,Transition,transition,transition D->A,D-A,down,0.102958,0.388412,0.607932,0.082843,-1.300072,-1.807044,1.083005,1.120684,-2.695702,-1.205906,-1.741024,2.303108,3.558584,0.000000,0.000000,0.000000,0.000000,0.000000,0.000000
1053.974000,1.104000,3,START d_bow,Transition,transition,transition D->A,D-A,down,0.094958,0.388405,0.609041,0.082835,-1.300076,-1.807047,1.083005,1.121354,-2.697356,-1.202123,-1.742789,2.303642,3.559128,0.000000,0.000000,0.000000,0.000000,0.000000,0.000000
1053.982000,1.112000,3,START d_bow,Transition,transition,transition D->A,D-A,down,0.086958,0.388398,0.610183,0.082827,-1.300081,-1.807050,1.083006,1.122043,-2.699068,-1.198213,-1.744614,2.304190,3.559687,0.000000,0.000000,0.000000,0.000000,0.000000,0.000000
1053.990000,1.120000,3,START d_bow,Transition,transition,transition D->A,D-A,down,0.078958,0.388391,0.611358,0.082819,-1.300086,-1.807053,1.083006,1.122749,-2.700837,-1.194173,-1.746500,2.304753,3.560262,0.000000,0.000000,0.000000,0.000000,0.000000,0.000000
1053.998000,1.128000,3,START d_bow,Transition,transition,transition D->A,D-A,down,0.070958,0.388384,0.612567,0.082811,-1.300091,-1.807056,1.083006,1.123474,-2.702664,-1.190003,-1.748447,2.305330,3.560852,0.000000,0.000000,0.000000,0.000000,0.000000,0.000000
1054.006000,1.136000,3,START d_bow,Transition,transition,transition D->A,D-A,down,0.062958,0.388377,0.613810,0.082802,-1.300096,-1.807059,1.083007,1.124216,-2.704550,-1.185700,-1.750458,2.305921,3.561457,0.000000,0.000000,0.000000,0.000000,0.000000,0.000000
1054.014000,1.144000,3,START d_bow,Transition,transition,transition D->A,D-A,down,0.054958,0.388369,0.615086,0.082794,-1.300101,-1.807062,1.083007,1.124976,-2.706496,-1.181264,-1.752532,2.306526,3.562077,0.000000,0.000000,0.000000,0.000000,0.000000,0.000000
1054.022000,1.152000,3,START d_bow,Transition,transition,transition D->A,D-A,down,0.046958,0.388361,0.616395,0.082785,-1.300106,-1.807065,1.083007,1.125754,-2.708502,-1.176695,-1.754669,2.307145,3.562713,0.000000,0.000000,0.000000,0.000000,0.000000,0.000000
1054.030000,1.160000,3,START d_bow,Transition,transition,transition D->A,D-A,down,0.038958,0.388353,0.617715,0.082776,-1.300112,-1.807069,1.083008,1.126536,-2.710535,-1.172066,-1.756835,2.307766,3.563352,0.000000,0.000000,0.000000,0.000000,0.000000,0.000000
1054.038000,1.168000,3,START d_bow,Transition,transition,transition D->A,D-A,down,0.030958,0.388346,0.619035,0.082766,-1.300117,-1.807072,1.083008,1.127315,-2.712578,-1.167418,-1.759011,2.308386,3.563990,0.000000,0.000000,0.000000,0.000000,0.000000,0.000000
1054.046000,1.176000,3,START d_bow,Transition,transition,transition D->A,D-A,down,0.022958,0.388338,0.620355,0.082757,-1.300122,-1.807075,1.083008,1.128092,-2.714631,-1.162749,-1.761198,2.309003,3.564628,0.000000,0.000000,0.000000,0.000000,0.000000,0.000000
1054.054000,1.184000,3,START d_bow,Transition,transition,transition D->A,D-A,down,0.014958,0.388330,0.621676,0.082748,-1.300128,-1.807078,1.083009,1.128867,-2.716695,-1.158060,-1.763396,2.309619,3.565263,0.000000,0.000000,0.000000,0.000000,0.000000,0.000000
1054.062000,1.192000,3,START d_bow,Transition,transition,transition D->A,D-A,down,0.006958,0.388322,0.622996,0.082739,-1.300133,-1.807082,1.083009,1.129639,-2.718769,-1.153351,-1.765604,2.310232,3.565898,0.000000,0.000000,0.000000,0.000000,0.000000,0.000000
1054.086000,1.216000,3,START d_bow,Note,57,A3,A,down,0.282958,0.388298,0.626956,0.082712,-1.300149,-1.807091,1.083010,1.131942,-2.725054,-1.139096,-1.772294,2.312059,3.567794,0.000000,0.000000,0.000000,0.000000,0.000000,0.000000
1054.094000,1.224000,3,START d_bow,Note,57,A3,A,down,0.274958,0.388290,0.628277,0.082703,-1.300155,-1.807095,1.083010,1.132704,-2.727170,-1.134302,-1.774546,2.312664,3.568424,0.000000,0.000000,0.000000,0.000000,0.000000,0.000000
1054.102000,1.232000,3,START d_bow,Note,57,A3,A,down,0.266958,0.388282,0.629597,0.082694,-1.300160,-1.807098,1.083011,1.133465,-2.729298,-1.129487,-1.776810,2.313267,3.569053,0.000000,0.000000,0.000000,0.000000,0.000000,0.000000
1054.110000,1.240000,3,START d_bow,Note,57,A3,A,down,0.258958,0.388275,0.630917,0.082685,-1.300165,-1.807101,1.083011,1.134223,-2.731436,-1.124649,-1.779085,2.313868,3.569680,0.000000,0.000000,0.000000,0.000000,0.000000,0.000000
1054.118000,1.248000,3,START d_bow,Note,57,A3,A,down,0.250958,0.388267,0.632237,0.082676,-1.300171,-1.807105,1.083012,1.134979,-2.733586,-1.119788,-1.781372,2.314466,3.570306,0.000000,0.000000,0.000000,0.000000,0.000000,0.000000
1054.126000,1.256000,3,START d_bow,Note,57,A3,A,down,0.242958,0.388259,0.633558,0.082667,-1.300176,-1.807108,1.083012,1.135732,-2.735747,-1.114906,-1.783670,2.315063,3.570931,0.000000,0.000000,0.000000,0.000000,0.000000,0.000000
1054.134000,1.264000,3,START d_bow,Note,57,A3,A,down,0.234958,0.388251,0.634878,0.082658,-1.300182,-1.807111,1.083012,1.136484,-2.737920,-1.110000,-1.785981,2.315658,3.571555,0.000000,0.000000,0.000000,0.000000,0.000000,0.000000
1054.142000,1.272000,3,START d_bow,Note,57,A3,A,down,0.226958,0.388243,0.636198,0.082648,-1.300187,-1.807114,1.083013,1.137233,-2.740104,-1.105071,-1.788304,2.316250,3.572177,0.000000,0.000000,0.000000,0.000000,0.000000,0.000000
1054.150000,1.280000,3,START d_bow,Note,57,A3,A,down,0.218958,0.388235,0.637518,0.082639,-1.300192,-1.807118,1.083013,1.137979,-2.742300,-1.100119,-1.790638,2.316841,3.572798,0.000000,0.000000,0.000000,0.000000,0.000000,0.000000
1054.158000,1.288000,3,START d_bow,Note,57,A3,A,down,0.210958,0.388227,0.638839,0.082630,-1.300198,-1.807121,1.083013,1.138724,-2.744508,-1.095143,-1.792986,2.317430,3.573418,0.000000,0.000000,0.000000,0.000000,0.000000,0.000000
1054.166000,1.296000,3,START d_bow,Note,57,A3,A,down,0.202958,0.388219,0.640159,0.082621,-1.300203,-1.807124,1.083014,1.139466,-2.746728,-1.090143,-1.795345,2.318016,3.574037,0.000000,0.000000,0.000000,0.000000,0.000000,0.000000
1054.174000,1.304000,3,START d_bow,Note,57,A3,A,down,0.194958,0.388212,0.641479,0.082612,-1.300208,-1.807127,1.083014,1.140206,-2.748960,-1.085119,-1.797718,2.318601,3.574655,0.000000,0.000000,0.000000,0.000000,0.000000,0.000000
1054.190000,1.320000,3,START d_bow,Note,57,A3,A,down,0.178958,0.388196,0.644119,0.082594,-1.300219,-1.807134,1.083015,1.141679,-2.753461,-1.074996,-1.802502,2.319764,3.575887,0.000000,0.000000,0.000000,0.000000,0.000000,0.000000
1054.198000,1.328000,3,START d_bow,Note,57,A3,A,down,0.170958,0.388188,0.645440,0.082585,-1.300225,-1.807137,1.083015,1.142412,-2.755731,-1.069896,-1.804913,2.320343,3.576501,0.000000,0.000000,0.000000,0.000000,0.000000,0.000000
1054.206000,1.336000,3,START d_bow,Note,57,A3,A,down,0.162958,0.388180,0.646760,0.082576,-1.300230,-1.807140,1.083015,1.143143,-2.758013,-1.064771,-1.807338,2.320920,3.577114,0.000000,0.000000,0.000000,0.000000,0.000000,0.000000
1054.214000,1.344000,3,START d_bow,Note,57,A3,A,down,0.154958,0.388172,0.648080,0.082567,-1.300235,-1.807144,1.083016,1.143871,-2.760309,-1.059620,-1.809777,2.321495,3.577726,0.000000,0.000000,0.000000,0.000000,0.000000,0.000000
1054.222000,1.352000,3,START d_bow,Note,57,A3,A,down,0.146958,0.388164,0.649400,0.082558,-1.300241,-1.807147,1.083016,1.144598,-2.762618,-1.054443,-1.812229,2.322068,3.578336,0.000000,0.000000,0.000000,0.000000,0.000000,0.000000
1054.230000,1.360000,3,START d_bow,Note,57,A3,A,down,0.138958,0.388156,0.650721,0.082549,-1.300246,-1.807150,1.083016,1.145322,-2.764940,-1.049238,-1.814696,2.322639,3.578946,0.000000,0.000000,0.000000,0.000000,0.000000,0.000000
1054.238000,1.368000,3,START d_bow,Note,57,A3,A,down,0.130958,0.388148,0.652041,0.082540,-1.300251,-1.807153,1.083017,1.146044,-2.767275,-1.044007,-1.817176,2.323208,3.579554,0.000000,0.000000,0.000000,0.000000,0.000000,0.000000
1054.246000,1.376000,3,START d_bow,Note,57,A3,A,down,0.122958,0.388141,0.653361,0.082531,-1.300257,-1.807157,1.083017,1.146764,-2.769625,-1.038748,-1.819671,2.323775,3.580161,0.000000,0.000000,0.000000,0.000000,0.000000,0.000000
1054.254000,1.384000,3,START d_bow,Note,57,A3,A,down,0.114958,0.388133,0.654681,0.082521,-1.300262,-1.807160,1.083018,1.147482,-2.771988,-1.033460,-1.822181,2.324340,3.580767,0.000000,0.000000,0.000000,0.000000,0.000000,0.000000
1054.262000,1.392000,3,START d_bow,Note,57,A3,A,down,0.106958,0.388125,0.656001,0.082512,-1.300268,-1.807163,1.083018,1.148198,-2.774365,-1.028145,-1.824705,2.324904,3.581372,0.000000,0.000000,0.000000,0.000000,0.000000,0.000000
1054.270000,1.400000,3,START d_bow,Note,57,A3,A,down,0.098958,0.388117,0.657322,0.082503,-1.300273,-1.807167,1.083018,1.148911,-2.776757,-1.022801,-1.827245,2.325465,3.581975,0.000000,0.000000,0.000000,0.000000,0.000000,0.000000
1054.278000,1.408000,3,START d_bow,Note,57,A3,A,down,0.090958,0.388109,0.658642,0.082494,-1.300278,-1.807170,1.083019,1.149623,-2.779163,-1.017427,-1.829800,2.326025,3.582578,0.000000,0.000000,0.000000,0.000000,0.000000,0.000000
1054.286000,1.416000,3,START d_bow,Note,57,A3,A,down,0.082958,0.388101,0.659962,0.082485,-1.300284,-1.807173,1.083019,1.150332,-2.781584,-1.012024,-1.832370,2.326583,3.583179,0.000000,0.000000,0.000000,0.000000,0.000000,0.000000
1054.294000,1.424000,3,START d_bow,Note,57,A3,A,down,0.074958,0.388093,0.661282,0.082476,-1.300289,-1.807176,1.083019,1.151039,-2.784020,-1.006591,-1.834956,2.327139,3.583779,0.000000,0.000000,0.000000,0.000000,0.000000,0.000000
1054.302000,1.432000,3,START d_bow,Note,57,A3,A,down,0.066958,0.388085,0.662603,0.082467,-1.300294,-1.807180,1.083020,1.151744,-2.786471,-1.001127,-1.837558,2.327693,3.584378,0.000000,0.000000,0.000000,0.000000,0.000000,0.000000
1054.310000,1.440000,3,START d_bow,Note,57,A3,A,down,0.058958,0.388078,0.663923,0.082458,-1.300300,-1.807183,1.083020,1.152447,-2.788938,-0.995631,-1.840176,2.328245,3.584976,0.000000,0.000000,0.000000,0.000000,0.000000,0.000000
1054.318000,1.448000,3,START d_bow,Note,57,A3,A,down,0.050958,0.388070,0.665243,0.082449,-1.300305,-1.807186,1.083020,1.153148,-2.791420,-0.990105,-1.842810,2.328795,3.585573,0.000000,0.000000,0.000000,0.000000,0.000000,0.000000
1054.326000,1.456000,3,START d_bow,Note,57,A3,A,down,0.042958,0.388062,0.666563,0.082440,-1.300311,-1.807189,1.083021,1.153846,-2.793918,-0.984546,-1.845462,2.329344,3.586168,0.000000,0.000000,0.000000,0.000000,0.000000,0.000000
1054.334000,1.464000,3,START d_bow,Note,57,A3,A,down,0.034958,0.388054,0.667883,0.082431,-1.300316,-1.807193,1.083021,1.154543,-2.796433,-0.978954,-1.848130,2.329891,3.586763,0.000000,0.000000,0.000000,0.000000,0.000000,0.000000
1054.342000,1.472000,3,START d_bow,Note,57,A3,A,down,0.026958,0.388046,0.669204,0.082422,-1.300321,-1.807196,1.083021,1.155237,-2.798964,-0.973329,-1.850816,2.330435,3.587356,0.000000,0.000000,0.000000,0.000000,0.000000,0.000000
1054.350000,1.480000,3,START d_bow,Note,57,A3,A,down,0.018958,0.388038,0.670524,0.082413,-1.300327,-1.807199,1.083022,1.155930,-2.801511,-0.967671,-1.853519,2.330979,3.587948,0.000000,0.000000,0.000000,0.000000,0.000000,0.000000
1054.358000,1.488000,3,START d_bow,Note,57,A3,A,down,0.010958,0.388030,0.671844,0.082404,-1.300332,-1.807202,1.083022,1.156620,-2.804076,-0.961978,-1.856241,2.331520,3.588539,0.000000,0.000000,0.000000,0.000000,0.000000,0.000000
1054.366000,1.496000,3,START d_bow,Note,57,A3,A,down,0.002958,0.388022,0.673164,0.082394,-1.300338,-1.807206,1.083022,1.157309,-2.806657,-0.956250,-1.858980,2.332059,3.589129,0.000000,0.000000,0.000000,0.000000,0.000000,0.000000
1054.374000,1.504000,3,START d_bow,Note,57,A3,A,down,0.494958,0.388014,0.674485,0.082385,-1.300343,-1.807209,1.083023,1.157995,-2.809257,-0.950487,-1.861738,2.332597,3.589718,0.000000,0.000000,0.000000,0.000000,0.000000,0.000000
1054.382000,1.512000,3,START d_bow,Note,57,A3,A,down,0.486958,0.388007,0.675805,0.082376,-1.300348,-1.807212,1.083023,1.158679,-2.811874,-0.944687,-1.864515,2.333133,3.590305,0.000000,0.000000,0.000000,0.000000,0.000000,0.000000
1054.390000,1.520000,3,START d_bow,Note,57,A3,A,down,0.478958,0.387999,0.677123,0.082367,-1.300354,-1.807215,1.083024,1.159361,-2.814506,-0.938858,-1.867307,2.333667,3.590891,0.000000,0.000000,0.000000,0.000000,0.000000,0.000000
1054.398000,1.528000,3,START d_bow,Note,57,A3,A,down,0.470958,0.387991,0.678416,0.082358,-1.300359,-1.807219,1.083024,1.160027,-2.817104,-0.933107,-1.870064,2.334188,3.591464,0.000000,0.000000,0.000000,0.000000,0.000000,0.000000
1054.406000,1.536000,3,START d_bow,Note,57,A3,A,down,0.462958,0.387984,0.679675,0.082350,-1.300364,-1.807222,1.083024,1.160674,-2.819653,-0.927470,-1.872768,2.334694,3.592022,0.000000,0.000000,0.000000,0.000000,0.000000,0.000000
1054.414000,1.544000,3,START d_bow,Note,57,A3,A,down,0.454958,0.387976,0.680901,0.082341,-1.300369,-1.807225,1.083025,1.161302,-2.822150,-0.921949,-1.875417,2.335185,3.592563,0.000000,0.000000,0.000000,0.000000,0.000000,0.000000
1054.430000,1.560000,3,START d_bow,Note,57,A3,A,down,0.438958,0.387962,0.683252,0.082325,-1.300379,-1.807231,1.083025,1.162502,-2.826988,-0.911262,-1.880549,2.336123,3.593599,0.000000,0.000000,0.000000,0.000000,0.000000,0.000000
1054.438000,1.568000,3,START d_bow,Note,57,A3,A,down,0.430958,0.387955,0.684377,0.082317,-1.300383,-1.807233,1.083025,1.163074,-2.829326,-0.906101,-1.883030,2.336570,3.594094,0.000000,0.000000,0.000000,0.000000,0.000000,0.000000
1054.446000,1.576000,3,START d_bow,Note,57,A3,A,down,0.422958,0.387949,0.685469,0.082310,-1.300388,-1.807236,1.083026,1.163627,-2.831609,-0.901065,-1.885451,2.337003,3.594573,0.000000,0.000000,0.000000,0.000000,0.000000,0.000000
1054.454000,1.584000,3,START d_bow,Note,57,A3,A,down,0.414958,0.387943,0.686527,0.082303,-1.300392,-1.807239,1.083026,1.164163,-2.833835,-0.896156,-1.887813,2.337421,3.595037,0.000000,0.000000,0.000000,0.000000,0.000000,0.000000
1054.462000,1.592000,3,START d_bow,Note,57,A3,A,down,0.406958,0.387936,0.687552,0.082296,-1.300396,-1.807241,1.083026,1.164680,-2.836004,-0.891375,-1.890114,2.337825,3.595485,0.000000,0.000000,0.000000,0.000000,0.000000,0.000000
1054.470000,1.600000,3,START d_bow,Note,57,A3,A,down,0.398958,0.387931,0.688544,0.082289,-1.300400,-1.807244,1.083027,1.165179,-2.838114,-0.886725,-1.892353,2.338215,3.595918,0.000000,0.000000,0.000000,0.000000,0.000000,0.000000
1054.478000,1.608000,3,START d_bow,Note,57,A3,A,down,0.390958,0.387925,0.689502,0.082282,-1.300404,-1.807246,1.083027,1.165661,-2.840165,-0.882209,-1.894528,2.338591,3.596336,0.000000,0.000000,0.000000,0.000000,0.000000,0.000000
1054.486000,1.616000,3,START d_bow,Note,57,A3,A,down,0.382958,0.387919,0.690426,0.082276,-1.300408,-1.807248,1.083027,1.166124,-2.842155,-0.877828,-1.896639,2.338952,3.596739,0.000000,0.000000,0.000000,0.000000,0.000000,0.000000
1054.494000,1.624000,3,START d_bow,Note,57,A3,A,down,0.374958,0.387914,0.691317,0.082270,-1.300411,-1.807251,1.083027,1.166570,-2.844084,-0.873584,-1.898685,2.339300,3.597127,0.000000,0.000000,0.000000,0.000000,0.000000,0.000000
1054.502000,1.632000,3,START d_bow,Note,57,A3,A,down,0.366958,0.387909,0.692175,0.082264,-1.300415,-1.807253,1.083028,1.166999,-2.845950,-0.869480,-1.900665,2.339634,3.597499,0.000000,0.000000,0.000000,0.000000,0.000000,0.000000
1054.526000,1.656000,3,START d_bow,Note,57,A3,A,down,0.342958,0.387895,0.694547,0.082247,-1.300425,-1.807259,1.083028,1.168179,-2.851162,-0.858024,-1.906194,2.340554,3.598528,0.000000,0.000000,0.000000,0.000000,0.000000,0.000000
1054.534000,1.664000,3,START d_bow,Note,57,A3,A,down,0.334958,0.387890,0.695271,0.082242,-1.300428,-1.807260,1.083028,1.168538,-2.852767,-0.854497,-1.907897,2.340834,3.598841,0.000000,0.000000,0.000000,0.000000,0.000000,0.000000
1054.542000,1.672000,3,START d_bow,Note,57,A3,A,down,0.326958,0.387886,0.695961,0.082238,-1.300430,-1.807262,1.083029,1.168880,-2.854305,-0.851120,-1.909529,2.341100,3.599139,0.000000,0.000000,0.000000,0.000000,0.000000,0.000000
1054.550000,1.680000,3,START d_bow,Note,57,A3,A,down,0.318958,0.387882,0.696618,0.082233,-1.300433,-1.807264,1.083029,1.169205,-2.855775,-0.847894,-1.911088,2.341353,3.599423,0.000000,0.000000,0.000000,0.000000,0.000000,0.000000
1054.558000,1.688000,3,START d_bow,Note,57,A3,A,down,0.310958,0.387879,0.697241,0.082229,-1.300436,-1.807265,1.083029,1.169513,-2.857176,-0.844820,-1.912574,2.341593,3.599691,0.000000,0.000000,0.000000,0.000000,0.000000,0.000000
1054.566000,1.696000,3,START d_bow,Note,57,A3,A,down,0.302958,0.387875,0.697831,0.082225,-1.300438,-1.807267,1.083029,1.169803,-2.858506,-0.841901,-1.913986,2.341820,3.599946,0.000000,0.000000,0.000000,0.000000,0.000000,0.000000
1054.574000,1.704000,3,START d_bow,Note,57,A3,A,down,0.294958,0.387872,0.698387,0.082221,-1.300440,-1.807268,1.083029,1.170077,-2.859766,-0.839139,-1.915322,2.342033,3.600185,0.000000,0.000000,0.000000,0.000000,0.000000,0.000000
1054.582000,1.712000,3,START d_bow,Note,57,A3,A,down,0.286958,0.387869,0.698910,0.082217,-1.300442,-1.807269,1.083029,1.170335,-2.860954,-0.836533,-1.916582,2.342233,3.600410,0.000000,0.000000,0.000000,0.000000,0.000000,0.000000
1054.590000,1.720000,3,START d_bow,Note,57,A3,A,down,0.278958,0.387866,0.699400,0.082214,-1.300444,-1.807270,1.083030,1.170575,-2.862069,-0.834088,-1.917766,2.342420,3.600621,0.000000,0.000000,0.000000,0.000000,0.000000,0.000000
1054.598000,1.728000,3,START d_bow,Note,57,A3,A,down,0.270958,0.387863,0.699856,0.082211,-1.300446,-1.807272,1.083030,1.170799,-2.863112,-0.831802,-1.918872,2.342594,3.600817,0.000000,0.000000,0.000000,0.000000,0.000000,0.000000
1054.606000,1.736000,3,START d_bow,Note,57,A3,A,down,0.262958,0.387861,0.700278,0.082208,-1.300448,-1.807273,1.083030,1.171006,-2.864081,-0.829679,-1.919900,2.342756,3.600998,0.000000,0.000000,0.000000,0.000000,0.000000,0.000000
1054.614000,1.744000,3,START d_bow,Note,57,A3,A,down,0.254958,0.387858,0.700667,0.082205,-1.300450,-1.807274,1.083030,1.171197,-2.864975,-0.827719,-1.920849,2.342904,3.601165,0.000000,0.000000,0.000000,0.000000,0.000000,0.000000
1054.622000,1.752000,3,START d_bow,Note,57,A3,A,down,0.246958,0.387856,0.701023,0.082203,-1.300451,-1.807275,1.083030,1.171371,-2.865795,-0.825924,-1.921718,2.343039,3.601317,0.000000,0.000000,0.000000,0.000000,0.000000,0.000000
1054.630000,1.760000,3,START d_bow,Note,57,A3,A,down,0.238958,0.387854,0.701345,0.082201,-1.300452,-1.807275,1.083030,1.171528,-2.866539,-0.824294,-1.922508,2.343162,3.601456,0.000000,0.000000,0.000000,0.000000,0.000000,0.000000
1054.638000,1.768000,3,START d_bow,Note,57,A3,A,down,0.230958,0.387852,0.701634,0.082199,-1.300454,-1.807276,1.083030,1.171669,-2.867207,-0.822831,-1.923217,2.343272,3.601579,0.000000,0.000000,0.000000,0.000000,0.000000,0.000000
1054.646000,1.776000,3,START d_bow,Note,57,A3,A,down,0.222958,0.387851,0.701889,0.082197,-1.300455,-1.807277,1.083030,1.171794,-2.867799,-0.821535,-1.923845,2.343369,3.601689,0.000000,0.000000,0.000000,0.000000,0.000000,0.000000
1054.654000,1.784000,3,START d_bow,Note,57,A3,A,down,0.214958,0.387850,0.702110,0.082195,-1.300455,-1.807277,1.083030,1.171902,-2.868314,-0.820407,-1.924391,2.343453,3.601783,0.000000,0.000000,0.000000,0.000000,0.000000,0.000000
1054.662000,1.792000,3,START d_bow,Note,57,A3,A,down,0.206958,0.387848,0.702299,0.082194,-1.300456,-1.807278,1.083030,1.171994,-2.868752,-0.819449,-1.924856,2.343524,3.601864,0.000000,0.000000,0.000000,0.000000,0.000000,0.000000
1054.670000,1.800000,3,START d_bow,Note,57,A3,A,down,0.198958,0.387848,0.702453,0.082193,-1.300457,-1.807278,1.083030,1.172070,-2.869112,-0.818660,-1.925238,2.343583,3.601930,0.000000,0.000000,0.000000,0.000000,0.000000,0.000000
1054.678000,1.808000,3,START d_bow,Note,57,A3,A,down,0.190958,0.387847,0.702575,0.082192,-1.300457,-1.807278,1.083030,1.172129,-2.869395,-0.818041,-1.925538,2.343629,3.601982,0.000000,0.000000,0.000000,0.000000,0.000000,0.000000
1054.686000,1.816000,3,START d_bow,Note,57,A3,A,down,0.182958,0.387846,0.702663,0.082192,-1.300458,-1.807279,1.083030,1.172172,-2.869600,-0.817592,-1.925756,2.343663,3.602020,0.000000,0.000000,0.000000,0.000000,0.000000,0.000000
1054.694000,1.824000,3,START d_bow,Note,57,A3,A,down,0.174958,0.387846,0.702717,0.082191,-1.300458,-1.807279,1.083030,1.172198,-2.869727,-0.817314,-1.925890,2.343683,3.602043,0.000000,0.000000,0.000000,0.000000,0.000000,0.000000
1054.702000,1.832000,3,START d_bow,Note,57,A3,A,down,0.166958,0.387846,0.702738,0.082191,-1.300458,-1.807279,1.083030,1.172209,-2.869775,-0.817207,-1.925942,2.343691,3.602052,0.000000,0.000000,0.000000,0.000000,0.000000,0.000000
1054.710000,1.840000,4,END d_bow,Note,57,A3,A,down,0.158958,0.387846,0.702738,0.082191,-1.300458,-1.807279,1.083030,1.172209,-2.869776,-0.817206,-1.925943,2.343691,3.602052,0.000000,0.000000,0.000000,0.000000,0.000000,0.000000
1054.718000,1.848000,4,END d_bow,Note,57,A3,A,down,0.150958,0.387846,0.702738,0.082191,-1.300458,-1.807279,1.083030,1.172209,-2.869776,-0.817206,-1.925943,2.343691,3.602052,0.000000,0.000000,0.000000,0.000000,0.000000,0.000000
1054.726000,1.856000,4,END d_bow,Note,57,A3,A,down,0.142958,0.387846,0.702738,0.082191,-1.300458,-1.807279,1.083030,1.172209,-2.869776,-0.817206,-1.925943,2.343691,3.602052,0.000000,0.000000,0.000000,0.000000,0.000000,0.000000
1054.734000,1.864000,103,START d_to_a,Note,59,B3,A,down,0.634958,0.387850,0.702738,0.082214,-1.300458,-1.807279,1.083030,1.172204,-2.869745,-0.817206,-1.925976,2.343687,3.602048,0.000000,0.000000,0.000000,0.000000,0.000000,0.000000
1054.742000,1.872000,103,START d_to_a,Note,59,B3,A,down,0.626958,0.387906,0.702738,0.082494,-1.300458,-1.807279,1.083030,1.172140,-2.869365,-0.817210,-1.926392,2.343637,3.601992,0.000000,0.000000,0.000000,0.000000,0.000000,0.000000
1054.750000,1.880000,103,START d_to_a,Note,59,B3,A,down,0.618958,0.388026,0.702738,0.083094,-1.300458,-1.807279,1.083030,1.172002,-2.868550,-0.817214,-1.927285,2.343530,3.601873,0.000000,0.000000,0.000000,0.000000,0.000000,0.000000
1054.758000,1.888000,103,START d_to_a,Note,59,B3,A,down,0.610958,0.388210,0.702738,0.084014,-1.300458,-1.807279,1.083030,1.171792,-2.867304,-0.817215,-1.928658,2.343365,3.601691,0.000000,0.000000,0.000000,0.000000,0.000000,0.000000
1054.766000,1.896000,103,START d_to_a,Note,59,B3,A,down,0.602958,0.388458,0.702738,0.085254,-1.300458,-1.807279,1.083030,1.171509,-2.865630,-0.817205,-1.930513,2.343143,3.601445,0.000000,0.000000,0.000000,0.000000,0.000000,0.000000
1054.774000,1.904000,103,START d_to_a,Note,59,B3,A,down,0.594958,0.388770,0.702738,0.086814,-1.300458,-1.807279,1.083030,1.171153,-2.863533,-0.817173,-1.932857,2.342864,3.601137,0.000000,0.000000,0.000000,0.000000,0.000000,0.000000
1054.782000,1.912000,103,START d_to_a,Note,59,B3,A,down,0.586958,0.389146,0.702738,0.088694,-1.300458,-1.807279,1.083030,1.170724,-2.861019,-0.817107,-1.935697,2.342527,3.600765,0.000000,0.000000,0.000000,0.000000,0.000000,0.000000
1054.790000,1.920000,103,START d_to_a,Note,59,B3,A,down,0.578958,0.389586,0.702738,0.090894,-1.300458,-1.807279,1.083030,1.170222,-2.858096,-0.816991,-1.939039,2.342134,3.600331,0.000000,0.000000,0.000000,0.000000,0.000000,0.000000
1054.798000,1.928000,103,START d_to_a,Note,59,B3,A,down,0.570958,0.390090,0.702738,0.093414,-1.300458,-1.807279,1.083030,1.169648,-2.854773,-0.816806,-1.942894,2.341683,3.599834,0.000000,0.000000,0.000000,0.000000,0.000000,0.000000
1054.806000,1.936000,103,START d_to_a,Note,59,B3,A,down,0.562958,0.390658,0.702738,0.096254,-1.300458,-1.807279,1.083030,1.169000,-2.851059,-0.816531,-1.947271,2.341175,3.599275,0.000000,0.000000,0.000000,0.000000,0.000000,0.000000
1054.814000,1.944000,103,START d_to_a,Note,59,B3,A,down,0.554958,0.391290,0.702738,0.099414,-1.300458,-1.807279,1.083030,1.168281,-2.846967,-0.816144,-1.952183,2.340610,3.598654,0.000000,0.000000,0.000000,0.000000,0.000000,0.000000
1054.822000,1.952000,103,START d_to_a,Note,59,B3,A,down,0.546958,0.391986,0.702738,0.102894,-1.300458,-1.807279,1.083030,1.167489,-2.842509,-0.815616,-1.957643,2.339989,3.597972,0.000000,0.000000,0.000000,0.000000,0.000000,0.000000
1054.830000,1.960000,103,START d_to_a,Note,59,B3,A,down,0.538958,0.392746,0.702738,0.106694,-1.300458,-1.807279,1.083030,1.166625,-2.837700,-0.814920,-1.963665,2.339310,3.597228,0.000000,0.000000,0.000000,0.000000,0.000000,0.000000
1054.838000,1.968000,103,START d_to_a,Note,59,B3,A,down,0.530958,0.393522,0.702738,0.110570,-1.300458,-1.807279,1.083030,1.165745,-2.832858,-0.814081,-1.969873,2.338618,3.596471,0.000000,0.000000,0.000000,0.000000,0.000000,0.000000
1054.846000,1.976000,103,START d_to_a,Note,59,B3,A,down,0.522958,0.394234,0.702738,0.114130,-1.300458,-1.807279,1.083030,1.164937,-2.828468,-0.813194,-1.975631,2.337983,3.595777,0.000000,0.000000,0.000000,0.000000,0.000000,0.000000
1054.854000,1.984000,103,START d_to_a,Note,59,B3,A,down,0.514958,0.394882,0.702738,0.117370,-1.300458,-1.807279,1.083030,1.164203,-2.824520,-0.812290,-1.980919,2.337405,3.595147,0.000000,0.000000,0.000000,0.000000,0.000000,0.000000
1054.862000,1.992000,103,START d_to_a,Note,59,B3,A,down,0.506958,0.395466,0.702738,0.120290,-1.300458,-1.807279,1.083030,1.163541,-2.821002,-0.811397,-1.985724,2.336885,3.594580,0.000000,0.000000,0.000000,0.000000,0.000000,0.000000
1054.886000,2.016000,103,START d_to_a,Note,59,B3,A,down,0.482958,0.396834,0.702738,0.127130,-1.300458,-1.807279,1.083030,1.161993,-2.812907,-0.809011,-1.997123,2.335666,3.593256,0.000000,0.000000,0.000000,0.000000,0.000000,0.000000
1054.894000,2.024000,103,START d_to_a,Note,59,B3,A,down,0.474958,0.397162,0.702738,0.128770,-1.300458,-1.807279,1.083030,1.161622,-2.810997,-0.808377,-1.999886,2.335374,3.592940,0.000000,0.000000,0.000000,0.000000,0.000000,0.000000
1054.902000,2.032000,103,START d_to_a,Note,59,B3,A,down,0.466958,0.397426,0.702738,0.130090,-1.300458,-1.807279,1.083030,1.161324,-2.809468,-0.807850,-2.002118,2.335139,3.592685,0.000000,0.000000,0.000000,0.000000,0.000000,0.000000
1054.910000,2.040000,103,START d_to_a,Note,59,B3,A,down,0.458958,0.397626,0.702738,0.131090,-1.300458,-1.807279,1.083030,1.161098,-2.808315,-0.807440,-2.003814,2.334961,3.592492,0.000000,0.000000,0.000000,0.000000,0.000000,0.000000
1054.918000,2.048000,103,START d_to_a,Note,59,B3,A,down,0.450958,0.397762,0.702738,0.131770,-1.300458,-1.807279,1.083030,1.160944,-2.807534,-0.807156,-2.004970,2.334840,3.592361,0.000000,0.000000,0.000000,0.000000,0.000000,0.000000
1054.926000,2.056000,103,START d_to_a,Note,59,B3,A,down,0.442958,0.397834,0.702738,0.132130,-1.300458,-1.807279,1.083030,1.160863,-2.807121,-0.807005,-2.005583,2.334776,3.592292,0.000000,0.000000,0.000000,0.000000,0.000000,0.000000
1054.934000,2.064000,103,START d_to_a,Note,59,B3,A,down,0.434958,0.397832,0.702764,0.132197,-1.300498,-1.807379,1.083108,1.160868,-2.807081,-0.806885,-2.005744,2.334657,3.592338,0.000000,0.000000,0.000000,0.000000,0.000000,0.000000
1054.942000,2.072000,103,START d_to_a,Note,59,B3,A,down,0.426958,0.397651,0.703081,0.132259,-1.300997,-1.808623,1.084079,1.161105,-2.807472,-0.805722,-2.006427,2.333312,3.593061,0.000000,0.000000,0.000000,0.000000,0.000000,0.000000
1054.950000,2.080000,103,START d_to_a,Note,59,B3,A,down,0.418958,0.397264,0.703759,0.132390,-1.302067,-1.811291,1.086156,1.161612,-2.808310,-0.803231,-2.007890,2.330430,3.594612,0.000000,0.000000,0.000000,0.000000,0.000000,0.000000
1054.958000,2.088000,103,START d_to_a,Note,59,B3,A,down,0.410958,0.396668,0.704796,0.132591,-1.303713,-1.815386,1.089328,1.162390,-2.809595,-0.799412,-2.010135,2.326010,3.596989,0.000000,0.000000,0.000000,0.000000,0.000000,0.000000
1054.966000,2.096000,103,START d_to_a,Note,59,B3,A,down,0.402958,0.395860,0.706185,0.132860,-1.305941,-1.820915,1.093583,1.163439,-2.811327,-0.794263,-2.013160,2.320054,3.600193,0.000000,0.000000,0.000000,0.000000,0.000000,0.000000
1054.974000,2.104000,103,START d_to_a,Note,59,B3,A,down,0.394958,0.394837,0.707922,0.133196,-1.308759,-1.827887,1.098900,1.164759,-2.813505,-0.787787,-2.016965,2.312560,3.604224,0.000000,0.000000,0.000000,0.000000,0.000000,0.000000
1054.982000,2.112000,103,START d_to_a,Note,59,B3,A,down,0.386958,0.393592,0.709997,0.133598,-1.312177,-1.836311,1.105255,1.166349,-2.816131,-0.779981,-2.021551,2.303529,3.609082,0.000000,0.000000,0.000000,0.000000,0.000000,0.000000
1054.990000,2.120000,103,START d_to_a,Note,59,B3,A,down,0.378958,0.392120,0.712400,0.134065,-1.316208,-1.846200,1.112617,1.168210,-2.819203,-0.770848,-2.026918,2.292961,3.614767,0.000000,0.000000,0.000000,0.000000,0.000000,0.000000
1054.998000,2.128000,103,START d_to_a,Note,59,B3,A,down,0.370958,0.390415,0.715120,0.134593,-1.320865,-1.857571,1.120950,1.170342,-2.822722,-0.760385,-2.033065,2.280855,3.621279,0.000000,0.000000,0.000000,0.000000,0.000000,0.000000
1055.006000,2.136000,103,START d_to_a,Note,59,B3,A,down,0.362958,0.388469,0.718144,0.135180,-1.326167,-1.870439,1.130213,1.172744,-2.826689,-0.748594,-2.039993,2.267213,3.628618,0.000000,0.000000,0.000000,0.000000,0.000000,0.000000
1055.014000,2.144000,103,START d_to_a,Note,59,B3,A,down,0.354958,0.386274,0.721454,0.135823,-1.332131,-1.884825,1.140355,1.175417,-2.831102,-0.735475,-2.047702,2.252033,3.636783,0.000000,0.000000,0.000000,0.000000,0.000000,0.000000
1055.022000,2.152000,103,START d_to_a,Note,59,B3,A,down,0.346958,0.383823,0.725035,0.136519,-1.338778,-1.900753,1.151321,1.178361,-2.835962,-0.721027,-2.056191,2.235316,3.645775,0.000000,0.000000,0.000000,0.000000,0.000000,0.000000
1055.030000,2.160000,103,START d_to_a,Note,59,B3,A,down,0.338958,0.381106,0.728867,0.137264,-1.346132,-1.918246,1.163047,1.181575,-2.841269,-0.705250,-2.065461,2.217062,3.655595,0.000000,0.000000,0.000000,0.000000,0.000000,0.000000
1055.038000,2.168000,103,START d_to_a,Note,59,B3,A,down,0.330958,0.378115,0.732927,0.138053,-1.354218,-1.937333,1.175462,1.185060,-2.847022,-0.688145,-2.075511,2.197270,3.666241,0.000000,0.000000,0.000000,0.000000,0.000000,0.000000
1055.046000,2.176000,103,START d_to_a,Note,59,B3,A,down,0.322958,0.374842,0.737193,0.138883,-1.363063,-1.958045,1.188484,1.188816,-2.853223,-0.669711,-2.086342,2.175942,3.677714,0.000000,0.000000,0.000000,0.000000,0.000000,0.000000
1055.054000,2.184000,103,START d_to_a,Note,59,B3,A,down,0.314958,0.371279,0.741639,0.139747,-1.372697,-1.980415,1.202023,1.192843,-2.859871,-0.649949,-2.097954,2.153076,3.690014,0.000000,0.000000,0.000000,0.000000,0.000000,0.000000
1055.062000,2.192000,103,START d_to_a,Note,59,B3,A,down,0.306958,0.367418,0.746236,0.140640,-1.383150,-2.004480,1.215978,1.197140,-2.866965,-0.628858,-2.110346,2.128673,3.703141,0.000000,0.000000,0.000000,0.000000,0.000000,0.000000
1055.070000,2.200000,103,START d_to_a,Note,59,B3,A,down,0.298958,0.363353,0.750844,0.141534,-1.394183,-2.029657,1.229899,1.201598,-2.874325,-0.606978,-2.123202,2.103357,3.716759,0.000000,0.000000,0.000000,0.000000,0.000000,0.000000
1055.078000,2.208000,103,START d_to_a,Note,59,B3,A,down,0.290958,0.359235,0.755282,0.142394,-1.405398,-2.055032,1.243227,1.206052,-2.881679,-0.585114,-2.136048,2.078061,3.730366,0.000000,0.000000,0.000000,0.000000,0.000000,0.000000
1055.086000,2.216000,103,START d_to_a,Note,59,B3,A,down,0.282958,0.355091,0.759531,0.143216,-1.416739,-2.080480,1.255885,1.210482,-2.888992,-0.563375,-2.148822,2.052907,3.743897,0.000000,0.000000,0.000000,0.000000,0.000000,0.000000
1055.094000,2.224000,103,START d_to_a,Note,59,B3,A,down,0.274958,0.350932,0.763585,0.143999,-1.428185,-2.105963,1.267849,1.214879,-2.896253,-0.541790,-2.161504,2.027933,3.757331,0.000000,0.000000,0.000000,0.000000,0.000000,0.000000
1055.110000,2.240000,103,START d_to_a,Note,59,B3,A,down,0.258958,0.342580,0.771133,0.145452,-1.451400,-2.157083,1.289694,1.223590,-2.910634,-0.499036,-2.186625,1.978464,3.783941,0.000000,0.000000,0.000000,0.000000,0.000000,0.000000
1055.118000,2.248000,103,START d_to_a,Note,59,B3,A,down,0.250958,0.338649,0.774426,0.146084,-1.462450,-2.181169,1.298990,1.227644,-2.917328,-0.479137,-2.198317,1.955441,3.796326,0.000000,0.000000,0.000000,0.000000,0.000000,0.000000
1055.126000,2.256000,103,START d_to_a,Note,59,B3,A,down,0.242958,0.334960,0.777374,0.146647,-1.472900,-2.203816,1.307145,1.231428,-2.923574,-0.460568,-2.209228,1.933955,3.807884,0.000000,0.000000,0.000000,0.000000,0.000000,0.000000
1055.134000,2.264000,103,START d_to_a,Note,59,B3,A,down,0.234958,0.331520,0.780001,0.147148,-1.482723,-2.224991,1.314258,1.234941,-2.929374,-0.443326,-2.219358,1.914006,3.818615,0.000000,0.000000,0.000000,0.000000,0.000000,0.000000
1055.142000,2.272000,103,START d_to_a,Note,59,B3,A,down,0.226958,0.328334,0.782333,0.147592,-1.491889,-2.244661,1.320419,1.238183,-2.934726,-0.427414,-2.228708,1.895595,3.828519,0.000000,0.000000,0.000000,0.000000,0.000000,0.000000
1055.150000,2.280000,103,START d_to_a,Note,59,B3,A,down,0.218958,0.325407,0.784393,0.147982,-1.500376,-2.262795,1.325720,1.241154,-2.939632,-0.412829,-2.237277,1.878720,3.837596,0.000000,0.000000,0.000000,0.000000,0.000000,0.000000
1055.158000,2.288000,103,START d_to_a,Note,59,B3,A,down,0.210958,0.322741,0.786199,0.148324,-1.508159,-2.279365,1.330244,1.243855,-2.944091,-0.399574,-2.245066,1.863383,3.845846,0.000000,0.000000,0.000000,0.000000,0.000000,0.000000
1055.166000,2.296000,103,START d_to_a,Note,59,B3,A,down,0.202958,0.320339,0.787772,0.148621,-1.515218,-2.294347,1.334070,1.246285,-2.948103,-0.387647,-2.252074,1.849583,3.853269,0.000000,0.000000,0.000000,0.000000,0.000000,0.000000
1055.190000,2.320000,103,START d_to_a,Note,59,B3,A,down,0.178958,0.314731,0.791246,0.149275,-1.531883,-2.329546,1.342076,1.251951,-2.957457,-0.359837,-2.268414,1.817406,3.870578,0.000000,0.000000,0.000000,0.000000,0.000000,0.000000
1055.198000,2.328000,103,START d_to_a,Note,59,B3,A,down,0.170958,0.313397,0.792032,0.149422,-1.535887,-2.337971,1.343786,1.253299,-2.959682,-0.353224,-2.272299,1.809755,3.874694,0.000000,0.000000,0.000000,0.000000,0.000000,0.000000
1055.206000,2.336000,103,START d_to_a,Note,59,B3,A,down,0.162958,0.312331,0.792650,0.149538,-1.539099,-2.344718,1.345098,1.254375,-2.961459,-0.347940,-2.275404,1.803641,3.877982,0.000000,0.000000,0.000000,0.000000,0.000000,0.000000
1055.214000,2.344000,103,START d_to_a,Note,59,B3,A,down,0.154958,0.311533,0.793106,0.149623,-1.541509,-2.349777,1.346049,1.255181,-2.962790,-0.343984,-2.277729,1.799064,3.880444,0.000000,0.000000,0.000000,0.000000,0.000000,0.000000
1055.222000,2.352000,103,START d_to_a,Note,59,B3,A,down,0.146958,0.311003,0.793406,0.149679,-1.543114,-2.353142,1.346665,1.255716,-2.963674,-0.341357,-2.279272,1.796024,3.882080,0.000000,0.000000,0.000000,0.000000,0.000000,0.000000
1055.230000,2.360000,103,START d_to_a,Note,59,B3,A,down,0.138958,0.310741,0.793553,0.149707,-1.543907,-2.354806,1.346965,1.255981,-2.964110,-0.340058,-2.280035,1.794522,3.882888,0.000000,0.000000,0.000000,0.000000,0.000000,0.000000
1055.238000,2.368000,103,START d_to_a,Note,59,B3,A,down,0.130958,0.310708,0.793570,0.149700,-1.544000,-2.355000,1.347000,1.256014,-2.964166,-0.339923,-2.280103,1.794348,3.882984,0.000000,0.000000,0.000000,0.000000,0.000000,0.000000
1055.246000,2.376000,103,START d_to_a,Note,59,B3,A,down,0.122958,0.310692,0.793570,0.149620,-1.544000,-2.355000,1.347000,1.256032,-2.964206,-0.340048,-2.279936,1.794362,3.882995,0.000000,0.000000,0.000000,0.000000,0.000000,0.000000
1055.254000,2.384000,103,START d_to_a,Note,59,B3,A,down,0.114958,0.310660,0.793570,0.149460,-1.544000,-2.355000,1.347000,1.256067,-2.964285,-0.340297,-2.279602,1.794388,3.883018,0.000000,0.000000,0.000000,0.000000,0.000000,0.000000
1055.262000,2.392000,103,START d_to_a,Note,59,B3,A,down,0.106958,0.310612,0.793570,0.149220,-1.544000,-2.355000,1.347000,1.256119,-2.964404,-0.340670,-2.279102,1.794429,3.883053,0.000000,0.000000,0.000000,0.000000,0.000000,0.000000
1055.270000,2.400000,103,START d_to_a,Note,59,B3,A,down,0.098958,0.310548,0.793570,0.148900,-1.544000,-2.355000,1.347000,1.256189,-2.964565,-0.341165,-2.278437,1.794482,3.883099,0.000000,0.000000,0.000000,0.000000,0.000000,0.000000
1055.278000,2.408000,103,START d_to_a,Note,59,B3,A,down,0.090958,0.310468,0.793570,0.148500,-1.544000,-2.355000,1.347000,1.256277,-2.964767,-0.341781,-2.277606,1.794549,3.883157,0.000000,0.000000,0.000000,0.000000,0.000000,0.000000
1055.286000,2.416000,103,START d_to_a,Note,59,B3,A,down,0.082958,0.310372,0.793570,0.148020,-1.544000,-2.355000,1.347000,1.256382,-2.965012,-0.342514,-2.276613,1.794629,3.883226,0.000000,0.000000,0.000000,0.000000,0.000000,0.000000
1055.294000,2.424000,103,START d_to_a,Note,59,B3,A,down,0.074958,0.310260,0.793570,0.147460,-1.544000,-2.355000,1.347000,1.256504,-2.965302,-0.343362,-2.275457,1.794723,3.883307,0.000000,0.000000,0.000000,0.000000,0.000000,0.000000
1055.302000,2.432000,103,START d_to_a,Note,59,B3,A,down,0.066958,0.310132,0.793570,0.146820,-1.544000,-2.355000,1.347000,1.256644,-2.965637,-0.344321,-2.274142,1.794830,3.883399,0.000000,0.000000,0.000000,0.000000,0.000000,0.000000
1055.310000,2.440000,103,START d_to_a,Note,59,B3,A,down,0.058958,0.309988,0.793570,0.146100,-1.544000,-2.355000,1.347000,1.256802,-2.966021,-0.345388,-2.272668,1.794951,3.883503,0.000000,0.000000,0.000000,0.000000,0.000000,0.000000
1055.318000,2.448000,103,START d_to_a,Note,59,B3,A,down,0.050958,0.309828,0.793570,0.145300,-1.544000,-2.355000,1.347000,1.256977,-2.966455,-0.346559,-2.271037,1.795085,3.883619,0.000000,0.000000,0.000000,0.000000,0.000000,0.000000
1055.334000,2.464000,103,START d_to_a,Note,59,B3,A,down,0.034958,0.309460,0.793570,0.143460,-1.544000,-2.355000,1.347000,1.257380,-2.967481,-0.349194,-2.267317,1.795393,3.883885,0.000000,0.000000,0.000000,0.000000,0.000000,0.000000
1055.342000,2.472000,103,START d_to_a,Note,59,B3,A,down,0.026958,0.309252,0.793570,0.142420,-1.544000,-2.355000,1.347000,1.257607,-2.968078,-0.350648,-2.265233,1.795568,3.884035,0.000000,0.000000,0.000000,0.000000,0.000000,0.000000
1055.350000,2.480000,103,START d_to_a,Note,59,B3,A,down,0.018958,0.309028,0.793570,0.141300,-1.544000,-2.355000,1.347000,1.257853,-2.968736,-0.352185,-2.263002,1.795755,3.884197,0.000000,0.000000,0.000000,0.000000,0.000000,0.000000
1055.358000,2.488000,103,START d_to_a,Note,59,B3,A,down,0.010958,0.308788,0.793570,0.140100,-1.544000,-2.355000,1.347000,1.258115,-2.969456,-0.353799,-2.260628,1.795957,3.884371,0.000000,0.000000,0.000000,0.000000,0.000000,0.000000
1055.366000,2.496000,103,START d_to_a,Note,59,B3,A,down,0.002958,0.308532,0.793570,0.138820,-1.544000,-2.355000,1.347000,1.258396,-2.970242,-0.355485,-2.258115,1.796171,3.884556,0.000000,0.000000,0.000000,0.000000,0.000000,0.000000
1055.374000,2.504000,103,START d_to_a,Note,59,B3,A,down,0.494958,0.308260,0.793570,0.137460,-1.544000,-2.355000,1.347000,1.258694,-2.971097,-0.357236,-2.255464,1.796399,3.884753,0.000000,0.000000,0.000000,0.000000,0.000000,0.000000
1055.390000,2.520000,103,START d_to_a,Note,59,B3,A,down,0.478958,0.307668,0.793570,0.134500,-1.544000,-2.355000,1.347000,1.259343,-2.973028,-0.360907,-2.249767,1.796896,3.885181,0.000000,0.000000,0.000000,0.000000,0.000000,0.000000
1055.398000,2.528000,103,START d_to_a,Note,59,B3,A,down,0.470958,0.307348,0.793570,0.132900,-1.544000,-2.355000,1.347000,1.259694,-2.974111,-0.362812,-2.246728,1.797164,3.885413,0.000000,0.000000,0.000000,0.000000,0.000000,0.000000
1055.406000,2.536000,103,START d_to_a,Note,59,B3,A,down,0.462958,0.307012,0.793570,0.131220,-1.544000,-2.355000,1.347000,1.260062,-2.975276,-0.364753,-2.243566,1.797446,3.885657,0.000000,0.000000,0.000000,0.000000,0.000000,0.000000
1055.414000,2.544000,103,START d_to_a,Note,59,B3,A,down,0.454958,0.306660,0.793570,0.129460,-1.544000,-2.355000,1.347000,1.260449,-2.976528,-0.366724,-2.240286,1.797742,3.885912,0.000000,0.000000,0.000000,0.000000,0.000000,0.000000
1055.422000,2.552000,103,START d_to_a,Note,59,B3,A,down,0.446958,0.306292,0.793570,0.127620,-1.544000,-2.355000,1.347000,1.260853,-2.977871,-0.368717,-2.236891,1.798051,3.886179,0.000000,0.000000,0.000000,0.000000,0.000000,0.000000
1055.446000,2.576000,103,START d_to_a,Note,59,B3,A,down,0.422958,0.305128,0.793570,0.121800,-1.544000,-2.355000,1.347000,1.262131,-2.982337,-0.374572,-2.226378,1.799029,3.887024,0.000000,0.000000,0.000000,0.000000,0.000000,0.000000
1055.454000,2.584000,103,START d_to_a,Note,59,B3,A,down,0.414958,0.304760,0.793570,0.119960,-1.544000,-2.355000,1.347000,1.262536,-2.983816,-0.376286,-2.223125,1.799338,3.887292,0.000000,0.000000,0.000000,0.000000,0.000000,0.000000
1055.462000,2.592000,103,START d_to_a,Note,59,B3,A,down,0.406958,0.304408,0.793570,0.118200,-1.544000,-2.355000,1.347000,1.262923,-2.985261,-0.377864,-2.220043,1.799634,3.887548,0.000000,0.000000,0.000000,0.000000,0.000000,0.000000
1055.470000,2.600000,103,START d_to_a,Note,59,B3,A,down,0.398958,0.304072,0.793570,0.116520,-1.544000,-2.355000,1.347000,1.263292,-2.986667,-0.379316,-2.217130,1.799917,3.887792,0.000000,0.000000,0.000000,0.000000,0.000000,0.000000
1055.478000,2.608000,103,START d_to_a,Note,59,B3,A,down,0.390958,0.303752,0.793570,0.114920,-1.544000,-2.355000,1.347000,1.263644,-2.988030,-0.380650,-2.214380,1.800186,3.888025,0.000000,0.000000,0.000000,0.000000,0.000000,0.000000
1055.486000,2.616000,103,START d_to_a,Note,59,B3,A,down,0.382958,0.303448,0.793570,0.113400,-1.544000,-2.355000,1.347000,1.263979,-2.989347,-0.381874,-2.211789,1.800442,3.888246,0.000000,0.000000,0.000000,0.000000,0.000000,0.000000
1055.494000,2.624000,103,START d_to_a,Note,59,B3,A,down,0.374958,0.303160,0.793570,0.111960,-1.544000,-2.355000,1.347000,1.264296,-2.990613,-0.382994,-2.209355,1.800684,3.888456,0.000000,0.000000,0.000000,0.000000,0.000000,0.000000
1055.502000,2.632000,103,START d_to_a,Note,59,B3,A,down,0.366958,0.302888,0.793570,0.110600,-1.544000,-2.355000,1.347000,1.264595,-2.991826,-0.384017,-2.207074,1.800913,3.888654,0.000000,0.000000,0.000000,0.000000,0.000000,0.000000
1055.510000,2.640000,103,START d_to_a,Note,59,B3,A,down,0.358958,0.302632,0.793570,0.109320,-1.544000,-2.355000,1.347000,1.264877,-2.992982,-0.384950,-2.204942,1.801129,3.888841,0.000000,0.000000,0.000000,0.000000,0.000000,0.000000
1055.526000,2.656000,103,START d_to_a,Note,59,B3,A,down,0.342958,0.302168,0.793570,0.107000,-1.544000,-2.355000,1.347000,1.265388,-2.995114,-0.386566,-2.201117,1.801520,3.889179,0.000000,0.000000,0.000000,0.000000,0.000000,0.000000
1055.534000,2.664000,103,START d_to_a,Note,59,B3,A,down,0.334958,0.301960,0.793570,0.105960,-1.544000,-2.355000,1.347000,1.265617,-2.996085,-0.387259,-2.199418,1.801695,3.889331,0.000000,0.000000,0.000000,0.000000,0.000000,0.000000
1055.542000,2.672000,103,START d_to_a,Note,59,B3,A,down,0.326958,0.301768,0.793570,0.105000,-1.544000,-2.355000,1.347000,1.265829,-2.996990,-0.387882,-2.197858,1.801857,3.889471,0.000000,0.000000,0.000000,0.000000,0.000000,0.000000
1055.550000,2.680000,103,START d_to_a,Note,59,B3,A,down,0.318958,0.301592,0.793570,0.104120,-1.544000,-2.355000,1.347000,1.266023,-2.997826,-0.388439,-2.196435,1.802005,3.889600,0.000000,0.000000,0.000000,0.000000,0.000000,0.000000
1055.574000,2.704000,103,START d_to_a,Note,59,B3,A,down,0.294958,0.301160,0.793570,0.101960,-1.544000,-2.355000,1.347000,1.266499,-2.999906,-0.389749,-2.192973,1.802369,3.889915,0.000000,0.000000,0.000000,0.000000,0.000000,0.000000
1055.582000,2.712000,103,START d_to_a,Note,59,B3,A,down,0.286958,0.301048,0.793570,0.101400,-1.544000,-2.355000,1.347000,1.266623,-3.000452,-0.390076,-2.192082,1.802463,3.889997,0.000000,0.000000,0.000000,0.000000,0.000000,0.000000
1055.590000,2.720000,103,START d_to_a,Note,59,B3,A,down,0.278958,0.300952,0.793570,0.100920,-1.544000,-2.355000,1.347000,1.266728,-3.000922,-0.390351,-2.191320,1.802544,3.890067,0.000000,0.000000,0.000000,0.000000,0.000000,0.000000
1055.598000,2.728000,103,START d_to_a,Note,59,B3,A,down,0.270958,0.300872,0.793570,0.100520,-1.544000,-2.355000,1.347000,1.266817,-3.001315,-0.390578,-2.190687,1.802612,3.890125,0.000000,0.000000,0.000000,0.000000,0.000000,0.000000
1055.606000,2.736000,103,START d_to_a,Note,59,B3,A,down,0.262958,0.300808,0.793570,0.100200,-1.544000,-2.355000,1.347000,1.266887,-3.001630,-0.390757,-2.190182,1.802666,3.890172,0.000000,0.000000,0.000000,0.000000,0.000000,0.000000
1055.614000,2.744000,103,START d_to_a,Note,59,B3,A,down,0.254958,0.300760,0.793570,0.099960,-1.544000,-2.355000,1.347000,1.266940,-3.001867,-0.390891,-2.189803,1.802706,3.890207,0.000000,0.000000,0.000000,0.000000,0.000000,0.000000
1055.622000,2.752000,103,START d_to_a,Note,59,B3,A,down,0.246958,0.300728,0.793570,0.099800,-1.544000,-2.355000,1.347000,1.266975,-3.002026,-0.390979,-2.189551,1.802733,3.890231,0.000000,0.000000,0.000000,0.000000,0.000000,0.000000
1055.630000,2.760000,103,START d_to_a,Note,59,B3,A,down,0.238958,0.300712,0.793570,0.099720,-1.544000,-2.355000,1.347000,1.266993,-3.002105,-0.391023,-2.189425,1.802747,3.890242,0.000000,0.000000,0.000000,0.000000,0.000000,0.000000
1055.638000,2.768000,1,START a_bow,Note,57,A3,A,up,1.230958,0.300711,0.793566,0.099712,-1.544000,-2.355000,1.347000,1.266993,-3.002095,-0.391066,-2.189392,1.802746,3.890242,0.000000,0.000000,0.000000,0.000000,0.000000,0.000000
1055.646000,2.776000,1,START a_bow,Note,57,A3,A,up,1.222958,0.300721,0.793535,0.099724,-1.544000,-2.355000,1.347000,1.266971,-3.001935,-0.391370,-2.189252,1.802730,3.890228,0.000000,0.000000,0.000000,0.000000,0.000000,0.000000
1055.654000,2.784000,1,START a_bow,Note,57,A3,A,up,1.214958,0.300741,0.793473,0.099750,-1.544000,-2.355000,1.347000,1.266927,-3.001614,-0.391978,-2.188972,1.802696,3.890199,0.000000,0.000000,0.000000,0.000000,0.000000,0.000000
1055.662000,2.792000,1,START a_bow,Note,57,A3,A,up,1.206958,0.300771,0.793380,0.099788,-1.544000,-2.355000,1.347000,1.266862,-3.001134,-0.392886,-2.188553,1.802646,3.890155,0.000000,0.000000,0.000000,0.000000,0.000000,0.000000
1055.670000,2.800000,1,START a_bow,Note,57,A3,A,up,1.198958,0.300811,0.793255,0.099839,-1.544000,-2.355000,1.347000,1.266775,-3.000496,-0.394095,-2.187995,1.802580,3.890098,0.000000,0.000000,0.000000,0.000000,0.000000,0.000000
1055.678000,2.808000,1,START a_bow,Note,57,A3,A,up,1.190958,0.300861,0.793100,0.099903,-1.544000,-2.355000,1.347000,1.266666,-2.999701,-0.395600,-2.187302,1.802496,3.890025,0.000000,0.000000,0.000000,0.000000,0.000000,0.000000
1055.686000,2.816000,1,START a_bow,Note,57,A3,A,up,1.182958,0.300921,0.792914,0.099980,-1.544000,-2.355000,1.347000,1.266535,-2.998751,-0.397399,-2.186474,1.802396,3.889939,0.000000,0.000000,0.000000,0.000000,0.000000,0.000000
1055.694000,2.824000,1,START a_bow,Note,57,A3,A,up,1.174958,0.300992,0.792696,0.100069,-1.544000,-2.355000,1.347000,1.266382,-2.997647,-0.399487,-2.185513,1.802280,3.889838,0.000000,0.000000,0.000000,0.000000,0.000000,0.000000
1055.702000,2.832000,1,START a_bow,Note,57,A3,A,up,1.166958,0.301072,0.792447,0.100171,-1.544000,-2.355000,1.347000,1.266207,-2.996392,-0.401859,-2.184422,1.802146,3.889722,0.000000,0.000000,0.000000,0.000000,0.000000,0.000000
1055.710000,2.840000,1,START a_bow,Note,57,A3,A,up,1.158958,0.301162,0.792168,0.100286,-1.544000,-2.355000,1.347000,1.266011,-2.994988,-0.404511,-2.183204,1.801996,3.889592,0.000000,0.000000,0.000000,0.000000,0.000000,0.000000
1055.718000,2.848000,1,START a_bow,Note,57,A3,A,up,1.150958,0.301262,0.791857,0.100414,-1.544000,-2.355000,1.347000,1.265792,-2.993438,-0.407437,-2.181861,1.801829,3.889447,0.000000,0.000000,0.000000,0.000000,0.000000,0.000000
1055.726000,2.856000,1,START a_bow,Note,57,A3,A,up,1.142958,0.301372,0.791515,0.100554,-1.544000,-2.355000,1.347000,1.265552,-2.991745,-0.410630,-2.180397,1.801645,3.889288,0.000000,0.000000,0.000000,0.000000,0.000000,0.000000
1055.734000,2.864000,1,START a_bow,Note,57,A3,A,up,1.134958,0.301492,0.791142,0.100708,-1.544000,-2.355000,1.347000,1.265289,-2.989912,-0.414085,-2.178815,1.801444,3.889114,0.000000,0.000000,0.000000,0.000000,0.000000,0.000000
1055.750000,2.880000,1,START a_bow,Note,57,A3,A,up,1.118958,0.301762,0.790303,0.101052,-1.544000,-2.355000,1.347000,1.264698,-2.985838,-0.421752,-2.175311,1.800992,3.888722,0.000000,0.000000,0.000000,0.000000,0.000000,0.000000
1055.758000,2.888000,1,START a_bow,Note,57,A3,A,up,1.110958,0.301912,0.789837,0.101244,-1.544000,-2.355000,1.347000,1.264369,-2.983605,-0.425950,-2.173396,1.800740,3.888505,0.000000,0.000000,0.000000,0.000000,0.000000,0.000000
1055.766000,2.896000,1,START a_bow,Note,57,A3,A,up,1.102958,0.302073,0.789340,0.101448,-1.544000,-2.355000,1.347000,1.264018,-2.981244,-0.430381,-2.171379,1.800472,3.888272,0.000000,0.000000,0.000000,0.000000,0.000000,0.000000
1055.774000,2.904000,1,START a_bow,Note,57,A3,A,up,1.094958,0.302243,0.788812,0.101665,-1.544000,-2.355000,1.347000,1.263644,-2.978760,-0.435038,-2.169262,1.800186,3.888025,0.000000,0.000000,0.000000,0.000000,0.000000,0.000000
1055.782000,2.912000,1,START a_bow,Note,57,A3,A,up,1.086958,0.302423,0.788252,0.101895,-1.544000,-2.355000,1.347000,1.263248,-2.976157,-0.439914,-2.167049,1.799883,3.887763,0.000000,0.000000,0.000000,0.000000,0.000000,0.000000
1055.790000,2.920000,1,START a_bow,Note,57,A3,A,up,1.078958,0.302613,0.787662,0.102138,-1.544000,-2.355000,1.347000,1.262830,-2.973437,-0.445000,-2.164746,1.799563,3.887486,0.000000,0.000000,0.000000,0.000000,0.000000,0.000000
1055.798000,2.928000,1,START a_bow,Note,57,A3,A,up,1.070958,0.302813,0.787040,0.102393,-1.544000,-2.355000,1.347000,1.262389,-2.970605,-0.450289,-2.162354,1.799226,3.887195,0.000000,0.000000,0.000000,0.000000,0.000000,0.000000
1055.806000,2.936000,1,START a_bow,Note,57,A3,A,up,1.062958,0.303023,0.786388,0.102661,-1.544000,-2.355000,1.347000,1.261925,-2.967664,-0.455775,-2.159879,1.798872,3.886888,0.000000,0.000000,0.000000,0.000000,0.000000,0.000000
1055.814000,2.944000,1,START a_bow,Note,57,A3,A,up,1.054958,0.303244,0.785704,0.102942,-1.544000,-2.355000,1.347000,1.261439,-2.964617,-0.461449,-2.157325,1.798500,3.886567,0.000000,0.000000,0.000000,0.000000,0.000000,0.000000
1055.822000,2.952000,1,START a_bow,Note,57,A3,A,up,1.046958,0.303474,0.784989,0.103236,-1.544000,-2.355000,1.347000,1.260930,-2.961468,-0.467305,-2.154694,1.798110,3.886230,0.000000,0.000000,0.000000,0.000000,0.000000,0.000000
1055.830000,2.960000,1,START a_bow,Note,57,A3,A,up,1.038958,0.303714,0.784243,0.103542,-1.544000,-2.355000,1.347000,1.260398,-2.958220,-0.473335,-2.151991,1.797703,3.885879,0.000000,0.000000,0.000000,0.000000,0.000000,0.000000
1055.838000,2.968000,1,START a_bow,Note,57,A3,A,up,1.030958,0.303964,0.783466,0.103862,-1.544000,-2.355000,1.347000,1.259844,-2.954877,-0.479532,-2.149220,1.797279,3.885512,0.000000,0.000000,0.000000,0.000000,0.000000,0.000000
1055.846000,2.976000,1,START a_bow,Note,57,A3,A,up,1.022958,0.304225,0.782658,0.104194,-1.544000,-2.355000,1.347000,1.259266,-2.951441,-0.485889,-2.146383,1.796837,3.885131,0.000000,0.000000,0.000000,0.000000,0.000000,0.000000
1055.854000,2.984000,1,START a_bow,Note,57,A3,A,up,1.014958,0.304495,0.781819,0.104538,-1.544000,-2.355000,1.347000,1.258665,-2.947917,-0.492400,-2.143485,1.796377,3.884734,0.000000,0.000000,0.000000,0.000000,0.000000,0.000000
1055.862000,2.992000,1,START a_bow,Note,57,A3,A,up,1.006958,0.304775,0.780949,0.104896,-1.544000,-2.355000,1.347000,1.258041,-2.944306,-0.499059,-2.140530,1.795899,3.884321,0.000000,0.000000,0.000000,0.000000,0.000000,0.000000
1055.870000,3.000000,1,START a_bow,Note,57,A3,A,up,0.998958,0.305065,0.780048,0.105266,-1.544000,-2.355000,1.347000,1.257393,-2.940612,-0.505859,-2.137519,1.795404,3.883894,0.000000,0.000000,0.000000,0.000000,0.000000,0.000000
1055.878000,3.008000,1,START a_bow,Note,57,A3,A,up,0.990958,0.305366,0.779116,0.105649,-1.544000,-2.355000,1.347000,1.256722,-2.936838,-0.512793,-2.134457,1.794890,3.883451,0.000000,0.000000,0.000000,0.000000,0.000000,0.000000
1055.886000,3.016000,1,START a_bow,Note,57,A3,A,up,0.982958,0.305676,0.778152,0.106045,-1.544000,-2.355000,1.347000,1.256027,-2.932986,-0.519857,-2.131347,1.794358,3.882992,0.000000,0.000000,0.000000,0.000000,0.000000,0.000000
1055.894000,3.024000,1,START a_bow,Note,57,A3,A,up,0.974958,0.305996,0.777158,0.106454,-1.544000,-2.355000,1.347000,1.255309,-2.929059,-0.527044,-2.128192,1.793808,3.882518,0.000000,0.000000,0.000000,0.000000,0.000000,0.000000
1055.902000,3.032000,1,START a_bow,Note,57,A3,A,up,0.966958,0.306327,0.776133,0.106875,-1.544000,-2.355000,1.347000,1.254567,-2.925060,-0.534349,-2.124994,1.793240,3.882029,0.000000,0.000000,0.000000,0.000000,0.000000,0.000000
1055.910000,3.040000,1,START a_bow,Note,57,A3,A,up,0.958958,0.306667,0.775076,0.107309,-1.544000,-2.355000,1.347000,1.253800,-2.920991,-0.541767,-2.121757,1.792653,3.881523,0.000000,0.000000,0.000000,0.000000,0.000000,0.000000
1055.918000,3.048000,1,START a_bow,Note,57,A3,A,up,0.950958,0.307017,0.773988,0.107756,-1.544000,-2.355000,1.347000,1.253010,-2.916855,-0.549292,-2.118483,1.792048,3.881002,0.000000,0.000000,0.000000,0.000000,0.000000,0.000000
1055.926000,3.056000,1,START a_bow,Note,57,A3,A,up,0.942958,0.307378,0.772870,0.108216,-1.544000,-2.355000,1.347000,1.252195,-2.912653,-0.556920,-2.115175,1.791424,3.880465,0.000000,0.000000,0.000000,0.000000,0.000000,0.000000
1055.934000,3.064000,1,START a_bow,Note,57,A3,A,up,0.934958,0.307748,0.771720,0.108689,-1.544000,-2.355000,1.347000,1.251356,-2.908388,-0.564645,-2.111835,1.790782,3.879913,0.000000,0.000000,0.000000,0.000000,0.000000,0.000000
1055.942000,3.072000,1,START a_bow,Note,57,A3,A,up,0.926958,0.308128,0.770539,0.109174,-1.544000,-2.355000,1.347000,1.250493,-2.904062,-0.572464,-2.108466,1.790120,3.879344,0.000000,0.000000,0.000000,0.000000,0.000000,0.000000
1055.958000,3.088000,1,START a_bow,Note,57,A3,A,up,0.910958,0.308900,0.768143,0.110158,-1.544000,-2.355000,1.347000,1.248735,-2.895446,-0.587985,-2.101811,1.788773,3.878186,0.000000,0.000000,0.000000,0.000000,0.000000,0.000000
1055.966000,3.096000,1,START a_bow,Note,57,A3,A,up,0.902958,0.309286,0.766946,0.110650,-1.544000,-2.355000,1.347000,1.247853,-2.891214,-0.595583,-2.098570,1.788098,3.877606,0.000000,0.000000,0.000000,0.000000,0.000000,0.000000
1055.974000,3.104000,1,START a_bow,Note,57,A3,A,up,0.894958,0.309672,0.765748,0.111143,-1.544000,-2.355000,1.347000,1.246969,-2.887031,-0.603079,-2.095384,1.787420,3.877024,0.000000,0.000000,0.000000,0.000000,0.000000,0.000000
1055.982000,3.112000,1,START a_bow,Note,57,A3,A,up,0.886958,0.310057,0.764550,0.111635,-1.544000,-2.355000,1.347000,1.246083,-2.882893,-0.610475,-2.092250,1.786741,3.876441,0.000000,0.000000,0.000000,0.000000,0.000000,0.000000
1055.990000,3.120000,1,START a_bow,Note,57,A3,A,up,0.878958,0.310443,0.763352,0.112127,-1.544000,-2.355000,1.347000,1.245195,-2.878800,-0.617777,-2.089166,1.786061,3.875857,0.000000,0.000000,0.000000,0.000000,0.000000,0.000000
1056.006000,3.136000,1,START a_bow,Note,57,A3,A,up,0.862958,0.311215,0.760956,0.113111,-1.544000,-2.355000,1.347000,1.243413,-2.870742,-0.632105,-2.083145,1.784695,3.874686,0.000000,0.000000,0.000000,0.000000,0.000000,0.000000
1056.014000,3.144000,1,START a_bow,Note,57,A3,A,up,0.854958,0.311601,0.759759,0.113604,-1.544000,-2.355000,1.347000,1.242519,-2.866774,-0.639139,-2.080205,1.784009,3.874099,0.000000,0.000000,0.000000,0.000000,0.000000,0.000000
1056.022000,3.152000,1,START a_bow,Note,57,A3,A,up,0.846958,0.311986,0.758561,0.114096,-1.544000,-2.355000,1.347000,1.241623,-2.862844,-0.646089,-2.077308,1.783322,3.873510,0.000000,0.000000,0.000000,0.000000,0.000000,0.000000
1056.030000,3.160000,1,START a_bow,Note,57,A3,A,up,0.838958,0.312372,0.757363,0.114588,-1.544000,-2.355000,1.347000,1.240725,-2.858952,-0.652959,-2.074455,1.782633,3.872921,0.000000,0.000000,0.000000,0.000000,0.000000,0.000000
1056.038000,3.168000,1,START a_bow,Note,57,A3,A,up,0.830958,0.312758,0.756165,0.115080,-1.544000,-2.355000,1.347000,1.239824,-2.855096,-0.659750,-2.071643,1.781943,3.872330,0.000000,0.000000,0.000000,0.000000,0.000000,0.000000
1056.046000,3.176000,1,START a_bow,Note,57,A3,A,up,0.822958,0.313144,0.754967,0.115572,-1.544000,-2.355000,1.347000,1.238922,-2.851276,-0.666465,-2.068872,1.781251,3.871738,0.000000,0.000000,0.000000,0.000000,0.000000,0.000000
1056.054000,3.184000,1,START a_bow,Note,57,A3,A,up,0.814958,0.313530,0.753770,0.116065,-1.544000,-2.355000,1.347000,1.238018,-2.847489,-0.673107,-2.066141,1.780558,3.871145,0.000000,0.000000,0.000000,0.000000,0.000000,0.000000
1056.062000,3.192000,1,START a_bow,Note,57,A3,A,up,0.806958,0.313915,0.752572,0.116557,-1.544000,-2.355000,1.347000,1.237112,-2.843736,-0.679677,-2.063448,1.779862,3.870551,0.000000,0.000000,0.000000,0.000000,0.000000,0.000000
1056.070000,3.200000,1,START a_bow,Note,57,A3,A,up,0.798958,0.314301,0.751374,0.117049,-1.544000,-2.355000,1.347000,1.236204,-2.840015,-0.686178,-2.060792,1.779165,3.869955,0.000000,0.000000,0.000000,0.000000,0.000000,0.000000
1056.078000,3.208000,1,START a_bow,Note,57,A3,A,up,0.790958,0.314687,0.750176,0.117541,-1.544000,-2.355000,1.347000,1.235293,-2.836324,-0.692611,-2.058172,1.778467,3.869359,0.000000,0.000000,0.000000,0.000000,0.000000,0.000000
1056.086000,3.216000,1,START a_bow,Note,57,A3,A,up,0.782958,0.315073,0.748978,0.118033,-1.544000,-2.355000,1.347000,1.234381,-2.832665,-0.698978,-2.055588,1.777767,3.868761,0.000000,0.000000,0.000000,0.000000,0.000000,0.000000
1056.110000,3.240000,1,START a_bow,Note,57,A3,A,up,0.758958,0.316230,0.745385,0.119510,-1.544000,-2.355000,1.347000,1.231631,-2.821858,-0.717702,-2.048038,1.775656,3.866960,0.000000,0.000000,0.000000,0.000000,0.000000,0.000000
1056.118000,3.248000,1,START a_bow,Note,57,A3,A,up,0.750958,0.316616,0.744187,0.120002,-1.544000,-2.355000,1.347000,1.230710,-2.818312,-0.723823,-2.045587,1.774949,3.866358,0.000000,0.000000,0.000000,0.000000,0.000000,0.000000
1056.126000,3.256000,1,START a_bow,Note,57,A3,A,up,0.742958,0.317002,0.742989,0.120494,-1.544000,-2.355000,1.347000,1.229787,-2.814791,-0.729886,-2.043166,1.774241,3.865754,0.000000,0.000000,0.000000,0.000000,0.000000,0.000000
1056.134000,3.264000,1,START a_bow,Note,57,A3,A,up,0.734958,0.317388,0.741791,0.120986,-1.544000,-2.355000,1.347000,1.228862,-2.811297,-0.735892,-2.040776,1.773530,3.865149,0.000000,0.000000,0.000000,0.000000,0.000000,0.000000
1056.142000,3.272000,1,START a_bow,Note,57,A3,A,up,0.726958,0.317774,0.740594,0.121479,-1.544000,-2.355000,1.347000,1.227935,-2.807827,-0.741844,-2.038416,1.772818,3.864543,0.000000,0.000000,0.000000,0.000000,0.000000,0.000000
1056.150000,3.280000,1,START a_bow,Note,57,A3,A,up,0.718958,0.318159,0.739396,0.121971,-1.544000,-2.355000,1.347000,1.227006,-2.804382,-0.747741,-2.036085,1.772105,3.863935,0.000000,0.000000,0.000000,0.000000,0.000000,0.000000
1056.158000,3.288000,1,START a_bow,Note,57,A3,A,up,0.710958,0.318545,0.738198,0.122463,-1.544000,-2.355000,1.347000,1.226075,-2.800961,-0.753587,-2.033782,1.771390,3.863327,0.000000,0.000000,0.000000,0.000000,0.000000,0.000000
1056.166000,3.296000,1,START a_bow,Note,57,A3,A,up,0.702958,0.318931,0.737000,0.122955,-1.544000,-2.355000,1.347000,1.225142,-2.797564,-0.759380,-2.031507,1.770673,3.862717,0.000000,0.000000,0.000000,0.000000,0.000000,0.000000
1056.174000,3.304000,1,START a_bow,Note,57,A3,A,up,0.694958,0.319317,0.735802,0.123447,-1.544000,-2.355000,1.347000,1.224206,-2.794189,-0.765124,-2.029260,1.769954,3.862106,0.000000,0.000000,0.000000,0.000000,0.000000,0.000000
1056.182000,3.312000,1,START a_bow,Note,57,A3,A,up,0.686958,0.319703,0.734605,0.123940,-1.544000,-2.355000,1.347000,1.223269,-2.790836,-0.770818,-2.027039,1.769233,3.861494,0.000000,0.000000,0.000000,0.000000,0.000000,0.000000
1056.190000,3.320000,1,START a_bow,Note,57,A3,A,up,0.678958,0.320088,0.733407,0.124432,-1.544000,-2.355000,1.347000,1.222329,-2.787505,-0.776465,-2.024844,1.768511,3.860881,0.000000,0.000000,0.000000,0.000000,0.000000,0.000000
1056.198000,3.328000,1,START a_bow,Note,57,A3,A,up,0.670958,0.320474,0.732209,0.124924,-1.544000,-2.355000,1.347000,1.221387,-2.784196,-0.782064,-2.022675,1.767787,3.860266,0.000000,0.000000,0.000000,0.000000,0.000000,0.000000
1056.206000,3.336000,1,START a_bow,Note,57,A3,A,up,0.662958,0.320860,0.731011,0.125416,-1.544000,-2.355000,1.347000,1.220443,-2.780907,-0.787617,-2.020531,1.767062,3.859650,0.000000,0.000000,0.000000,0.000000,0.000000,0.000000
1056.222000,3.352000,1,START a_bow,Note,57,A3,A,up,0.646958,0.321632,0.728616,0.126401,-1.544000,-2.355000,1.347000,1.218548,-2.774390,-0.798588,-2.016317,1.765606,3.858415,0.000000,0.000000,0.000000,0.000000,0.000000,0.000000
1056.230000,3.360000,1,START a_bow,Note,57,A3,A,up,0.638958,0.322018,0.727418,0.126893,-1.544000,-2.355000,1.347000,1.217598,-2.771161,-0.804008,-2.014246,1.764875,3.857795,0.000000,0.000000,0.000000,0.000000,0.000000,0.000000
1056.238000,3.368000,1,START a_bow,Note,57,A3,A,up,0.630958,0.322403,0.726220,0.127385,-1.544000,-2.355000,1.347000,1.216645,-2.767951,-0.809386,-2.012198,1.764142,3.857175,0.000000,0.000000,0.000000,0.000000,0.000000,0.000000
1056.246000,3.376000,1,START a_bow,Note,57,A3,A,up,0.622958,0.322789,0.725022,0.127877,-1.544000,-2.355000,1.347000,1.215690,-2.764760,-0.814721,-2.010172,1.763408,3.856553,0.000000,0.000000,0.000000,0.000000,0.000000,0.000000
1056.254000,3.384000,1,START a_bow,Note,57,A3,A,up,0.614958,0.323175,0.723824,0.128369,-1.544000,-2.355000,1.347000,1.214733,-2.761587,-0.820016,-2.008170,1.762672,3.855929,0.000000,0.000000,0.000000,0.000000,0.000000,0.000000
1056.262000,3.392000,1,START a_bow,Note,57,A3,A,up,0.606958,0.323561,0.722626,0.128862,-1.544000,-2.355000,1.347000,1.213774,-2.758432,-0.825271,-2.006189,1.761935,3.855305,0.000000,0.000000,0.000000,0.000000,0.000000,0.000000
1056.270000,3.400000,1,START a_bow,Note,57,A3,A,up,0.598958,0.323947,0.721429,0.129354,-1.544000,-2.355000,1.347000,1.212813,-2.755294,-0.830486,-2.004230,1.761195,3.854679,0.000000,0.000000,0.000000,0.000000,0.000000,0.000000
1056.278000,3.408000,1,START a_bow,Note,57,A3,A,up,0.590958,0.324332,0.720231,0.129846,-1.544000,-2.355000,1.347000,1.211849,-2.752174,-0.835662,-2.002292,1.760454,3.854052,0.000000,0.000000,0.000000,0.000000,0.000000,0.000000
1056.286000,3.416000,1,START a_bow,Note,57,A3,A,up,0.582958,0.324718,0.719033,0.130338,-1.544000,-2.355000,1.347000,1.210884,-2.749071,-0.840800,-2.000375,1.759711,3.853424,0.000000,0.000000,0.000000,0.000000,0.000000,0.000000
1056.294000,3.424000,1,START a_bow,Note,57,A3,A,up,0.574958,0.325104,0.717835,0.130830,-1.544000,-2.355000,1.347000,1.209916,-2.745985,-0.845900,-1.998479,1.758966,3.852795,0.000000,0.000000,0.000000,0.000000,0.000000,0.000000
1056.302000,3.432000,1,START a_bow,Note,57,A3,A,up,0.566958,0.325490,0.716637,0.131323,-1.544000,-2.355000,1.347000,1.208946,-2.742914,-0.850964,-1.996604,1.758220,3.852164,0.000000,0.000000,0.000000,0.000000,0.000000,0.000000
1056.310000,3.440000,1,START a_bow,Note,57,A3,A,up,0.558958,0.325876,0.715440,0.131815,-1.544000,-2.355000,1.347000,1.207973,-2.739860,-0.855992,-1.994748,1.757471,3.851532,0.000000,0.000000,0.000000,0.000000,0.000000,0.000000
1056.318000,3.448000,1,START a_bow,Note,57,A3,A,up,0.550958,0.326261,0.714242,0.132307,-1.544000,-2.355000,1.347000,1.206999,-2.736822,-0.860984,-1.992911,1.756721,3.850899,0.000000,0.000000,0.000000,0.000000,0.000000,0.000000
1056.326000,3.456000,1,START a_bow,Note,57,A3,A,up,0.542958,0.326647,0.713045,0.132799,-1.544000,-2.355000,1.347000,1.206023,-2.733802,-0.865935,-1.991097,1.755970,3.850265,0.000000,0.000000,0.000000,0.000000,0.000000,0.000000
1056.334000,3.464000,1,START a_bow,Note,57,A3,A,up,0.534958,0.327025,0.711872,0.133281,-1.544000,-2.355000,1.347000,1.205064,-2.730856,-0.870757,-1.989336,1.755232,3.849643,0.000000,0.000000,0.000000,0.000000,0.000000,0.000000
1056.342000,3.472000,1,START a_bow,Note,57,A3,A,up,0.526958,0.327393,0.710730,0.133750,-1.544000,-2.355000,1.347000,1.204129,-2.728002,-0.875419,-1.987639,1.754512,3.849035,0.000000,0.000000,0.000000,0.000000,0.000000,0.000000
1056.350000,3.480000,1,START a_bow,Note,57,A3,A,up,0.518958,0.327750,0.709619,0.134206,-1.544000,-2.355000,1.347000,1.203217,-2.725238,-0.879926,-1.986004,1.753810,3.848443,0.000000,0.000000,0.000000,0.000000,0.000000,0.000000
1056.358000,3.488000,1,START a_bow,Note,57,A3,A,up,0.510958,0.328098,0.708539,0.134650,-1.544000,-2.355000,1.347000,1.202329,-2.722563,-0.884279,-1.984430,1.753126,3.847867,0.000000,0.000000,0.000000,0.000000,0.000000,0.000000
1056.366000,3.496000,1,START a_bow,Note,57,A3,A,up,0.502958,0.328436,0.707491,0.135081,-1.544000,-2.355000,1.347000,1.201464,-2.719976,-0.888482,-1.982916,1.752460,3.847306,0.000000,0.000000,0.000000,0.000000,0.000000,0.000000
1056.374000,3.504000,1,START a_bow,Note,57,A3,A,up,0.494958,0.328764,0.706473,0.135499,-1.544000,-2.355000,1.347000,1.200624,-2.717477,-0.892536,-1.981459,1.751813,3.846761,0.000000,0.000000,0.000000,0.000000,0.000000,0.000000
1056.382000,3.512000,1,START a_bow,Note,57,A3,A,up,0.486958,0.329082,0.705486,0.135905,-1.544000,-2.355000,1.347000,1.199807,-2.715063,-0.896446,-1.980059,1.751184,3.846232,0.000000,0.000000,0.000000,0.000000,0.000000,0.000000
1056.390000,3.520000,1,START a_bow,Note,57,A3,A,up,0.478958,0.329389,0.704531,0.136297,-1.544000,-2.355000,1.347000,1.199015,-2.712733,-0.900211,-1.978714,1.750574,3.845718,0.000000,0.000000,0.000000,0.000000,0.000000,0.000000
1056.398000,3.528000,1,START a_bow,Note,57,A3,A,up,0.470958,0.329687,0.703606,0.136677,-1.544000,-2.355000,1.347000,1.198247,-2.710488,-0.903836,-1.977424,1.749983,3.845221,0.000000,0.000000,0.000000,0.000000,0.000000,0.000000
1056.406000,3.536000,1,START a_bow,Note,57,A3,A,up,0.462958,0.329975,0.702713,0.137045,-1.544000,-2.355000,1.347000,1.197504,-2.708326,-0.907322,-1.976186,1.749410,3.844739,0.000000,0.000000,0.000000,0.000000,0.000000,0.000000
1056.414000,3.544000,1,START a_bow,Note,57,A3,A,up,0.454958,0.330253,0.701850,0.137399,-1.544000,-2.355000,1.347000,1.196786,-2.706246,-0.910670,-1.975000,1.748857,3.844274,0.000000,0.000000,0.000000,0.000000,0.000000,0.000000
1056.422000,3.552000,1,START a_bow,Note,57,A3,A,up,0.446958,0.330521,0.701019,0.137740,-1.544000,-2.355000,1.347000,1.196092,-2.704247,-0.913883,-1.973866,1.748322,3.843824,0.000000,0.000000,0.000000,0.000000,0.000000,0.000000
1056.430000,3.560000,1,START a_bow,Note,57,A3,A,up,0.438958,0.330778,0.700219,0.138069,-1.544000,-2.355000,1.347000,1.195423,-2.702329,-0.916962,-1.972781,1.747807,3.843391,0.000000,0.000000,0.000000,0.000000,0.000000,0.000000
1056.438000,3.568000,1,START a_bow,Note,57,A3,A,up,0.430958,0.331026,0.699450,0.138385,-1.544000,-2.355000,1.347000,1.194779,-2.700490,-0.919910,-1.971745,1.747311,3.842974,0.000000,0.000000,0.000000,0.000000,0.000000,0.000000
1056.446000,3.576000,1,START a_bow,Note,57,A3,A,up,0.422958,0.331264,0.698712,0.138689,-1.544000,-2.355000,1.347000,1.194160,-2.698731,-0.922727,-1.970758,1.746834,3.842574,0.000000,0.000000,0.000000,0.000000,0.000000,0.000000
1056.454000,3.584000,1,START a_bow,Note,57,A3,A,up,0.414958,0.331491,0.698005,0.138979,-1.544000,-2.355000,1.347000,1.193567,-2.697050,-0.925416,-1.969817,1.746376,3.842190,0.000000,0.000000,0.000000,0.000000,0.000000,0.000000
1056.462000,3.592000,1,START a_bow,Note,57,A3,A,up,0.406958,0.331709,0.697329,0.139257,-1.544000,-2.355000,1.347000,1.192999,-2.695447,-0.927976,-1.968924,1.745939,3.841822,0.000000,0.000000,0.000000,0.000000,0.000000,0.000000
1056.478000,3.608000,1,START a_bow,Note,57,A3,A,up,0.390958,0.332115,0.696070,0.139774,-1.544000,-2.355000,1.347000,1.191939,-2.692472,-0.932721,-1.967273,1.745122,3.841136,0.000000,0.000000,0.000000,0.000000,0.000000,0.000000
1056.486000,3.616000,1,START a_bow,Note,57,A3,A,up,0.382958,0.332302,0.695487,0.140013,-1.544000,-2.355000,1.347000,1.191447,-2.691100,-0.934907,-1.966514,1.744743,3.840818,0.000000,0.000000,0.000000,0.000000,0.000000,0.000000
1056.494000,3.624000,1,START a_bow,Note,57,A3,A,up,0.374958,0.332480,0.694936,0.140240,-1.544000,-2.355000,1.347000,1.190981,-2.689803,-0.936970,-1.965800,1.744384,3.840517,0.000000,0.000000,0.000000,0.000000,0.000000,0.000000
1056.502000,3.632000,1,START a_bow,Note,57,A3,A,up,0.366958,0.332648,0.694415,0.140454,-1.544000,-2.355000,1.347000,1.190541,-2.688582,-0.938912,-1.965129,1.744044,3.840233,0.000000,0.000000,0.000000,0.000000,0.000000,0.000000
1056.518000,3.648000,1,START a_bow,Note,57,A3,A,up,0.350958,0.332953,0.693468,0.140843,-1.544000,-2.355000,1.347000,1.189739,-2.686363,-0.942434,-1.963914,1.743426,3.839714,0.000000,0.000000,0.000000,0.000000,0.000000,0.000000
1056.526000,3.656000,1,START a_bow,Note,57,A3,A,up,0.342958,0.333090,0.693040,0.141019,-1.544000,-2.355000,1.347000,1.189377,-2.685366,-0.944017,-1.963369,1.743147,3.839480,0.000000,0.000000,0.000000,0.000000,0.000000,0.000000
1056.534000,3.664000,1,START a_bow,Note,57,A3,A,up,0.334958,0.333218,0.692644,0.141182,-1.544000,-2.355000,1.347000,1.189041,-2.684442,-0.945481,-1.962866,1.742887,3.839262,0.000000,0.000000,0.000000,0.000000,0.000000,0.000000
